(FRAME)
(T11  D=2 CR=0 - ZMIN=-4.58 - FLAT END MILL)
G90 G94 G91.1 G40 G49 G17
G21

(NUT POCKETS)
M5
M9
T11 M6
(DIAMOND OR SPIRAL)
S16000 M3
G54
M8
G0 X50.388 Y22.903
G43 Z15 H1
Z2
G1 Z-0.8 F120
G3 X50.362 Y22.907 Z-0.9 I-0.046 J-0.195
X50.289 Y22.901 Z-0.973 I-0.019 J-0.199
X50.204 Y22.852 Z-1 I0.053 J-0.193
G1 X50.175 Y22.824 F240
G3 X50.06 Y22.418 I0.294 J-0.303
G1 X50.079 Y22.342
G3 X50.373 Y22.039 I0.409 J0.103
G1 X50.449 Y22.018
G3 X50.858 Y22.121 I0.115 J0.406
G1 X50.914 Y22.176
G3 X51.03 Y22.582 I-0.294 J0.303
G1 X51.01 Y22.658
G3 X50.716 Y22.961 I-0.409 J-0.103
G1 X50.641 Y22.982
G3 X50.232 Y22.879 I-0.115 J-0.406
G1 X50.204 Y22.852
G2 X49.554 Y22.858 I-0.321 J0.331
G3 X48.988 Y22.54 I-0.24 J-0.237
G1 X49.199 Y21.703
G2 X49.191 Y21.186 I-0.97 J-0.244
X49.708 Y21.178 I0.244 J-0.97
G1 X50.562 Y20.936
G2 X51.006 Y20.671 I-0.273 J-0.962
X51.271 Y21.115 I0.962 J-0.273
G1 X51.908 Y21.732
G2 X52.36 Y21.985 I0.696 J-0.718
X52.108 Y22.437 I0.718 J0.696
G1 X51.891 Y23.297
G2 X51.899 Y23.814 I0.97 J0.244
X51.381 Y23.822 I-0.244 J0.97
G1 X50.528 Y24.064
G2 X50.084 Y24.329 I0.273 J0.962
X49.818 Y23.885 I-0.962 J0.273
G1 X49.182 Y23.268
G2 X48.73 Y23.015 I-0.696 J0.718
X48.982 Y22.563 I-0.718 J-0.696
G1 X48.988 Y22.54
G3 X49.202 Y22.39 I0.194 J0.049
G1 X50.363 Y22.509
G3 X50.388 Y22.903 I-0.02 J0.199
G1 Z-1.75 F120
G3 X50.362 Y22.907 Z-1.85 I-0.046 J-0.195
X50.289 Y22.901 Z-1.923 I-0.019 J-0.199
X50.204 Y22.852 Z-1.95 I0.053 J-0.193
G1 X50.175 Y22.824 F240
G3 X50.06 Y22.418 I0.294 J-0.303
G1 X50.079 Y22.342
G3 X50.373 Y22.039 I0.409 J0.103
G1 X50.449 Y22.018
G3 X50.858 Y22.121 I0.115 J0.406
G1 X50.914 Y22.176
G3 X51.03 Y22.582 I-0.294 J0.303
G1 X51.01 Y22.658
G3 X50.716 Y22.961 I-0.409 J-0.103
G1 X50.641 Y22.982
G3 X50.232 Y22.879 I-0.115 J-0.406
G1 X50.204 Y22.852
G2 X49.554 Y22.858 I-0.321 J0.331
G3 X48.988 Y22.54 I-0.24 J-0.237
G1 X49.199 Y21.703
G2 X49.191 Y21.186 I-0.97 J-0.244
X49.708 Y21.178 I0.244 J-0.97
G1 X50.562 Y20.936
G2 X51.006 Y20.671 I-0.273 J-0.962
X51.271 Y21.115 I0.962 J-0.273
G1 X51.908 Y21.732
G2 X52.36 Y21.985 I0.696 J-0.718
X52.108 Y22.437 I0.718 J0.696
G1 X51.891 Y23.297
G2 X51.899 Y23.814 I0.97 J0.244
X51.381 Y23.822 I-0.244 J0.97
G1 X50.528 Y24.064
G2 X50.084 Y24.329 I0.273 J0.962
X49.818 Y23.885 I-0.962 J0.273
G1 X49.182 Y23.268
G2 X48.73 Y23.015 I-0.696 J0.718
X48.982 Y22.563 I-0.718 J-0.696
G1 X48.988 Y22.54
G3 X49.035 Y22.453 Z-1.923 I0.194 J0.049 F480
X49.093 Y22.409 Z-1.85 I0.147 J0.136
X49.118 Y22.399 Z-1.75 I0.088 J0.179
G0 Z5
X55.305 Y38.14
Z2
G1 Z-0.8 F120
G3 X55.322 Y38.161 Z-0.9 I-0.148 J0.135
X55.352 Y38.227 Z-0.973 I-0.165 J0.114
X55.351 Y38.326 Z-1 I-0.194 J0.047
G1 X55.34 Y38.364 F240
G3 X55.042 Y38.663 I-0.408 J-0.109
G1 X54.966 Y38.683
G3 X54.558 Y38.574 I-0.109 J-0.408
G1 X54.503 Y38.518
G3 X54.394 Y38.111 I0.299 J-0.299
G1 X54.414 Y38.035
G3 X54.713 Y37.736 I0.408 J0.109
G1 X54.788 Y37.716
G3 X55.196 Y37.825 I0.109 J0.408
G1 X55.251 Y37.881
G3 X55.361 Y38.289 I-0.299 J0.299
G1 X55.351 Y38.326
G2 X55.673 Y38.89 I0.446 J0.119
G3 X55.67 Y39.54 I-0.09 J0.324
G1 X54.837 Y39.763
G2 X54.389 Y40.022 I0.259 J0.966
X54.13 Y39.574 I-0.966 J0.259
G1 X53.503 Y38.947
G2 X53.055 Y38.688 I-0.707 J0.707
X53.314 Y38.24 I-0.707 J-0.707
G1 X53.543 Y37.383
G2 Y36.865 I-0.966 J-0.259
X54.061 I0.259 J-0.966
G1 X54.917 Y36.636
G2 X55.366 Y36.377 I-0.259 J-0.966
X55.624 Y36.825 I0.966 J-0.259
G1 X56.251 Y37.452
G2 X56.7 Y37.711 I0.707 J-0.707
X56.441 Y38.16 I0.707 J0.707
G1 X56.211 Y39.016
G2 Y39.534 I0.966 J0.259
X55.694 I-0.259 J0.966
G1 X55.67 Y39.54
G3 X55.435 Y39.426 I-0.052 J-0.193
G1 X54.974 Y38.354
G3 X55.305 Y38.14 I0.184 J-0.079
G1 Z-1.75 F120
G3 X55.322 Y38.161 Z-1.85 I-0.148 J0.135
X55.352 Y38.227 Z-1.923 I-0.165 J0.114
X55.351 Y38.326 Z-1.95 I-0.194 J0.047
G1 X55.34 Y38.364 F240
G3 X55.042 Y38.663 I-0.408 J-0.109
G1 X54.966 Y38.683
G3 X54.558 Y38.574 I-0.109 J-0.408
G1 X54.503 Y38.518
G3 X54.394 Y38.111 I0.299 J-0.299
G1 X54.414 Y38.035
G3 X54.713 Y37.736 I0.408 J0.109
G1 X54.788 Y37.716
G3 X55.196 Y37.825 I0.109 J0.408
G1 X55.251 Y37.881
G3 X55.361 Y38.289 I-0.299 J0.299
G1 X55.351 Y38.326
G2 X55.673 Y38.89 I0.446 J0.119
G3 X55.67 Y39.54 I-0.09 J0.324
G1 X54.837 Y39.763
G2 X54.389 Y40.022 I0.259 J0.966
X54.13 Y39.574 I-0.966 J0.259
G1 X53.503 Y38.947
G2 X53.055 Y38.688 I-0.707 J0.707
X53.314 Y38.24 I-0.707 J-0.707
G1 X53.543 Y37.383
G2 Y36.865 I-0.966 J-0.259
X54.061 I0.259 J-0.966
G1 X54.917 Y36.636
G2 X55.366 Y36.377 I-0.259 J-0.966
X55.624 Y36.825 I0.966 J-0.259
G1 X56.251 Y37.452
G2 X56.7 Y37.711 I0.707 J-0.707
X56.441 Y38.16 I0.707 J0.707
G1 X56.211 Y39.016
G2 Y39.534 I0.966 J0.259
X55.694 I-0.259 J0.966
G1 X55.67 Y39.54
G3 X55.571 Y39.541 Z-1.923 I-0.052 J-0.193 F480
X55.505 Y39.511 Z-1.85 I0.047 J-0.194
X55.484 Y39.495 Z-1.75 I0.114 J-0.165
G0 Z5
X70.148 Y42.585
Z2
G1 Z-0.8 F120
G3 X70.132 Y42.564 Z-0.9 I0.15 J-0.132
X70.103 Y42.497 Z-0.973 I0.166 J-0.111
X70.105 Y42.398 Z-1 I0.195 J-0.044
G1 X70.116 Y42.36 F240
G3 X70.419 Y42.066 I0.406 J0.115
G1 X70.495 Y42.047
G3 X70.901 Y42.163 I0.103 J0.409
G1 X70.956 Y42.219
G3 X71.059 Y42.628 I-0.303 J0.294
G1 X71.037 Y42.704
G3 X70.735 Y42.998 I-0.406 J-0.115
G1 X70.659 Y43.017
G3 X70.253 Y42.901 I-0.103 J-0.409
G1 X70.198 Y42.845
G3 X70.095 Y42.436 I0.303 J-0.294
G1 X70.105 Y42.398
G2 X69.792 Y41.829 I-0.444 J-0.126
G3 X69.804 Y41.18 I0.095 J-0.323
G1 X70.64 Y40.969
G2 X71.092 Y40.717 I-0.244 J-0.97
X71.344 Y41.169 I0.97 J-0.244
G1 X71.962 Y41.805
G2 X72.406 Y42.071 I0.718 J-0.696
X72.141 Y42.515 I0.697 J0.718
G1 X71.899 Y43.368
G2 X71.891 Y43.886 I0.962 J0.273
X71.373 Y43.878 I-0.273 J0.962
G1 X70.514 Y44.095
G2 X70.061 Y44.347 I0.244 J0.97
X69.809 Y43.895 I-0.97 J0.244
G1 X69.192 Y43.259
G2 X68.747 Y42.993 I-0.718 J0.696
X69.013 Y42.549 I-0.697 J-0.718
G1 X69.255 Y41.696
G2 X69.263 Y41.178 I-0.962 J-0.273
X69.78 Y41.186 I0.273 J-0.962
G1 X69.804 Y41.18
G3 X70.038 Y41.298 I0.049 J0.194
G1 X70.483 Y42.377
G3 X70.148 Y42.585 I-0.185 J0.076
G1 Z-1.75 F120
G3 X70.132 Y42.564 Z-1.85 I0.15 J-0.132
X70.103 Y42.497 Z-1.923 I0.166 J-0.111
X70.105 Y42.398 Z-1.95 I0.195 J-0.044
G1 X70.116 Y42.36 F240
G3 X70.419 Y42.066 I0.406 J0.115
G1 X70.495 Y42.047
G3 X70.901 Y42.163 I0.103 J0.409
G1 X70.956 Y42.219
G3 X71.059 Y42.628 I-0.303 J0.294
G1 X71.037 Y42.704
G3 X70.735 Y42.998 I-0.406 J-0.115
G1 X70.659 Y43.017
G3 X70.253 Y42.901 I-0.103 J-0.409
G1 X70.198 Y42.845
G3 X70.095 Y42.436 I0.303 J-0.294
G1 X70.105 Y42.398
G2 X69.792 Y41.829 I-0.444 J-0.126
G3 X69.804 Y41.18 I0.095 J-0.323
G1 X70.64 Y40.969
G2 X71.092 Y40.717 I-0.244 J-0.97
X71.344 Y41.169 I0.97 J-0.244
G1 X71.962 Y41.805
G2 X72.406 Y42.071 I0.718 J-0.696
X72.141 Y42.515 I0.697 J0.718
G1 X71.899 Y43.368
G2 X71.891 Y43.886 I0.962 J0.273
X71.373 Y43.878 I-0.273 J0.962
G1 X70.514 Y44.095
G2 X70.061 Y44.347 I0.244 J0.97
X69.809 Y43.895 I-0.97 J0.244
G1 X69.192 Y43.259
G2 X68.747 Y42.993 I-0.718 J0.696
X69.013 Y42.549 I-0.697 J-0.718
G1 X69.255 Y41.696
G2 X69.263 Y41.178 I-0.962 J-0.273
X69.78 Y41.186 I0.273 J-0.962
G1 X69.804 Y41.18
G3 X69.903 Z-1.923 I0.049 J0.194 F480
X69.969 Y41.211 Z-1.85 I-0.05 J0.194
X69.99 Y41.228 Z-1.75 I-0.116 J0.163
G0 Z5
X60.207 Y27.753
Z2
G1 Z-0.8 F120
G3 X60.217 Y27.729 Z-0.9 I0.19 J0.064
X60.261 Y27.67 Z-0.973 I0.179 J0.088
X60.348 Y27.623 Z-1 I0.136 J0.147
G1 X60.386 Y27.614 F240
G3 X60.792 Y27.729 I0.103 J0.409
G1 X60.847 Y27.785
G3 X60.95 Y28.194 I-0.303 J0.294
G1 X60.928 Y28.27
G3 X60.625 Y28.564 I-0.406 J-0.115
G1 X60.549 Y28.583
G3 X60.143 Y28.468 I-0.103 J-0.409
G1 X60.089 Y28.411
G3 X59.986 Y28.002 I0.303 J-0.294
G1 X60.007 Y27.927
G3 X60.31 Y27.633 I0.406 J0.115
G1 X60.348 Y27.623
G2 X60.683 Y27.067 I-0.113 J-0.447
G3 X61.252 Y26.753 I0.327 J-0.079
G1 X61.853 Y27.372
G2 X62.297 Y27.637 I0.718 J-0.696
X62.032 Y28.081 I0.697 J0.718
G1 X61.789 Y28.934
G2 X61.782 Y29.452 I0.962 J0.273
X61.264 Y29.444 I-0.273 J0.962
G1 X60.404 Y29.661
G2 X59.952 Y29.913 I0.244 J0.97
X59.7 Y29.461 I-0.97 J0.244
G1 X59.082 Y28.825
G2 X58.638 Y28.559 I-0.718 J0.696
X58.904 Y28.115 I-0.697 J-0.718
G1 X59.146 Y27.262
G2 X59.154 Y26.744 I-0.962 J-0.273
X59.671 Y26.752 I0.273 J-0.962
G1 X60.531 Y26.535
G2 X60.983 Y26.283 I-0.244 J-0.97
X61.235 Y26.735 I0.97 J-0.244
G1 X61.252 Y26.753
G3 X61.267 Y27.014 I-0.144 J0.139
G1 X60.555 Y27.939
G3 X60.207 Y27.753 I-0.158 J-0.122
G1 Z-1.75 F120
G3 X60.217 Y27.729 Z-1.85 I0.19 J0.064
X60.261 Y27.67 Z-1.923 I0.179 J0.088
X60.348 Y27.623 Z-1.95 I0.136 J0.147
G1 X60.386 Y27.614 F240
G3 X60.792 Y27.729 I0.103 J0.409
G1 X60.847 Y27.785
G3 X60.95 Y28.194 I-0.303 J0.294
G1 X60.928 Y28.27
G3 X60.625 Y28.564 I-0.406 J-0.115
G1 X60.549 Y28.583
G3 X60.143 Y28.468 I-0.103 J-0.409
G1 X60.089 Y28.411
G3 X59.986 Y28.002 I0.303 J-0.294
G1 X60.007 Y27.927
G3 X60.31 Y27.633 I0.406 J0.115
G1 X60.348 Y27.623
G2 X60.683 Y27.067 I-0.113 J-0.447
G3 X61.252 Y26.753 I0.327 J-0.079
G1 X61.853 Y27.372
G2 X62.297 Y27.637 I0.718 J-0.696
X62.032 Y28.081 I0.697 J0.718
G1 X61.789 Y28.934
G2 X61.782 Y29.452 I0.962 J0.273
X61.264 Y29.444 I-0.273 J0.962
G1 X60.404 Y29.661
G2 X59.952 Y29.913 I0.244 J0.97
X59.7 Y29.461 I-0.97 J0.244
G1 X59.082 Y28.825
G2 X58.638 Y28.559 I-0.718 J0.696
X58.904 Y28.115 I-0.697 J-0.718
G1 X59.146 Y27.262
G2 X59.154 Y26.744 I-0.962 J-0.273
X59.671 Y26.752 I0.273 J-0.962
G1 X60.531 Y26.535
G2 X60.983 Y26.283 I-0.244 J-0.97
X61.235 Y26.735 I0.97 J-0.244
G1 X61.252 Y26.753
G3 X61.301 Y26.839 Z-1.923 I-0.144 J0.139 F480
X61.308 Y26.911 Z-1.85 I-0.193 J0.053
X61.303 Y26.938 Z-1.75 I-0.199 J-0.019
G0 Z5
X76.005 Y32.831
Z2
G1 Z-0.8 F120
G3 X75.978 Y32.835 Z-0.9 I-0.043 J-0.195
X75.906 Y32.828 Z-0.973 I-0.016 J-0.199
X75.821 Y32.777 Z-1 I0.056 J-0.192
G1 X75.793 Y32.749 F240
G3 X75.684 Y32.342 I0.299 J-0.299
G1 X75.704 Y32.266
G3 X76.003 Y31.967 I0.408 J0.109
G1 X76.078 Y31.947
G3 X76.486 Y32.056 I0.109 J0.408
G1 X76.541 Y32.112
G3 X76.651 Y32.52 I-0.299 J0.299
G1 X76.63 Y32.595
G3 X76.332 Y32.894 I-0.408 J-0.109
G1 X76.256 Y32.914
G3 X75.848 Y32.805 I-0.109 J-0.408
G1 X75.821 Y32.777
G2 X75.171 Y32.774 I-0.326 J0.326
G3 X74.61 Y32.447 I-0.236 J-0.24
G1 X74.833 Y31.614
G2 Y31.097 I-0.966 J-0.259
X75.351 I0.259 J-0.966
G1 X76.207 Y30.867
G2 X76.656 Y30.608 I-0.259 J-0.966
X76.914 Y31.057 I0.966 J-0.259
G1 X77.541 Y31.684
G2 X77.99 Y31.942 I0.707 J-0.707
X77.731 Y32.391 I0.707 J0.707
G1 X77.501 Y33.247
G2 Y33.765 I0.966 J0.259
X76.984 I-0.259 J0.966
G1 X76.127 Y33.994
G2 X75.679 Y34.253 I0.259 J0.966
X75.42 Y33.805 I-0.966 J0.259
G1 X74.793 Y33.178
G2 X74.345 Y32.919 I-0.707 J0.707
X74.604 Y32.471 I-0.707 J-0.707
G1 X74.61 Y32.447
G3 X74.827 Y32.3 I0.193 J0.052
G1 X75.986 Y32.437
G3 X76.005 Y32.831 I-0.023 J0.199
G1 Z-1.75 F120
G3 X75.978 Y32.835 Z-1.85 I-0.043 J-0.195
X75.906 Y32.828 Z-1.923 I-0.016 J-0.199
X75.821 Y32.777 Z-1.95 I0.056 J-0.192
G1 X75.793 Y32.749 F240
G3 X75.684 Y32.342 I0.299 J-0.299
G1 X75.704 Y32.266
G3 X76.003 Y31.967 I0.408 J0.109
G1 X76.078 Y31.947
G3 X76.486 Y32.056 I0.109 J0.408
G1 X76.541 Y32.112
G3 X76.651 Y32.52 I-0.299 J0.299
G1 X76.63 Y32.595
G3 X76.332 Y32.894 I-0.408 J-0.109
G1 X76.256 Y32.914
G3 X75.848 Y32.805 I-0.109 J-0.408
G1 X75.821 Y32.777
G2 X75.171 Y32.774 I-0.326 J0.326
G3 X74.61 Y32.447 I-0.236 J-0.24
G1 X74.833 Y31.614
G2 Y31.097 I-0.966 J-0.259
X75.351 I0.259 J-0.966
G1 X76.207 Y30.867
G2 X76.656 Y30.608 I-0.259 J-0.966
X76.914 Y31.057 I0.966 J-0.259
G1 X77.541 Y31.684
G2 X77.99 Y31.942 I0.707 J-0.707
X77.731 Y32.391 I0.707 J0.707
G1 X77.501 Y33.247
G2 Y33.765 I0.966 J0.259
X76.984 I-0.259 J0.966
G1 X76.127 Y33.994
G2 X75.679 Y34.253 I0.259 J0.966
X75.42 Y33.805 I-0.966 J0.259
G1 X74.793 Y33.178
G2 X74.345 Y32.919 I-0.707 J0.707
X74.604 Y32.471 I-0.707 J-0.707
G1 X74.61 Y32.447
G3 X74.658 Y32.361 Z-1.923 I0.193 J0.052 F480
X74.717 Y32.318 Z-1.85 I0.145 J0.138
X74.742 Y32.308 Z-1.75 I0.086 J0.181
G0 Z5
X80.927 Y48.064
Z2
G1 Z-0.8 F120
G3 X80.944 Y48.085 Z-0.9 I-0.146 J0.137
X80.974 Y48.151 Z-0.973 I-0.163 J0.116
X80.975 Y48.25 Z-1 I-0.194 J0.05
G1 X80.965 Y48.288 F240
G3 X80.671 Y48.591 I-0.409 J-0.103
G1 X80.596 Y48.612
G3 X80.186 Y48.509 I-0.115 J-0.406
G1 X80.13 Y48.455
G3 X80.015 Y48.048 I0.294 J-0.303
G1 X80.034 Y47.972
G3 X80.328 Y47.67 I0.409 J0.103
G1 X80.403 Y47.648
G3 X80.813 Y47.751 I0.115 J0.406
G1 X80.869 Y47.806
G3 X80.984 Y48.212 I-0.294 J0.303
G1 X80.975 Y48.25
G2 X81.306 Y48.809 I0.447 J0.113
G3 X81.312 Y49.459 I-0.085 J0.326
G1 X80.483 Y49.694
G2 X80.039 Y49.96 I0.273 J0.962
X79.773 Y49.515 I-0.962 J0.273
G1 X79.137 Y48.898
G2 X78.685 Y48.646 I-0.696 J0.718
X78.937 Y48.194 I-0.718 J-0.696
G1 X79.154 Y47.334
G2 X79.146 Y46.816 I-0.97 J-0.244
X79.663 Y46.808 I0.244 J-0.97
G1 X80.516 Y46.566
G2 X80.961 Y46.301 I-0.273 J-0.962
X81.226 Y46.745 I0.962 J-0.273
G1 X81.863 Y47.363
G2 X82.315 Y47.615 I0.696 J-0.718
X82.063 Y48.067 I0.718 J0.697
G1 X81.846 Y48.927
G2 X81.854 Y49.444 I0.97 J0.244
X81.336 Y49.452 I-0.244 J0.97
G1 X81.312 Y49.459
G3 X81.075 Y49.348 I-0.055 J-0.192
G1 X80.598 Y48.283
G3 X80.927 Y48.064 I0.183 J-0.082
G1 Z-1.75 F120
G3 X80.944 Y48.085 Z-1.85 I-0.146 J0.137
X80.974 Y48.151 Z-1.923 I-0.163 J0.116
X80.975 Y48.25 Z-1.95 I-0.194 J0.05
G1 X80.965 Y48.288 F240
G3 X80.671 Y48.591 I-0.409 J-0.103
G1 X80.596 Y48.612
G3 X80.186 Y48.509 I-0.115 J-0.406
G1 X80.13 Y48.455
G3 X80.015 Y48.048 I0.294 J-0.303
G1 X80.034 Y47.972
G3 X80.328 Y47.67 I0.409 J0.103
G1 X80.403 Y47.648
G3 X80.813 Y47.751 I0.115 J0.406
G1 X80.869 Y47.806
G3 X80.984 Y48.212 I-0.294 J0.303
G1 X80.975 Y48.25
G2 X81.306 Y48.809 I0.447 J0.113
G3 X81.312 Y49.459 I-0.085 J0.326
G1 X80.483 Y49.694
G2 X80.039 Y49.96 I0.273 J0.962
X79.773 Y49.515 I-0.962 J0.273
G1 X79.137 Y48.898
G2 X78.685 Y48.646 I-0.696 J0.718
X78.937 Y48.194 I-0.718 J-0.696
G1 X79.154 Y47.334
G2 X79.146 Y46.816 I-0.97 J-0.244
X79.663 Y46.808 I0.244 J-0.97
G1 X80.516 Y46.566
G2 X80.961 Y46.301 I-0.273 J-0.962
X81.226 Y46.745 I0.962 J-0.273
G1 X81.863 Y47.363
G2 X82.315 Y47.615 I0.696 J-0.718
X82.063 Y48.067 I0.718 J0.697
G1 X81.846 Y48.927
G2 X81.854 Y49.444 I0.97 J0.244
X81.336 Y49.452 I-0.244 J0.97
G1 X81.312 Y49.459
G3 X81.213 Y49.461 Z-1.923 I-0.055 J-0.192 F480
X81.147 Y49.433 Z-1.85 I0.044 J-0.195
X81.125 Y49.416 Z-1.75 I0.111 J-0.166
G0 Z5
X94.155 Y48.391
Z2
G1 Z-0.8 F120
G3 X94.131 Y48.381 Z-0.9 I0.064 J-0.19
X94.072 Y48.337 Z-0.973 I0.088 J-0.179
X94.025 Y48.25 Z-1 I0.147 J-0.136
G1 X94.016 Y48.212 F240
G3 X94.131 Y47.806 I0.409 J-0.103
G1 X94.187 Y47.751
G3 X94.597 Y47.648 I0.294 J0.303
G1 X94.672 Y47.67
G3 X94.966 Y47.972 I-0.115 J0.406
G1 X94.985 Y48.048
G3 X94.87 Y48.455 I-0.409 J0.103
G1 X94.814 Y48.509
G3 X94.404 Y48.612 I-0.294 J-0.303
G1 X94.329 Y48.591
G3 X94.035 Y48.288 I0.115 J-0.406
G1 X94.025 Y48.25
G2 X93.469 Y47.914 I-0.447 J0.113
G3 X93.155 Y47.346 I-0.08 J-0.327
G1 X93.774 Y46.745
G2 X94.039 Y46.301 I-0.696 J-0.718
X94.484 Y46.566 I0.718 J-0.697
G1 X95.337 Y46.808
G2 X95.854 Y46.816 I0.273 J-0.962
X95.846 Y47.334 I0.962 J0.273
G1 X96.063 Y48.194
G2 X96.315 Y48.646 I0.97 J-0.244
X95.863 Y48.898 I0.244 J0.97
G1 X95.227 Y49.515
G2 X94.961 Y49.96 I0.696 J0.718
X94.517 Y49.694 I-0.718 J0.697
G1 X93.664 Y49.452
G2 X93.146 Y49.444 I-0.273 J0.962
X93.154 Y48.927 I-0.962 J-0.273
G1 X92.937 Y48.067
G2 X92.685 Y47.615 I-0.97 J0.244
X93.137 Y47.363 I-0.244 J-0.97
G1 X93.155 Y47.346
G3 X93.416 Y47.331 I0.139 J0.144
G1 X94.341 Y48.043
G3 X94.155 Y48.391 I-0.122 J0.158
G1 Z-1.75 F120
G3 X94.131 Y48.381 Z-1.85 I0.064 J-0.19
X94.072 Y48.337 Z-1.923 I0.088 J-0.179
X94.025 Y48.25 Z-1.95 I0.147 J-0.136
G1 X94.016 Y48.212 F240
G3 X94.131 Y47.806 I0.409 J-0.103
G1 X94.187 Y47.751
G3 X94.597 Y47.648 I0.294 J0.303
G1 X94.672 Y47.67
G3 X94.966 Y47.972 I-0.115 J0.406
G1 X94.985 Y48.048
G3 X94.87 Y48.455 I-0.409 J0.103
G1 X94.814 Y48.509
G3 X94.404 Y48.612 I-0.294 J-0.303
G1 X94.329 Y48.591
G3 X94.035 Y48.288 I0.115 J-0.406
G1 X94.025 Y48.25
G2 X93.469 Y47.914 I-0.447 J0.113
G3 X93.155 Y47.346 I-0.08 J-0.327
G1 X93.774 Y46.745
G2 X94.039 Y46.301 I-0.696 J-0.718
X94.484 Y46.566 I0.718 J-0.697
G1 X95.337 Y46.808
G2 X95.854 Y46.816 I0.273 J-0.962
X95.846 Y47.334 I0.962 J0.273
G1 X96.063 Y48.194
G2 X96.315 Y48.646 I0.97 J-0.244
X95.863 Y48.898 I0.244 J0.97
G1 X95.227 Y49.515
G2 X94.961 Y49.96 I0.696 J0.718
X94.517 Y49.694 I-0.718 J0.697
G1 X93.664 Y49.452
G2 X93.146 Y49.444 I-0.273 J0.962
X93.154 Y48.927 I-0.962 J-0.273
G1 X92.937 Y48.067
G2 X92.685 Y47.615 I-0.97 J0.244
X93.137 Y47.363 I-0.244 J-0.97
G1 X93.155 Y47.346
G3 X93.241 Y47.297 Z-1.923 I0.139 J0.144 F480
X93.313 Y47.29 Z-1.85 I0.053 J0.193
X93.34 Y47.294 Z-1.75 I-0.019 J0.199
G0 Z5
X104.357 Y42.105
Z2
G1 Z-0.8 F120
G3 X104.378 Y42.088 Z-0.9 I0.137 J0.146
X104.444 Y42.057 Z-0.973 I0.116 J0.163
X104.543 Z-1 I0.05 J0.194
G1 X104.581 Y42.066 F240
G3 X104.884 Y42.361 I-0.103 J0.409
G1 X104.905 Y42.436
G3 X104.802 Y42.845 I-0.406 J0.115
G1 X104.747 Y42.902
G3 X104.341 Y43.017 I-0.303 J-0.294
G1 X104.265 Y42.998
G3 X103.962 Y42.703 I0.103 J-0.409
G1 X103.941 Y42.628
G3 X104.044 Y42.219 I0.406 J-0.115
G1 X104.099 Y42.163
G3 X104.505 Y42.047 I0.303 J0.294
G1 X104.543 Y42.057
G2 X105.102 Y41.726 I0.113 J-0.447
G3 X105.752 Y41.719 I0.326 J0.085
G1 X105.987 Y42.549
G2 X106.253 Y42.993 I0.962 J-0.273
X105.809 Y43.258 I0.273 J0.962
G1 X105.191 Y43.895
G2 X104.938 Y44.347 I0.717 J0.697
X104.486 Y44.095 I-0.696 J0.718
G1 X103.626 Y43.878
G2 X103.109 Y43.886 I-0.244 J0.97
X103.101 Y43.369 I-0.97 J-0.244
G1 X102.859 Y42.516
G2 X102.594 Y42.071 I-0.962 J0.273
X103.037 Y41.806 I-0.274 J-0.962
G1 X103.655 Y41.169
G2 X103.908 Y40.717 I-0.717 J-0.697
X104.36 Y40.969 I0.696 J-0.718
G1 X105.22 Y41.186
G2 X105.737 Y41.178 I0.244 J-0.97
X105.745 Y41.695 I0.97 J0.244
G1 X105.752 Y41.719
G3 X105.641 Y41.956 I-0.192 J0.055
G1 X104.576 Y42.433
G3 X104.357 Y42.105 I-0.082 J-0.183
G1 Z-1.75 F120
G3 X104.378 Y42.088 Z-1.85 I0.137 J0.146
X104.444 Y42.057 Z-1.923 I0.116 J0.163
X104.543 Z-1.95 I0.05 J0.194
G1 X104.581 Y42.066 F240
G3 X104.884 Y42.361 I-0.103 J0.409
G1 X104.905 Y42.436
G3 X104.802 Y42.845 I-0.406 J0.115
G1 X104.747 Y42.902
G3 X104.341 Y43.017 I-0.303 J-0.294
G1 X104.265 Y42.998
G3 X103.962 Y42.703 I0.103 J-0.409
G1 X103.941 Y42.628
G3 X104.044 Y42.219 I0.406 J-0.115
G1 X104.099 Y42.163
G3 X104.505 Y42.047 I0.303 J0.294
G1 X104.543 Y42.057
G2 X105.102 Y41.726 I0.113 J-0.447
G3 X105.752 Y41.719 I0.326 J0.085
G1 X105.987 Y42.549
G2 X106.253 Y42.993 I0.962 J-0.273
X105.809 Y43.258 I0.273 J0.962
G1 X105.191 Y43.895
G2 X104.938 Y44.347 I0.717 J0.697
X104.486 Y44.095 I-0.696 J0.718
G1 X103.626 Y43.878
G2 X103.109 Y43.886 I-0.244 J0.97
X103.101 Y43.369 I-0.97 J-0.244
G1 X102.859 Y42.516
G2 X102.594 Y42.071 I-0.962 J0.273
X103.037 Y41.806 I-0.274 J-0.962
G1 X103.655 Y41.169
G2 X103.908 Y40.717 I-0.717 J-0.697
X104.36 Y40.969 I0.696 J-0.718
G1 X105.22 Y41.186
G2 X105.737 Y41.178 I0.244 J-0.97
X105.745 Y41.695 I0.97 J0.244
G1 X105.752 Y41.719
G3 X105.754 Y41.818 Z-1.923 I-0.192 J0.055 F480
X105.726 Y41.885 Z-1.85 I-0.195 J-0.044
X105.709 Y41.906 Z-1.75 I-0.166 J-0.111
G0 Z5
X99.174 Y32.165
Z2
G1 Z-0.8 F120
G3 X99.199 Y32.175 Z-0.9 I-0.061 J0.19
X99.258 Y32.218 Z-0.973 I-0.086 J0.181
X99.306 Y32.304 Z-1 I-0.145 J0.138
G1 X99.316 Y32.342 F240
G3 X99.207 Y32.749 I-0.408 J0.109
G1 X99.152 Y32.805
G3 X98.744 Y32.914 I-0.299 J-0.299
G1 X98.668 Y32.894
G3 X98.37 Y32.595 I0.109 J-0.408
G1 X98.349 Y32.52
G3 X98.459 Y32.112 I0.408 J-0.109
G1 X98.514 Y32.056
G3 X98.922 Y31.947 I0.299 J0.299
G1 X98.997 Y31.967
G3 X99.296 Y32.266 I-0.109 J0.408
G1 X99.306 Y32.304
G2 X99.867 Y32.632 I0.446 J-0.119
G3 X100.189 Y33.196 I0.084 J0.326
G1 X99.58 Y33.805
G2 X99.321 Y34.253 I0.707 J0.707
X98.873 Y33.994 I-0.707 J0.707
G1 X98.016 Y33.765
G2 X97.499 I-0.259 J0.966
Y33.247 I-0.966 J-0.259
G1 X97.269 Y32.391
G2 X97.01 Y31.942 I-0.966 J0.259
X97.459 Y31.684 I-0.259 J-0.966
G1 X98.086 Y31.057
G2 X98.344 Y30.608 I-0.707 J-0.707
X98.793 Y30.867 I0.707 J-0.707
G1 X99.649 Y31.097
G2 X100.167 Y31.096 I0.259 J-0.966
Y31.614 I0.966 J0.259
G1 X100.396 Y32.47
G2 X100.655 Y32.919 I0.966 J-0.258
X100.207 Y33.178 I0.259 J0.966
G1 X100.189 Y33.196
G3 X99.928 Y33.215 I-0.141 J-0.141
G1 X98.993 Y32.516
G3 X99.174 Y32.165 I0.12 J-0.16
G1 Z-1.75 F120
G3 X99.199 Y32.175 Z-1.85 I-0.061 J0.19
X99.258 Y32.218 Z-1.923 I-0.086 J0.181
X99.306 Y32.304 Z-1.95 I-0.145 J0.138
G1 X99.316 Y32.342 F240
G3 X99.207 Y32.749 I-0.408 J0.109
G1 X99.152 Y32.805
G3 X98.744 Y32.914 I-0.299 J-0.299
G1 X98.668 Y32.894
G3 X98.37 Y32.595 I0.109 J-0.408
G1 X98.349 Y32.52
G3 X98.459 Y32.112 I0.408 J-0.109
G1 X98.514 Y32.056
G3 X98.922 Y31.947 I0.299 J0.299
G1 X98.997 Y31.967
G3 X99.296 Y32.266 I-0.109 J0.408
G1 X99.306 Y32.304
G2 X99.867 Y32.632 I0.446 J-0.119
G3 X100.189 Y33.196 I0.084 J0.326
G1 X99.58 Y33.805
G2 X99.321 Y34.253 I0.707 J0.707
X98.873 Y33.994 I-0.707 J0.707
G1 X98.016 Y33.765
G2 X97.499 I-0.259 J0.966
Y33.247 I-0.966 J-0.259
G1 X97.269 Y32.391
G2 X97.01 Y31.942 I-0.966 J0.259
X97.459 Y31.684 I-0.259 J-0.966
G1 X98.086 Y31.057
G2 X98.344 Y30.608 I-0.707 J-0.707
X98.793 Y30.867 I0.707 J-0.707
G1 X99.649 Y31.097
G2 X100.167 Y31.096 I0.259 J-0.966
Y31.614 I0.966 J0.259
G1 X100.396 Y32.47
G2 X100.655 Y32.919 I0.966 J-0.258
X100.207 Y33.178 I0.259 J0.966
G1 X100.189 Y33.196
G3 X100.104 Y33.246 Z-1.923 I-0.141 J-0.141 F480
X100.031 Y33.254 Z-1.85 I-0.056 J-0.192
X100.005 Y33.25 Z-1.75 I0.016 J-0.199
G0 Z5
X114.869 Y27.828
Z2
G1 Z-0.8 F120
G3 X114.894 Y27.837 Z-0.9 I-0.058 J0.191
X114.954 Y27.879 Z-0.973 I-0.083 J0.182
X115.004 Y27.965 Z-1 I-0.143 J0.14
G1 X115.014 Y28.002 F240
G3 X114.911 Y28.412 I-0.406 J0.115
G1 X114.856 Y28.468
G3 X114.45 Y28.583 I-0.303 J-0.294
G1 X114.375 Y28.564
G3 X114.072 Y28.27 I0.103 J-0.409
G1 X114.05 Y28.195
G3 X114.153 Y27.785 I0.406 J-0.116
G1 X114.208 Y27.729
G3 X114.614 Y27.614 I0.303 J0.294
G1 X114.69 Y27.633
G3 X114.993 Y27.927 I-0.103 J0.409
G1 X115.004 Y27.965
G2 X115.57 Y28.283 I0.444 J-0.126
G3 X115.9 Y28.843 I0.089 J0.325
G1 X115.3 Y29.461
G2 X115.047 Y29.913 I0.717 J0.697
X114.595 Y29.661 I-0.696 J0.718
G1 X113.735 Y29.444
G2 X113.219 Y29.452 I-0.244 J0.97
X113.211 Y28.934 I-0.97 J-0.244
G1 X112.968 Y28.081
G2 X112.703 Y27.637 I-0.962 J0.274
X113.148 Y27.371 I-0.273 J-0.962
G1 X113.765 Y26.735
G2 X114.017 Y26.283 I-0.718 J-0.696
X114.469 Y26.535 I0.696 J-0.718
G1 X115.329 Y26.752
G2 X115.846 Y26.744 I0.244 J-0.97
X115.854 Y27.262 I0.97 J0.244
G1 X116.096 Y28.115
G2 X116.362 Y28.559 I0.962 J-0.273
X115.918 Y28.825 I0.273 J0.962
G1 X115.9 Y28.843
G3 X115.639 Y28.865 I-0.143 J-0.139
G1 X114.694 Y28.181
G3 X114.869 Y27.828 I0.117 J-0.162
G1 Z-1.75 F120
G3 X114.894 Y27.837 Z-1.85 I-0.058 J0.191
X114.954 Y27.879 Z-1.923 I-0.083 J0.182
X115.004 Y27.965 Z-1.95 I-0.143 J0.14
G1 X115.014 Y28.002 F240
G3 X114.911 Y28.412 I-0.406 J0.115
G1 X114.856 Y28.468
G3 X114.45 Y28.583 I-0.303 J-0.294
G1 X114.375 Y28.564
G3 X114.072 Y28.27 I0.103 J-0.409
G1 X114.05 Y28.195
G3 X114.153 Y27.785 I0.406 J-0.116
G1 X114.208 Y27.729
G3 X114.614 Y27.614 I0.303 J0.294
G1 X114.69 Y27.633
G3 X114.993 Y27.927 I-0.103 J0.409
G1 X115.004 Y27.965
G2 X115.57 Y28.283 I0.444 J-0.126
G3 X115.9 Y28.843 I0.089 J0.325
G1 X115.3 Y29.461
G2 X115.047 Y29.913 I0.717 J0.697
X114.595 Y29.661 I-0.696 J0.718
G1 X113.735 Y29.444
G2 X113.219 Y29.452 I-0.244 J0.97
X113.211 Y28.934 I-0.97 J-0.244
G1 X112.968 Y28.081
G2 X112.703 Y27.637 I-0.962 J0.274
X113.148 Y27.371 I-0.273 J-0.962
G1 X113.765 Y26.735
G2 X114.017 Y26.283 I-0.718 J-0.696
X114.469 Y26.535 I0.696 J-0.718
G1 X115.329 Y26.752
G2 X115.846 Y26.744 I0.244 J-0.97
X115.854 Y27.262 I0.97 J0.244
G1 X116.096 Y28.115
G2 X116.362 Y28.559 I0.962 J-0.273
X115.918 Y28.825 I0.273 J0.962
G1 X115.9 Y28.843
G3 X115.816 Y28.894 Z-1.923 I-0.143 J-0.139 F480
X115.743 Y28.903 Z-1.85 I-0.059 J-0.191
X115.717 Y28.899 Z-1.75 I0.013 J-0.2
G0 Z5
X120.464 Y37.934
Z2
G1 Z-0.8 F120
G3 X120.489 Y37.944 Z-0.9 I-0.061 J0.19
X120.548 Y37.987 Z-0.973 I-0.086 J0.181
X120.596 Y38.073 Z-1 I-0.145 J0.138
G1 X120.606 Y38.111 F240
G3 X120.497 Y38.518 I-0.408 J0.109
G1 X120.441 Y38.574
G3 X120.034 Y38.683 I-0.299 J-0.299
G1 X119.958 Y38.663
G3 X119.66 Y38.365 I0.109 J-0.408
G1 X119.639 Y38.288
G3 X119.748 Y37.88 I0.408 J-0.109
G1 X119.804 Y37.825
G3 X120.211 Y37.716 I0.299 J0.299
G1 X120.287 Y37.736
G3 X120.586 Y38.035 I-0.109 J0.408
G1 X120.596 Y38.073
G2 X121.157 Y38.4 I0.446 J-0.119
G3 X121.479 Y38.965 I0.084 J0.326
G1 X120.87 Y39.574
G2 X120.611 Y40.022 I0.707 J0.707
X120.163 Y39.763 I-0.707 J0.707
G1 X119.306 Y39.534
G2 X118.789 I-0.259 J0.966
Y39.016 I-0.966 J-0.259
G1 X118.559 Y38.159
G2 X118.3 Y37.711 I-0.966 J0.259
X118.748 Y37.452 I-0.259 J-0.966
G1 X119.375 Y36.825
G2 X119.634 Y36.377 I-0.707 J-0.707
X120.083 Y36.636 I0.707 J-0.707
G1 X120.939 Y36.865
G2 X121.457 I0.259 J-0.966
Y37.383 I0.966 J0.259
G1 X121.686 Y38.239
G2 X121.945 Y38.688 I0.966 J-0.258
X121.497 Y38.947 I0.259 J0.966
G1 X121.479 Y38.965
G3 X121.218 Y38.983 I-0.141 J-0.141
G1 X120.283 Y38.285
G3 X120.464 Y37.934 I0.12 J-0.16
G1 Z-1.75 F120
G3 X120.489 Y37.944 Z-1.85 I-0.061 J0.19
X120.548 Y37.987 Z-1.923 I-0.086 J0.181
X120.596 Y38.073 Z-1.95 I-0.145 J0.138
G1 X120.606 Y38.111 F240
G3 X120.497 Y38.518 I-0.408 J0.109
G1 X120.441 Y38.574
G3 X120.034 Y38.683 I-0.299 J-0.299
G1 X119.958 Y38.663
G3 X119.66 Y38.365 I0.109 J-0.408
G1 X119.639 Y38.288
G3 X119.748 Y37.88 I0.408 J-0.109
G1 X119.804 Y37.825
G3 X120.211 Y37.716 I0.299 J0.299
G1 X120.287 Y37.736
G3 X120.586 Y38.035 I-0.109 J0.408
G1 X120.596 Y38.073
G2 X121.157 Y38.4 I0.446 J-0.119
G3 X121.479 Y38.965 I0.084 J0.326
G1 X120.87 Y39.574
G2 X120.611 Y40.022 I0.707 J0.707
X120.163 Y39.763 I-0.707 J0.707
G1 X119.306 Y39.534
G2 X118.789 I-0.259 J0.966
Y39.016 I-0.966 J-0.259
G1 X118.559 Y38.159
G2 X118.3 Y37.711 I-0.966 J0.259
X118.748 Y37.452 I-0.259 J-0.966
G1 X119.375 Y36.825
G2 X119.634 Y36.377 I-0.707 J-0.707
X120.083 Y36.636 I0.707 J-0.707
G1 X120.939 Y36.865
G2 X121.457 I0.259 J-0.966
Y37.383 I0.966 J0.259
G1 X121.686 Y38.239
G2 X121.945 Y38.688 I0.966 J-0.258
X121.497 Y38.947 I0.259 J0.966
G1 X121.479 Y38.965
G3 X121.394 Y39.015 Z-1.923 I-0.141 J-0.141 F480
X121.322 Y39.023 Z-1.85 I-0.056 J-0.192
X121.295 Y39.019 Z-1.75 I0.016 J-0.199
G0 Z5
X124.508 Y22.929
Z2
G1 Z-0.8 F120
G3 X124.487 Y22.945 Z-0.9 I-0.132 J-0.15
X124.42 Y22.974 Z-0.973 I-0.111 J-0.166
X124.321 Y22.971 Z-1 I-0.044 J-0.195
G1 X124.284 Y22.961 F240
G3 X123.989 Y22.657 I0.115 J-0.406
G1 X123.97 Y22.581
G3 X124.086 Y22.176 I0.409 J-0.103
G1 X124.142 Y22.121
G3 X124.551 Y22.018 I0.294 J0.303
G1 X124.627 Y22.039
G3 X124.921 Y22.342 I-0.115 J0.406
G1 X124.94 Y22.418
G3 X124.825 Y22.824 I-0.409 J0.103
G1 X124.768 Y22.879
G3 X124.359 Y22.982 I-0.294 J-0.303
G1 X124.321 Y22.971
G2 X123.753 Y23.286 I-0.126 J0.444
G3 X123.103 Y23.273 I-0.323 J-0.094
G1 X122.893 Y22.437
G2 X122.641 Y21.985 I-0.97 J0.244
X123.093 Y21.732 I-0.245 J-0.97
G1 X123.729 Y21.115
G2 X123.994 Y20.67 I-0.697 J-0.717
X124.439 Y20.936 I0.718 J-0.697
G1 X125.292 Y21.178
G2 X125.809 Y21.186 I0.273 J-0.962
X125.801 Y21.704 I0.962 J0.273
G1 X126.018 Y22.564
G2 X126.27 Y23.015 I0.97 J-0.245
X125.819 Y23.267 I0.245 J0.97
G1 X125.182 Y23.885
G2 X124.916 Y24.329 I0.696 J0.718
X124.472 Y24.064 I-0.717 J0.697
G1 X123.619 Y23.822
G2 X123.101 Y23.814 I-0.273 J0.962
X123.109 Y23.297 I-0.962 J-0.273
G1 X123.103 Y23.273
G3 X123.22 Y23.04 I0.194 J-0.049
G1 X124.3 Y22.594
G3 X124.508 Y22.929 I0.076 J0.185
G1 Z-1.75 F120
G3 X124.487 Y22.945 Z-1.85 I-0.132 J-0.15
X124.42 Y22.974 Z-1.923 I-0.111 J-0.166
X124.321 Y22.971 Z-1.95 I-0.044 J-0.195
G1 X124.284 Y22.961 F240
G3 X123.989 Y22.657 I0.115 J-0.406
G1 X123.97 Y22.581
G3 X124.086 Y22.176 I0.409 J-0.103
G1 X124.142 Y22.121
G3 X124.551 Y22.018 I0.294 J0.303
G1 X124.627 Y22.039
G3 X124.921 Y22.342 I-0.115 J0.406
G1 X124.94 Y22.418
G3 X124.825 Y22.824 I-0.409 J0.103
G1 X124.768 Y22.879
G3 X124.359 Y22.982 I-0.294 J-0.303
G1 X124.321 Y22.971
G2 X123.753 Y23.286 I-0.126 J0.444
G3 X123.103 Y23.273 I-0.323 J-0.094
G1 X122.893 Y22.437
G2 X122.641 Y21.985 I-0.97 J0.244
X123.093 Y21.732 I-0.245 J-0.97
G1 X123.729 Y21.115
G2 X123.994 Y20.67 I-0.697 J-0.717
X124.439 Y20.936 I0.718 J-0.697
G1 X125.292 Y21.178
G2 X125.809 Y21.186 I0.273 J-0.962
X125.801 Y21.704 I0.962 J0.273
G1 X126.018 Y22.564
G2 X126.27 Y23.015 I0.97 J-0.245
X125.819 Y23.267 I0.245 J0.97
G1 X125.182 Y23.885
G2 X124.916 Y24.329 I0.696 J0.718
X124.472 Y24.064 I-0.717 J0.697
G1 X123.619 Y23.822
G2 X123.101 Y23.814 I-0.273 J0.962
X123.109 Y23.297 I-0.962 J-0.273
G1 X123.103 Y23.273
G3 Y23.174 Z-1.923 I0.194 J-0.049 F480
X123.134 Y23.108 Z-1.85 I0.194 J0.05
X123.151 Y23.088 Z-1.75 I0.163 J0.116
G0 Z15

(SCREW HOLES)
M8
G0 X50.69 Y22.181
Z15
Z2
G1 Z-0.8 F120
G3 X50.717 Y22.18 Z-0.9 I0.015 J0.199
X50.788 Y22.198 Z-0.973 I-0.012 J0.2
X50.865 Y22.26 Z-1 I-0.083 J0.182
X50.225 Y22.74 I-0.32 J0.24 F240
X50.865 Y22.26 I0.32 J-0.24
X50.807 Y22.332 I-0.038 J0.029
G1 X50.674 Y22.272
G3 X50.69 Y22.181 I0.02 J-0.044
G1 Z-1.8 F120
G3 X50.717 Y22.18 Z-1.9 I0.015 J0.199
X50.788 Y22.198 Z-1.973 I-0.012 J0.2
X50.865 Y22.26 Z-2 I-0.083 J0.182
X50.225 Y22.74 I-0.32 J0.24 F240
X50.865 Y22.26 I0.32 J-0.24
X50.807 Y22.332 I-0.038 J0.029
G1 X50.674 Y22.272
G3 X50.69 Y22.181 I0.02 J-0.044
G1 Z-2.8 F120
G3 X50.717 Y22.18 Z-2.9 I0.015 J0.199
X50.788 Y22.198 Z-2.973 I-0.012 J0.2
X50.865 Y22.26 Z-3 I-0.083 J0.182
X50.225 Y22.74 I-0.32 J0.24 F240
X50.865 Y22.26 I0.32 J-0.24
X50.807 Y22.332 I-0.038 J0.029
G1 X50.674 Y22.272
G3 X50.69 Y22.181 I0.02 J-0.044
G1 Z-3.8 F120
G3 X50.717 Y22.18 Z-3.9 I0.015 J0.199
X50.788 Y22.198 Z-3.973 I-0.012 J0.2
X50.865 Y22.26 Z-4 I-0.083 J0.182
X50.225 Y22.74 I-0.32 J0.24 F240
X50.865 Y22.26 I0.32 J-0.24
X50.807 Y22.332 I-0.038 J0.029
G1 X50.674 Y22.272
G3 X50.69 Y22.181 I0.02 J-0.044
G1 Z-4.38 F120
G3 X50.717 Y22.18 Z-4.48 I0.015 J0.199
X50.788 Y22.198 Z-4.553 I-0.012 J0.2
X50.865 Y22.26 Z-4.58 I-0.083 J0.182
X50.225 Y22.74 I-0.32 J0.24 F240
X50.865 Y22.26 I0.32 J-0.24
X50.903 Y22.351 Z-4.553 I-0.16 J0.12 F480
X50.9 Y22.424 Z-4.48 I-0.198 J0.029
X50.892 Y22.45 Z-4.38 I-0.195 J-0.044
G0 Z5
X54.53 Y38.149
Z2
G1 Z-0.8 F120
G3 X54.522 Y38.124 Z-0.9 I0.187 J-0.07
X54.519 Y38.051 Z-0.973 I0.195 J-0.044
X54.557 Y37.96 Z-1 I0.198 J0.029
X55.197 Y38.44 I0.32 J0.24 F240
X54.557 Y37.96 I-0.32 J-0.24
X54.643 Y37.995 I0.038 J0.029
G1 X54.622 Y38.14
G3 X54.53 Y38.149 I-0.047 J-0.007
G1 Z-1.8 F120
G3 X54.522 Y38.124 Z-1.9 I0.187 J-0.07
X54.519 Y38.051 Z-1.973 I0.195 J-0.044
X54.557 Y37.96 Z-2 I0.198 J0.029
X55.197 Y38.44 I0.32 J0.24 F240
X54.557 Y37.96 I-0.32 J-0.24
X54.643 Y37.995 I0.038 J0.029
G1 X54.622 Y38.14
G3 X54.53 Y38.149 I-0.047 J-0.007
G1 Z-2.8 F120
G3 X54.522 Y38.124 Z-2.9 I0.187 J-0.07
X54.519 Y38.051 Z-2.973 I0.195 J-0.044
X54.557 Y37.96 Z-3 I0.198 J0.029
X55.197 Y38.44 I0.32 J0.24 F240
X54.557 Y37.96 I-0.32 J-0.24
X54.643 Y37.995 I0.038 J0.029
G1 X54.622 Y38.14
G3 X54.53 Y38.149 I-0.047 J-0.007
G1 Z-3.8 F120
G3 X54.522 Y38.124 Z-3.9 I0.187 J-0.07
X54.519 Y38.051 Z-3.973 I0.195 J-0.044
X54.557 Y37.96 Z-4 I0.198 J0.029
X55.197 Y38.44 I0.32 J0.24 F240
X54.557 Y37.96 I-0.32 J-0.24
X54.643 Y37.995 I0.038 J0.029
G1 X54.622 Y38.14
G3 X54.53 Y38.149 I-0.047 J-0.007
G1 Z-4.38 F120
G3 X54.522 Y38.124 Z-4.48 I0.187 J-0.07
X54.519 Y38.051 Z-4.553 I0.195 J-0.044
X54.557 Y37.96 Z-4.58 I0.198 J0.029
X55.197 Y38.44 I0.32 J0.24 F240
X54.557 Y37.96 I-0.32 J-0.24
X54.634 Y37.898 Z-4.553 I0.16 J0.12 F480
X54.705 Y37.88 Z-4.48 I0.083 J0.182
X54.732 Z-4.38 I0.012 J0.2
G0 Z5
X70.745 Y42.84
Z2
G1 Z-0.8 F120
G3 X70.729 Y42.862 Z-0.9 I-0.168 J-0.108
X70.673 Y42.908 Z-0.973 I-0.152 J-0.13
X70.577 Y42.932 Z-1 I-0.096 J-0.176
Y42.132 I0 J-0.4 F240
Y42.932 I0 J0.4
X70.554 Y42.842 I0 J-0.048
G1 X70.682 Y42.772
G3 X70.745 Y42.84 I0.023 J0.042
G1 Z-1.8 F120
G3 X70.729 Y42.862 Z-1.9 I-0.168 J-0.108
X70.673 Y42.908 Z-1.973 I-0.152 J-0.13
X70.577 Y42.932 Z-2 I-0.096 J-0.176
Y42.132 I0 J-0.4 F240
Y42.932 I0 J0.4
X70.554 Y42.842 I0 J-0.048
G1 X70.682 Y42.772
G3 X70.745 Y42.84 I0.023 J0.042
G1 Z-2.8 F120
G3 X70.729 Y42.862 Z-2.9 I-0.168 J-0.108
X70.673 Y42.908 Z-2.973 I-0.152 J-0.13
X70.577 Y42.932 Z-3 I-0.096 J-0.176
Y42.132 I0 J-0.4 F240
Y42.932 I0 J0.4
X70.554 Y42.842 I0 J-0.048
G1 X70.682 Y42.772
G3 X70.745 Y42.84 I0.023 J0.042
G1 Z-3.8 F120
G3 X70.729 Y42.862 Z-3.9 I-0.168 J-0.108
X70.673 Y42.908 Z-3.973 I-0.152 J-0.13
X70.577 Y42.932 Z-4 I-0.096 J-0.176
Y42.132 I0 J-0.4 F240
Y42.932 I0 J0.4
X70.554 Y42.842 I0 J-0.048
G1 X70.682 Y42.772
G3 X70.745 Y42.84 I0.023 J0.042
G1 Z-4.38 F120
G3 X70.729 Y42.862 Z-4.48 I-0.168 J-0.108
X70.673 Y42.908 Z-4.553 I-0.152 J-0.13
X70.577 Y42.932 Z-4.58 I-0.096 J-0.176
Y42.132 I0 J-0.4 F240
Y42.932 I0 J0.4
X70.481 Y42.908 Z-4.553 I0 J-0.2 F480
X70.425 Y42.862 Z-4.48 I0.096 J-0.176
X70.409 Y42.84 Z-4.38 I0.152 J-0.13
G0 Z5
X60.815 Y28.148
Z2
G1 Z-0.8 F120
G3 X60.823 Y28.174 Z-0.9 I-0.187 J0.07
X60.826 Y28.247 Z-0.973 I-0.195 J0.044
X60.788 Y28.338 Z-1 I-0.198 J-0.029
X60.148 Y27.858 I-0.32 J-0.24 F240
X60.788 Y28.338 I0.32 J0.24
X60.702 Y28.303 I-0.038 J-0.029
G1 X60.723 Y28.158
G3 X60.815 Y28.148 I0.047 J0.007
G1 Z-1.8 F120
G3 X60.823 Y28.174 Z-1.9 I-0.187 J0.07
X60.826 Y28.247 Z-1.973 I-0.195 J0.044
X60.788 Y28.338 Z-2 I-0.198 J-0.029
X60.148 Y27.858 I-0.32 J-0.24 F240
X60.788 Y28.338 I0.32 J0.24
X60.702 Y28.303 I-0.038 J-0.029
G1 X60.723 Y28.158
G3 X60.815 Y28.148 I0.047 J0.007
G1 Z-2.8 F120
G3 X60.823 Y28.174 Z-2.9 I-0.187 J0.07
X60.826 Y28.247 Z-2.973 I-0.195 J0.044
X60.788 Y28.338 Z-3 I-0.198 J-0.029
X60.148 Y27.858 I-0.32 J-0.24 F240
X60.788 Y28.338 I0.32 J0.24
X60.702 Y28.303 I-0.038 J-0.029
G1 X60.723 Y28.158
G3 X60.815 Y28.148 I0.047 J0.007
G1 Z-3.8 F120
G3 X60.823 Y28.174 Z-3.9 I-0.187 J0.07
X60.826 Y28.247 Z-3.973 I-0.195 J0.044
X60.788 Y28.338 Z-4 I-0.198 J-0.029
X60.148 Y27.858 I-0.32 J-0.24 F240
X60.788 Y28.338 I0.32 J0.24
X60.702 Y28.303 I-0.038 J-0.029
G1 X60.723 Y28.158
G3 X60.815 Y28.148 I0.047 J0.007
G1 Z-4.38 F120
G3 X60.823 Y28.174 Z-4.48 I-0.187 J0.07
X60.826 Y28.247 Z-4.553 I-0.195 J0.044
X60.788 Y28.338 Z-4.58 I-0.198 J-0.029
X60.148 Y27.858 I-0.32 J-0.24 F240
X60.788 Y28.338 I0.32 J0.24
X60.711 Y28.4 Z-4.553 I-0.16 J-0.12 F480
X60.64 Y28.418 Z-4.48 I-0.083 J-0.182
X60.613 Z-4.38 I-0.012 J-0.2
G0 Z5
X75.999 Y32.123
Z2
G1 Z-0.8 F120
G3 X76.015 Y32.101 Z-0.9 I0.168 J0.108
X76.071 Y32.055 Z-0.973 I0.152 J0.13
X76.167 Y32.031 Z-1 I0.096 J0.176
Y32.831 I0 J0.4 F240
Y32.031 I0 J-0.4
X76.19 Y32.121 I0 J0.048
G1 X76.062 Y32.191
G3 X75.999 Y32.123 I-0.023 J-0.042
G1 Z-1.8 F120
G3 X76.015 Y32.101 Z-1.9 I0.168 J0.108
X76.071 Y32.055 Z-1.973 I0.152 J0.13
X76.167 Y32.031 Z-2 I0.096 J0.176
Y32.831 I0 J0.4 F240
Y32.031 I0 J-0.4
X76.19 Y32.121 I0 J0.048
G1 X76.062 Y32.191
G3 X75.999 Y32.123 I-0.023 J-0.042
G1 Z-2.8 F120
G3 X76.015 Y32.101 Z-2.9 I0.168 J0.108
X76.071 Y32.055 Z-2.973 I0.152 J0.13
X76.167 Y32.031 Z-3 I0.096 J0.176
Y32.831 I0 J0.4 F240
Y32.031 I0 J-0.4
X76.19 Y32.121 I0 J0.048
G1 X76.062 Y32.191
G3 X75.999 Y32.123 I-0.023 J-0.042
G1 Z-3.8 F120
G3 X76.015 Y32.101 Z-3.9 I0.168 J0.108
X76.071 Y32.055 Z-3.973 I0.152 J0.13
X76.167 Y32.031 Z-4 I0.096 J0.176
Y32.831 I0 J0.4 F240
Y32.031 I0 J-0.4
X76.19 Y32.121 I0 J0.048
G1 X76.062 Y32.191
G3 X75.999 Y32.123 I-0.023 J-0.042
G1 Z-4.38 F120
G3 X76.015 Y32.101 Z-4.48 I0.168 J0.108
X76.071 Y32.055 Z-4.553 I0.152 J0.13
X76.167 Y32.031 Z-4.58 I0.096 J0.176
Y32.831 I0 J0.4 F240
Y32.031 I0 J-0.4
X76.263 Y32.055 Z-4.553 I0 J0.2 F480
X76.32 Y32.101 Z-4.48 I-0.096 J0.176
X76.336 Y32.123 Z-4.38 I-0.152 J0.13
G0 Z5
X80.847 Y48.181
Z2
G1 Z-0.8 F120
G3 X80.855 Y48.206 Z-0.9 I-0.187 J0.07
X80.858 Y48.279 Z-0.973 I-0.195 J0.044
X80.82 Y48.37 Z-1 I-0.198 J-0.029
X80.18 Y47.89 I-0.32 J-0.24 F240
X80.82 Y48.37 I0.32 J0.24
X80.734 Y48.335 I-0.038 J-0.029
G1 X80.755 Y48.19
G3 X80.847 Y48.181 I0.047 J0.007
G1 Z-1.8 F120
G3 X80.855 Y48.206 Z-1.9 I-0.187 J0.07
X80.858 Y48.279 Z-1.973 I-0.195 J0.044
X80.82 Y48.37 Z-2 I-0.198 J-0.029
X80.18 Y47.89 I-0.32 J-0.24 F240
X80.82 Y48.37 I0.32 J0.24
X80.734 Y48.335 I-0.038 J-0.029
G1 X80.755 Y48.19
G3 X80.847 Y48.181 I0.047 J0.007
G1 Z-2.8 F120
G3 X80.855 Y48.206 Z-2.9 I-0.187 J0.07
X80.858 Y48.279 Z-2.973 I-0.195 J0.044
X80.82 Y48.37 Z-3 I-0.198 J-0.029
X80.18 Y47.89 I-0.32 J-0.24 F240
X80.82 Y48.37 I0.32 J0.24
X80.734 Y48.335 I-0.038 J-0.029
G1 X80.755 Y48.19
G3 X80.847 Y48.181 I0.047 J0.007
G1 Z-3.8 F120
G3 X80.855 Y48.206 Z-3.9 I-0.187 J0.07
X80.858 Y48.279 Z-3.973 I-0.195 J0.044
X80.82 Y48.37 Z-4 I-0.198 J-0.029
X80.18 Y47.89 I-0.32 J-0.24 F240
X80.82 Y48.37 I0.32 J0.24
X80.734 Y48.335 I-0.038 J-0.029
G1 X80.755 Y48.19
G3 X80.847 Y48.181 I0.047 J0.007
G1 Z-4.38 F120
G3 X80.855 Y48.206 Z-4.48 I-0.187 J0.07
X80.858 Y48.279 Z-4.553 I-0.195 J0.044
X80.82 Y48.37 Z-4.58 I-0.198 J-0.029
X80.18 Y47.89 I-0.32 J-0.24 F240
X80.82 Y48.37 I0.32 J0.24
X80.743 Y48.432 Z-4.553 I-0.16 J-0.12 F480
X80.672 Y48.45 Z-4.48 I-0.083 J-0.182
X80.645 Z-4.38 I-0.012 J-0.2
G0 Z5
X94.82 Y48.276
Z2
G1 Z-0.8 F120
G3 Y48.303 Z-0.9 I-0.199 J0.015
X94.802 Y48.373 Z-0.973 I-0.2 J-0.012
X94.74 Y48.45 Z-1 I-0.182 J-0.083
X94.26 Y47.81 I-0.24 J-0.32 F240
X94.74 Y48.45 I0.24 J0.32
X94.668 Y48.392 I-0.029 J-0.038
G1 X94.728 Y48.259
G3 X94.82 Y48.276 I0.044 J0.02
G1 Z-1.8 F120
G3 Y48.303 Z-1.9 I-0.199 J0.015
X94.802 Y48.373 Z-1.973 I-0.2 J-0.012
X94.74 Y48.45 Z-2 I-0.182 J-0.083
X94.26 Y47.81 I-0.24 J-0.32 F240
X94.74 Y48.45 I0.24 J0.32
X94.668 Y48.392 I-0.029 J-0.038
G1 X94.728 Y48.259
G3 X94.82 Y48.276 I0.044 J0.02
G1 Z-2.8 F120
G3 Y48.303 Z-2.9 I-0.199 J0.015
X94.802 Y48.373 Z-2.973 I-0.2 J-0.012
X94.74 Y48.45 Z-3 I-0.182 J-0.083
X94.26 Y47.81 I-0.24 J-0.32 F240
X94.74 Y48.45 I0.24 J0.32
X94.668 Y48.392 I-0.029 J-0.038
G1 X94.728 Y48.259
G3 X94.82 Y48.276 I0.044 J0.02
G1 Z-3.8 F120
G3 Y48.303 Z-3.9 I-0.199 J0.015
X94.802 Y48.373 Z-3.973 I-0.2 J-0.012
X94.74 Y48.45 Z-4 I-0.182 J-0.083
X94.26 Y47.81 I-0.24 J-0.32 F240
X94.74 Y48.45 I0.24 J0.32
X94.668 Y48.392 I-0.029 J-0.038
G1 X94.728 Y48.259
G3 X94.82 Y48.276 I0.044 J0.02
G1 Z-4.38 F120
G3 Y48.303 Z-4.48 I-0.199 J0.015
X94.802 Y48.373 Z-4.553 I-0.2 J-0.012
X94.74 Y48.45 Z-4.58 I-0.182 J-0.083
X94.26 Y47.81 I-0.24 J-0.32 F240
X94.74 Y48.45 I0.24 J0.32
X94.649 Y48.488 Z-4.553 I-0.12 J-0.16 F480
X94.576 Y48.485 Z-4.48 I-0.029 J-0.198
X94.55 Y48.478 Z-4.38 I0.044 J-0.195
G0 Z5
X98.883 Y32.083
Z2
G1 Z-0.8 F120
G3 X98.909 Y32.076 Z-0.9 I0.07 J0.187
X98.981 Y32.073 Z-0.973 I0.044 J0.195
X99.073 Y32.111 Z-1 I-0.029 J0.198
X98.593 Y32.751 I-0.24 J0.32 F240
X99.073 Y32.111 I0.24 J-0.32
X99.037 Y32.197 I-0.029 J0.038
G1 X98.893 Y32.176
G3 X98.883 Y32.083 I0.007 J-0.047
G1 Z-1.8 F120
G3 X98.909 Y32.076 Z-1.9 I0.07 J0.187
X98.981 Y32.073 Z-1.973 I0.044 J0.195
X99.073 Y32.111 Z-2 I-0.029 J0.198
X98.593 Y32.751 I-0.24 J0.32 F240
X99.073 Y32.111 I0.24 J-0.32
X99.037 Y32.197 I-0.029 J0.038
G1 X98.893 Y32.176
G3 X98.883 Y32.083 I0.007 J-0.047
G1 Z-2.8 F120
G3 X98.909 Y32.076 Z-2.9 I0.07 J0.187
X98.981 Y32.073 Z-2.973 I0.044 J0.195
X99.073 Y32.111 Z-3 I-0.029 J0.198
X98.593 Y32.751 I-0.24 J0.32 F240
X99.073 Y32.111 I0.24 J-0.32
X99.037 Y32.197 I-0.029 J0.038
G1 X98.893 Y32.176
G3 X98.883 Y32.083 I0.007 J-0.047
G1 Z-3.8 F120
G3 X98.909 Y32.076 Z-3.9 I0.07 J0.187
X98.981 Y32.073 Z-3.973 I0.044 J0.195
X99.073 Y32.111 Z-4 I-0.029 J0.198
X98.593 Y32.751 I-0.24 J0.32 F240
X99.073 Y32.111 I0.24 J-0.32
X99.037 Y32.197 I-0.029 J0.038
G1 X98.893 Y32.176
G3 X98.883 Y32.083 I0.007 J-0.047
G1 Z-4.38 F120
G3 X98.909 Y32.076 Z-4.48 I0.07 J0.187
X98.981 Y32.073 Z-4.553 I0.044 J0.195
X99.073 Y32.111 Z-4.58 I-0.029 J0.198
X98.593 Y32.751 I-0.24 J0.32 F240
X99.073 Y32.111 I0.24 J-0.32
X99.135 Y32.188 Z-4.553 I-0.12 J0.16 F480
X99.152 Y32.258 Z-4.48 I-0.182 J0.083
Y32.285 Z-4.38 I-0.2 J0.012
G0 Z5
X104.104 Y42.387
Z2
G1 Z-0.8 F120
G3 X104.103 Y42.36 Z-0.9 I0.199 J-0.015
X104.121 Y42.289 Z-0.973 I0.2 J0.012
X104.183 Y42.212 Z-1 I0.182 J0.083
X104.663 Y42.852 I0.24 J0.32 F240
X104.183 Y42.212 I-0.24 J-0.32
X104.255 Y42.27 I0.029 J0.038
G1 X104.195 Y42.403
G3 X104.104 Y42.387 I-0.044 J-0.02
G1 Z-1.8 F120
G3 X104.103 Y42.36 Z-1.9 I0.199 J-0.015
X104.121 Y42.289 Z-1.973 I0.2 J0.012
X104.183 Y42.212 Z-2 I0.182 J0.083
X104.663 Y42.852 I0.24 J0.32 F240
X104.183 Y42.212 I-0.24 J-0.32
X104.255 Y42.27 I0.029 J0.038
G1 X104.195 Y42.403
G3 X104.104 Y42.387 I-0.044 J-0.02
G1 Z-2.8 F120
G3 X104.103 Y42.36 Z-2.9 I0.199 J-0.015
X104.121 Y42.289 Z-2.973 I0.2 J0.012
X104.183 Y42.212 Z-3 I0.182 J0.083
X104.663 Y42.852 I0.24 J0.32 F240
X104.183 Y42.212 I-0.24 J-0.32
X104.255 Y42.27 I0.029 J0.038
G1 X104.195 Y42.403
G3 X104.104 Y42.387 I-0.044 J-0.02
G1 Z-3.8 F120
G3 X104.103 Y42.36 Z-3.9 I0.199 J-0.015
X104.121 Y42.289 Z-3.973 I0.2 J0.012
X104.183 Y42.212 Z-4 I0.182 J0.083
X104.663 Y42.852 I0.24 J0.32 F240
X104.183 Y42.212 I-0.24 J-0.32
X104.255 Y42.27 I0.029 J0.038
G1 X104.195 Y42.403
G3 X104.104 Y42.387 I-0.044 J-0.02
G1 Z-4.38 F120
G3 X104.103 Y42.36 Z-4.48 I0.199 J-0.015
X104.121 Y42.289 Z-4.553 I0.2 J0.012
X104.183 Y42.212 Z-4.58 I0.182 J0.083
X104.663 Y42.852 I0.24 J0.32 F240
X104.183 Y42.212 I-0.24 J-0.32
X104.274 Y42.174 Z-4.553 I0.12 J0.16 F480
X104.347 Y42.177 Z-4.48 I0.029 J0.198
X104.373 Y42.185 Z-4.38 I-0.044 J0.195
G0 Z5
X114.224 Y28.266
Z2
G1 Z-0.8 F120
G3 X114.202 Y28.251 Z-0.9 I0.108 J-0.168
X114.156 Y28.194 Z-0.973 I0.13 J-0.152
X114.132 Y28.098 Z-1 I0.176 J-0.096
X114.932 I0.4 J0 F240
X114.132 I-0.4 J0
X114.222 Y28.075 I0.048 J0
G1 X114.292 Y28.203
G3 X114.224 Y28.266 I-0.042 J0.023
G1 Z-1.8 F120
G3 X114.202 Y28.251 Z-1.9 I0.108 J-0.168
X114.156 Y28.194 Z-1.973 I0.13 J-0.152
X114.132 Y28.098 Z-2 I0.176 J-0.096
X114.932 I0.4 J0 F240
X114.132 I-0.4 J0
X114.222 Y28.075 I0.048 J0
G1 X114.292 Y28.203
G3 X114.224 Y28.266 I-0.042 J0.023
G1 Z-2.8 F120
G3 X114.202 Y28.251 Z-2.9 I0.108 J-0.168
X114.156 Y28.194 Z-2.973 I0.13 J-0.152
X114.132 Y28.098 Z-3 I0.176 J-0.096
X114.932 I0.4 J0 F240
X114.132 I-0.4 J0
X114.222 Y28.075 I0.048 J0
G1 X114.292 Y28.203
G3 X114.224 Y28.266 I-0.042 J0.023
G1 Z-3.8 F120
G3 X114.202 Y28.251 Z-3.9 I0.108 J-0.168
X114.156 Y28.194 Z-3.973 I0.13 J-0.152
X114.132 Y28.098 Z-4 I0.176 J-0.096
X114.932 I0.4 J0 F240
X114.132 I-0.4 J0
X114.222 Y28.075 I0.048 J0
G1 X114.292 Y28.203
G3 X114.224 Y28.266 I-0.042 J0.023
G1 Z-4.38 F120
G3 X114.202 Y28.251 Z-4.48 I0.108 J-0.168
X114.156 Y28.194 Z-4.553 I0.13 J-0.152
X114.132 Y28.098 Z-4.58 I0.176 J-0.096
X114.932 I0.4 J0 F240
X114.132 I-0.4 J0
X114.156 Y28.002 Z-4.553 I0.2 J0 F480
X114.202 Y27.946 Z-4.48 I0.176 J0.096
X114.224 Y27.93 Z-4.38 I0.13 J0.152
G0 Z5
X119.804 Y38.054
Z2
G1 Z-0.8 F120
G3 X119.803 Y38.027 Z-0.9 I0.199 J-0.015
X119.821 Y37.957 Z-0.973 I0.2 J0.012
X119.883 Y37.88 Z-1 I0.182 J0.083
X120.363 Y38.52 I0.24 J0.32 F240
X119.883 Y37.88 I-0.24 J-0.32
X119.955 Y37.938 I0.029 J0.038
G1 X119.895 Y38.071
G3 X119.804 Y38.054 I-0.044 J-0.02
G1 Z-1.8 F120
G3 X119.803 Y38.027 Z-1.9 I0.199 J-0.015
X119.821 Y37.957 Z-1.973 I0.2 J0.012
X119.883 Y37.88 Z-2 I0.182 J0.083
X120.363 Y38.52 I0.24 J0.32 F240
X119.883 Y37.88 I-0.24 J-0.32
X119.955 Y37.938 I0.029 J0.038
G1 X119.895 Y38.071
G3 X119.804 Y38.054 I-0.044 J-0.02
G1 Z-2.8 F120
G3 X119.803 Y38.027 Z-2.9 I0.199 J-0.015
X119.821 Y37.957 Z-2.973 I0.2 J0.012
X119.883 Y37.88 Z-3 I0.182 J0.083
X120.363 Y38.52 I0.24 J0.32 F240
X119.883 Y37.88 I-0.24 J-0.32
X119.955 Y37.938 I0.029 J0.038
G1 X119.895 Y38.071
G3 X119.804 Y38.054 I-0.044 J-0.02
G1 Z-3.8 F120
G3 X119.803 Y38.027 Z-3.9 I0.199 J-0.015
X119.821 Y37.957 Z-3.973 I0.2 J0.012
X119.883 Y37.88 Z-4 I0.182 J0.083
X120.363 Y38.52 I0.24 J0.32 F240
X119.883 Y37.88 I-0.24 J-0.32
X119.955 Y37.938 I0.029 J0.038
G1 X119.895 Y38.071
G3 X119.804 Y38.054 I-0.044 J-0.02
G1 Z-4.38 F120
G3 X119.803 Y38.027 Z-4.48 I0.199 J-0.015
X119.821 Y37.957 Z-4.553 I0.2 J0.012
X119.883 Y37.88 Z-4.58 I0.182 J0.083
X120.363 Y38.52 I0.24 J0.32 F240
X119.883 Y37.88 I-0.24 J-0.32
X119.974 Y37.842 Z-4.553 I0.12 J0.16 F480
X120.047 Y37.845 Z-4.48 I0.029 J0.198
X120.073 Y37.852 Z-4.38 I-0.044 J0.195
G0 Z5
X124.136 Y22.355
Z2
G1 Z-0.8 F120
G3 X124.135 Y22.328 Z-0.9 I0.199 J-0.015
X124.153 Y22.257 Z-0.973 I0.2 J0.012
X124.215 Y22.18 Z-1 I0.182 J0.083
X124.695 Y22.82 I0.24 J0.32 F240
X124.215 Y22.18 I-0.24 J-0.32
X124.287 Y22.238 I0.029 J0.038
G1 X124.227 Y22.371
G3 X124.136 Y22.355 I-0.044 J-0.02
G1 Z-1.8 F120
G3 X124.135 Y22.328 Z-1.9 I0.199 J-0.015
X124.153 Y22.257 Z-1.973 I0.2 J0.012
X124.215 Y22.18 Z-2 I0.182 J0.083
X124.695 Y22.82 I0.24 J0.32 F240
X124.215 Y22.18 I-0.24 J-0.32
X124.287 Y22.238 I0.029 J0.038
G1 X124.227 Y22.371
G3 X124.136 Y22.355 I-0.044 J-0.02
G1 Z-2.8 F120
G3 X124.135 Y22.328 Z-2.9 I0.199 J-0.015
X124.153 Y22.257 Z-2.973 I0.2 J0.012
X124.215 Y22.18 Z-3 I0.182 J0.083
X124.695 Y22.82 I0.24 J0.32 F240
X124.215 Y22.18 I-0.24 J-0.32
X124.287 Y22.238 I0.029 J0.038
G1 X124.227 Y22.371
G3 X124.136 Y22.355 I-0.044 J-0.02
G1 Z-3.8 F120
G3 X124.135 Y22.328 Z-3.9 I0.199 J-0.015
X124.153 Y22.257 Z-3.973 I0.2 J0.012
X124.215 Y22.18 Z-4 I0.182 J0.083
X124.695 Y22.82 I0.24 J0.32 F240
X124.215 Y22.18 I-0.24 J-0.32
X124.287 Y22.238 I0.029 J0.038
G1 X124.227 Y22.371
G3 X124.136 Y22.355 I-0.044 J-0.02
G1 Z-4.38 F120
G3 X124.135 Y22.328 Z-4.48 I0.199 J-0.015
X124.153 Y22.257 Z-4.553 I0.2 J0.012
X124.215 Y22.18 Z-4.58 I0.182 J0.083
X124.695 Y22.82 I0.24 J0.32 F240
X124.215 Y22.18 I-0.24 J-0.32
X124.306 Y22.142 Z-4.553 I0.12 J0.16 F480
X124.379 Y22.145 Z-4.48 I0.029 J0.198
X124.405 Y22.153 Z-4.38 I-0.044 J0.195
G0 Z15

(CUTOUTS)
M8
G0 X71.172 Y37.966
Z15
Z2
G1 Z-0.8 F120
X71.171 Y37.973 Z-0.852
X71.17 Y37.993 Z-0.9
X71.167 Y38.025 Z-0.941
X71.163 Y38.066 Z-0.973
X71.159 Y38.114 Z-0.993
X71.155 Y38.166 Z-1
X71.137 Y38.365
G3 X70.921 Y38.547 I-0.199 J-0.017
G2 X70.522 Y38.594 I-0.086 J0.996 F240
G3 X54.483 Y22.555 I-3.977 J-12.061
G2 X54.53 Y22.156 I-0.95 J-0.313
X46.666 Y21.522 I-3.985 J0.344
X49.344 Y37.685 I19.878 J5.01
X71.554 Y46.411 I17.201 J-11.153
X70.921 Y38.547 I-0.977 J-3.879
G3 X70.739 Y38.33 I0.017 J-0.199 F480
G1 X70.756 Y38.131
X70.761 Y38.08 Z-0.993
X70.765 Y38.032 Z-0.973
X70.768 Y37.99 Z-0.941
X70.771 Y37.959 Z-0.9
X70.773 Y37.939 Z-0.852
Y37.932 Z-0.8
X71.172 Y37.966
Z-1.8 F120
X71.171 Y37.973 Z-1.852
X71.17 Y37.993 Z-1.9
X71.167 Y38.025 Z-1.941
X71.163 Y38.066 Z-1.973
X71.159 Y38.114 Z-1.993
X71.155 Y38.166 Z-2
X71.137 Y38.365
G3 X70.921 Y38.547 I-0.199 J-0.017
G2 X70.522 Y38.594 I-0.086 J0.996 F240
G3 X54.483 Y22.555 I-3.977 J-12.061
G2 X54.53 Y22.156 I-0.95 J-0.313
X46.666 Y21.522 I-3.985 J0.344
X49.344 Y37.685 I19.878 J5.01
X71.554 Y46.411 I17.201 J-11.153
X70.921 Y38.547 I-0.977 J-3.879
G3 X70.739 Y38.33 I0.017 J-0.199 F480
G1 X70.756 Y38.131
X70.761 Y38.08 Z-1.993
X70.765 Y38.032 Z-1.973
X70.768 Y37.99 Z-1.941
X70.771 Y37.959 Z-1.9
X70.773 Y37.939 Z-1.852
Y37.932 Z-1.8
X71.172 Y37.966
Z-2.8 F120
X71.171 Y37.973 Z-2.852
X71.17 Y37.993 Z-2.9
X71.167 Y38.025 Z-2.941
X71.163 Y38.066 Z-2.973
X71.159 Y38.114 Z-2.993
X71.155 Y38.166 Z-3
X71.137 Y38.365
G3 X70.921 Y38.547 I-0.199 J-0.017
G2 X70.522 Y38.594 I-0.086 J0.996 F240
G3 X54.483 Y22.555 I-3.977 J-12.061
G2 X54.53 Y22.156 I-0.95 J-0.313
X46.666 Y21.522 I-3.985 J0.344
X49.344 Y37.685 I19.878 J5.01
X71.554 Y46.411 I17.201 J-11.153
X70.921 Y38.547 I-0.977 J-3.879
G3 X70.739 Y38.33 I0.017 J-0.199 F480
G1 X70.756 Y38.131
X70.761 Y38.08 Z-2.993
X70.765 Y38.032 Z-2.973
X70.768 Y37.99 Z-2.941
X70.771 Y37.959 Z-2.9
X70.773 Y37.939 Z-2.852
Y37.932 Z-2.8
X71.172 Y37.966
Z-3.8 F120
X71.171 Y37.973 Z-3.852
X71.17 Y37.993 Z-3.9
X71.167 Y38.025 Z-3.941
X71.163 Y38.066 Z-3.973
X71.159 Y38.114 Z-3.993
X71.155 Y38.166 Z-4
X71.137 Y38.365
G3 X70.921 Y38.547 I-0.199 J-0.017
G2 X70.522 Y38.594 I-0.086 J0.996 F240
G3 X54.483 Y22.555 I-3.977 J-12.061
G2 X54.53 Y22.156 I-0.95 J-0.313
X46.666 Y21.522 I-3.985 J0.344
X49.344 Y37.685 I19.878 J5.01
X71.554 Y46.411 I17.201 J-11.153
X70.921 Y38.547 I-0.977 J-3.879
G3 X70.739 Y38.33 I0.017 J-0.199 F480
G1 X70.756 Y38.131
X70.761 Y38.08 Z-3.993
X70.765 Y38.032 Z-3.973
X70.768 Y37.99 Z-3.941
X70.771 Y37.959 Z-3.9
X70.773 Y37.939 Z-3.852
Y37.932 Z-3.8
X71.172 Y37.966
Z-4.38 F120
X71.171 Y37.973 Z-4.432
X71.17 Y37.993 Z-4.48
X71.167 Y38.025 Z-4.521
X71.163 Y38.066 Z-4.553
X71.159 Y38.114 Z-4.573
X71.155 Y38.166 Z-4.58
X71.137 Y38.365
G3 X70.921 Y38.547 I-0.199 J-0.017
G2 X70.522 Y38.594 I-0.086 J0.996 F240
G3 X54.483 Y22.555 I-3.977 J-12.061
G2 X54.53 Y22.156 I-0.95 J-0.313
X46.666 Y21.522 I-3.985 J0.344
X49.344 Y37.685 I19.878 J5.01
X71.554 Y46.411 I17.201 J-11.153
X70.921 Y38.547 I-0.977 J-3.879
G3 X70.739 Y38.33 I0.017 J-0.199 F480
G1 X70.756 Y38.131
X70.761 Y38.08 Z-4.573
X70.765 Y38.032 Z-4.553
X70.768 Y37.99 Z-4.521
X70.771 Y37.959 Z-4.48
X70.773 Y37.939 Z-4.432
Y37.932 Z-4.38
G0 Z5
X59.873 Y32.664
Z2
G1 Z-0.8 F120
Y32.657 Z-0.852
X59.875 Y32.637 Z-0.9
X59.878 Y32.606 Z-0.941
X59.881 Y32.564 Z-0.973
X59.885 Y32.516 Z-0.993
X59.89 Y32.465 Z-1
X59.907 Y32.265
G3 X60.123 Y32.083 I0.199 J0.017
G2 X60.523 Y32.037 I0.086 J-0.996 F240
G3 X76.561 Y48.075 I3.977 J12.061
G2 X76.515 Y48.474 I0.95 J0.313
X84.378 Y49.108 I3.985 J-0.344
X85 Y44.039 I-19.878 J-5.01
X59.49 Y24.22 I-20.5 J0.059
X60.123 Y32.083 I0.978 J3.879
G3 X60.305 Y32.3 I-0.017 J0.199 F480
G1 X60.288 Y32.499
X60.284 Y32.551 Z-0.993
X60.28 Y32.599 Z-0.973
X60.276 Y32.64 Z-0.941
X60.273 Y32.672 Z-0.9
X60.272 Y32.692 Z-0.852
X60.271 Y32.698 Z-0.8
X59.873 Y32.664
Z-1.8 F120
Y32.657 Z-1.852
X59.875 Y32.637 Z-1.9
X59.878 Y32.606 Z-1.941
X59.881 Y32.564 Z-1.973
X59.885 Y32.516 Z-1.993
X59.89 Y32.465 Z-2
X59.907 Y32.265
G3 X60.123 Y32.083 I0.199 J0.017
G2 X60.523 Y32.037 I0.086 J-0.996 F240
G3 X76.561 Y48.075 I3.977 J12.061
G2 X76.515 Y48.474 I0.95 J0.313
X84.378 Y49.108 I3.985 J-0.344
X85 Y44.039 I-19.878 J-5.01
X59.49 Y24.22 I-20.5 J0.059
X60.123 Y32.083 I0.978 J3.879
G3 X60.305 Y32.3 I-0.017 J0.199 F480
G1 X60.288 Y32.499
X60.284 Y32.551 Z-1.993
X60.28 Y32.599 Z-1.973
X60.276 Y32.64 Z-1.941
X60.273 Y32.672 Z-1.9
X60.272 Y32.692 Z-1.852
X60.271 Y32.698 Z-1.8
X59.873 Y32.664
Z-2.8 F120
Y32.657 Z-2.852
X59.875 Y32.637 Z-2.9
X59.878 Y32.606 Z-2.941
X59.881 Y32.564 Z-2.973
X59.885 Y32.516 Z-2.993
X59.89 Y32.465 Z-3
X59.907 Y32.265
G3 X60.123 Y32.083 I0.199 J0.017
G2 X60.523 Y32.037 I0.086 J-0.996 F240
G3 X76.561 Y48.075 I3.977 J12.061
G2 X76.515 Y48.474 I0.95 J0.313
X84.378 Y49.108 I3.985 J-0.344
X85 Y44.039 I-19.878 J-5.01
X59.49 Y24.22 I-20.5 J0.059
X60.123 Y32.083 I0.978 J3.879
G3 X60.305 Y32.3 I-0.017 J0.199 F480
G1 X60.288 Y32.499
X60.284 Y32.551 Z-2.993
X60.28 Y32.599 Z-2.973
X60.276 Y32.64 Z-2.941
X60.273 Y32.672 Z-2.9
X60.272 Y32.692 Z-2.852
X60.271 Y32.698 Z-2.8
X59.873 Y32.664
Z-3.8 F120
Y32.657 Z-3.852
X59.875 Y32.637 Z-3.9
X59.878 Y32.606 Z-3.941
X59.881 Y32.564 Z-3.973
X59.885 Y32.516 Z-3.993
X59.89 Y32.465 Z-4
X59.907 Y32.265
G3 X60.123 Y32.083 I0.199 J0.017
G2 X60.523 Y32.037 I0.086 J-0.996 F240
G3 X76.561 Y48.075 I3.977 J12.061
G2 X76.515 Y48.474 I0.95 J0.313
X84.378 Y49.108 I3.985 J-0.344
X85 Y44.039 I-19.878 J-5.01
X59.49 Y24.22 I-20.5 J0.059
X60.123 Y32.083 I0.978 J3.879
G3 X60.305 Y32.3 I-0.017 J0.199 F480
G1 X60.288 Y32.499
X60.284 Y32.551 Z-3.993
X60.28 Y32.599 Z-3.973
X60.276 Y32.64 Z-3.941
X60.273 Y32.672 Z-3.9
X60.272 Y32.692 Z-3.852
X60.271 Y32.698 Z-3.8
X59.873 Y32.664
Z-4.38 F120
Y32.657 Z-4.432
X59.875 Y32.637 Z-4.48
X59.878 Y32.606 Z-4.521
X59.881 Y32.564 Z-4.553
X59.885 Y32.516 Z-4.573
X59.89 Y32.465 Z-4.58
X59.907 Y32.265
G3 X60.123 Y32.083 I0.199 J0.017
G2 X60.523 Y32.037 I0.086 J-0.996 F240
G3 X76.561 Y48.075 I3.977 J12.061
G2 X76.515 Y48.474 I0.95 J0.313
X84.378 Y49.108 I3.985 J-0.344
X85 Y44.039 I-19.878 J-5.01
X59.49 Y24.22 I-20.5 J0.059
X60.123 Y32.083 I0.978 J3.879
G3 X60.305 Y32.3 I-0.017 J0.199 F480
G1 X60.288 Y32.499
X60.284 Y32.551 Z-4.573
X60.28 Y32.599 Z-4.553
X60.276 Y32.64 Z-4.521
X60.273 Y32.672 Z-4.48
X60.272 Y32.692 Z-4.432
X60.271 Y32.698 Z-4.38
G0 Z5
X114.73
Z2
G1 Z-0.8 F120
X114.729 Y32.692 Z-0.852
X114.728 Y32.672 Z-0.9
X114.725 Y32.64 Z-0.941
X114.721 Y32.599 Z-0.973
X114.717 Y32.551 Z-0.993
X114.713 Y32.499 Z-1
X114.695 Y32.3
G3 X114.877 Y32.083 I0.199 J-0.017
G2 X115.509 Y24.22 I-0.345 J-3.985 F240
X90.622 Y49.108 I-5.009 J19.878
X98.485 Y48.474 I3.879 J-0.977
X98.439 Y48.075 I-0.996 J-0.086
G3 X114.478 Y32.037 I12.061 J-3.977
G2 X114.877 Y32.083 I0.313 J-0.95
G3 X115.094 Y32.265 I0.017 J0.199 F480
G1 X115.111 Y32.465
X115.116 Y32.516 Z-0.993
X115.12 Y32.564 Z-0.973
X115.123 Y32.606 Z-0.941
X115.126 Y32.637 Z-0.9
X115.128 Y32.657 Z-0.852
Y32.664 Z-0.8
X114.73 Y32.698
Z-1.8 F120
X114.729 Y32.692 Z-1.852
X114.728 Y32.672 Z-1.9
X114.725 Y32.64 Z-1.941
X114.721 Y32.599 Z-1.973
X114.717 Y32.551 Z-1.993
X114.713 Y32.499 Z-2
X114.695 Y32.3
G3 X114.877 Y32.083 I0.199 J-0.017
G2 X115.509 Y24.22 I-0.345 J-3.985 F240
X90.622 Y49.108 I-5.009 J19.878
X98.485 Y48.474 I3.879 J-0.977
X98.439 Y48.075 I-0.996 J-0.086
G3 X114.478 Y32.037 I12.061 J-3.977
G2 X114.877 Y32.083 I0.313 J-0.95
G3 X115.094 Y32.265 I0.017 J0.199 F480
G1 X115.111 Y32.465
X115.116 Y32.516 Z-1.993
X115.12 Y32.564 Z-1.973
X115.123 Y32.606 Z-1.941
X115.126 Y32.637 Z-1.9
X115.128 Y32.657 Z-1.852
Y32.664 Z-1.8
X114.73 Y32.698
Z-2.8 F120
X114.729 Y32.692 Z-2.852
X114.728 Y32.672 Z-2.9
X114.725 Y32.64 Z-2.941
X114.721 Y32.599 Z-2.973
X114.717 Y32.551 Z-2.993
X114.713 Y32.499 Z-3
X114.695 Y32.3
G3 X114.877 Y32.083 I0.199 J-0.017
G2 X115.509 Y24.22 I-0.345 J-3.985 F240
X90.622 Y49.108 I-5.009 J19.878
X98.485 Y48.474 I3.879 J-0.977
X98.439 Y48.075 I-0.996 J-0.086
G3 X114.478 Y32.037 I12.061 J-3.977
G2 X114.877 Y32.083 I0.313 J-0.95
G3 X115.094 Y32.265 I0.017 J0.199 F480
G1 X115.111 Y32.465
X115.116 Y32.516 Z-2.993
X115.12 Y32.564 Z-2.973
X115.123 Y32.606 Z-2.941
X115.126 Y32.637 Z-2.9
X115.128 Y32.657 Z-2.852
Y32.664 Z-2.8
X114.73 Y32.698
Z-3.8 F120
X114.729 Y32.692 Z-3.852
X114.728 Y32.672 Z-3.9
X114.725 Y32.64 Z-3.941
X114.721 Y32.599 Z-3.973
X114.717 Y32.551 Z-3.993
X114.713 Y32.499 Z-4
X114.695 Y32.3
G3 X114.877 Y32.083 I0.199 J-0.017
G2 X115.509 Y24.22 I-0.345 J-3.985 F240
X90.622 Y49.108 I-5.009 J19.878
X98.485 Y48.474 I3.879 J-0.977
X98.439 Y48.075 I-0.996 J-0.086
G3 X114.478 Y32.037 I12.061 J-3.977
G2 X114.877 Y32.083 I0.313 J-0.95
G3 X115.094 Y32.265 I0.017 J0.199 F480
G1 X115.111 Y32.465
X115.116 Y32.516 Z-3.993
X115.12 Y32.564 Z-3.973
X115.123 Y32.606 Z-3.941
X115.126 Y32.637 Z-3.9
X115.128 Y32.657 Z-3.852
Y32.664 Z-3.8
X114.73 Y32.698
Z-4.38 F120
X114.729 Y32.692 Z-4.432
X114.728 Y32.672 Z-4.48
X114.725 Y32.64 Z-4.521
X114.721 Y32.599 Z-4.553
X114.717 Y32.551 Z-4.573
X114.713 Y32.499 Z-4.58
X114.695 Y32.3
G3 X114.877 Y32.083 I0.199 J-0.017
G2 X115.509 Y24.22 I-0.345 J-3.985 F240
X90.622 Y49.108 I-5.009 J19.878
X98.485 Y48.474 I3.879 J-0.977
X98.439 Y48.075 I-0.996 J-0.086
G3 X114.478 Y32.037 I12.061 J-3.977
G2 X114.877 Y32.083 I0.313 J-0.95
G3 X115.094 Y32.265 I0.017 J0.199 F480
G1 X115.111 Y32.465
X115.116 Y32.516 Z-4.573
X115.12 Y32.564 Z-4.553
X115.123 Y32.606 Z-4.521
X115.126 Y32.637 Z-4.48
X115.128 Y32.657 Z-4.432
Y32.664 Z-4.38
G0 Z5
X104.227 Y37.932
Z2
G1 Z-0.8 F120
Y37.939 Z-0.852
X104.229 Y37.959 Z-0.9
X104.232 Y37.99 Z-0.941
X104.235 Y38.032 Z-0.973
X104.239 Y38.08 Z-0.993
X104.244 Y38.131 Z-1
X104.261 Y38.33
G3 X104.079 Y38.547 I-0.199 J0.017
G2 X103.446 Y46.411 I0.344 J3.985 F240
X125.656 Y37.685 I5.01 J-19.879
X128.334 Y21.522 I-17.201 J-11.153
X120.47 Y22.156 I-3.879 J0.978
X120.516 Y22.555 I0.996 J0.086
G3 X104.478 Y38.593 I-12.061 J3.977
G2 X104.079 Y38.547 I-0.313 J0.95
G3 X103.863 Y38.365 I-0.017 J-0.199 F480
G1 X103.845 Y38.166
X103.841 Y38.114 Z-0.993
X103.837 Y38.066 Z-0.973
X103.833 Y38.025 Z-0.941
X103.83 Y37.993 Z-0.9
X103.829 Y37.973 Z-0.852
X103.828 Y37.966 Z-0.8
X104.227 Y37.932
Z-1.8 F120
Y37.939 Z-1.852
X104.229 Y37.959 Z-1.9
X104.232 Y37.99 Z-1.941
X104.235 Y38.032 Z-1.973
X104.239 Y38.08 Z-1.993
X104.244 Y38.131 Z-2
X104.261 Y38.33
G3 X104.079 Y38.547 I-0.199 J0.017
G2 X103.446 Y46.411 I0.344 J3.985 F240
X125.656 Y37.685 I5.01 J-19.879
X128.334 Y21.522 I-17.201 J-11.153
X120.47 Y22.156 I-3.879 J0.978
X120.516 Y22.555 I0.996 J0.086
G3 X104.478 Y38.593 I-12.061 J3.977
G2 X104.079 Y38.547 I-0.313 J0.95
G3 X103.863 Y38.365 I-0.017 J-0.199 F480
G1 X103.845 Y38.166
X103.841 Y38.114 Z-1.993
X103.837 Y38.066 Z-1.973
X103.833 Y38.025 Z-1.941
X103.83 Y37.993 Z-1.9
X103.829 Y37.973 Z-1.852
X103.828 Y37.966 Z-1.8
X104.227 Y37.932
Z-2.8 F120
Y37.939 Z-2.852
X104.229 Y37.959 Z-2.9
X104.232 Y37.99 Z-2.941
X104.235 Y38.032 Z-2.973
X104.239 Y38.08 Z-2.993
X104.244 Y38.131 Z-3
X104.261 Y38.33
G3 X104.079 Y38.547 I-0.199 J0.017
G2 X103.446 Y46.411 I0.344 J3.985 F240
X125.656 Y37.685 I5.01 J-19.879
X128.334 Y21.522 I-17.201 J-11.153
X120.47 Y22.156 I-3.879 J0.978
X120.516 Y22.555 I0.996 J0.086
G3 X104.478 Y38.593 I-12.061 J3.977
G2 X104.079 Y38.547 I-0.313 J0.95
G3 X103.863 Y38.365 I-0.017 J-0.199 F480
G1 X103.845 Y38.166
X103.841 Y38.114 Z-2.993
X103.837 Y38.066 Z-2.973
X103.833 Y38.025 Z-2.941
X103.83 Y37.993 Z-2.9
X103.829 Y37.973 Z-2.852
X103.828 Y37.966 Z-2.8
X104.227 Y37.932
Z-3.8 F120
Y37.939 Z-3.852
X104.229 Y37.959 Z-3.9
X104.232 Y37.99 Z-3.941
X104.235 Y38.032 Z-3.973
X104.239 Y38.08 Z-3.993
X104.244 Y38.131 Z-4
X104.261 Y38.33
G3 X104.079 Y38.547 I-0.199 J0.017
G2 X103.446 Y46.411 I0.344 J3.985 F240
X125.656 Y37.685 I5.01 J-19.879
X128.334 Y21.522 I-17.201 J-11.153
X120.47 Y22.156 I-3.879 J0.978
X120.516 Y22.555 I0.996 J0.086
G3 X104.478 Y38.593 I-12.061 J3.977
G2 X104.079 Y38.547 I-0.313 J0.95
G3 X103.863 Y38.365 I-0.017 J-0.199 F480
G1 X103.845 Y38.166
X103.841 Y38.114 Z-3.993
X103.837 Y38.066 Z-3.973
X103.833 Y38.025 Z-3.941
X103.83 Y37.993 Z-3.9
X103.829 Y37.973 Z-3.852
X103.828 Y37.966 Z-3.8
X104.227 Y37.932
Z-4.38 F120
Y37.939 Z-4.432
X104.229 Y37.959 Z-4.48
X104.232 Y37.99 Z-4.521
X104.235 Y38.032 Z-4.553
X104.239 Y38.08 Z-4.573
X104.244 Y38.131 Z-4.58
X104.261 Y38.33
G3 X104.079 Y38.547 I-0.199 J0.017
G2 X103.446 Y46.411 I0.344 J3.985 F240
X125.656 Y37.685 I5.01 J-19.879
X128.334 Y21.522 I-17.201 J-11.153
X120.47 Y22.156 I-3.879 J0.978
X120.516 Y22.555 I0.996 J0.086
G3 X104.478 Y38.593 I-12.061 J3.977
G2 X104.079 Y38.547 I-0.313 J0.95
G3 X103.863 Y38.365 I-0.017 J-0.199 F480
G1 X103.845 Y38.166
X103.841 Y38.114 Z-4.573
X103.837 Y38.066 Z-4.553
X103.833 Y38.025 Z-4.521
X103.83 Y37.993 Z-4.48
X103.829 Y37.973 Z-4.432
X103.828 Y37.966 Z-4.38
G0 Z15

M9
M30
