(MOTOR-PROTECTORS)
(T11  D=2 CR=0 - ZMIN=-4.58 - FLAT END MILL)
G90 G94 G91.1 G40 G49 G17
G21

(NUT POCKETS)
M5
M9
T11 M6
(DIAMOND OR SPIRAL)
S16000 M3
G54
M8
G0 X43.322 Y14.329
G43 Z15 H1
Z2
G1 Z-0.8 F60
G3 X43.296 Y14.336 Z-0.9 I-0.07 J-0.187
X43.223 Y14.339 Z-0.973 I-0.044 J-0.195
X43.132 Y14.301 Z-1 I0.029 J-0.198
X43.527 Y13.774 I0.198 J-0.264 F240
X43.132 Y14.301 I-0.198 J0.264
G2 X42.533 Y14.248 I-0.343 J0.457
G3 X42.143 Y13.789 I-0.139 J-0.277
G2 X42.208 Y13.688 I-0.809 J-0.588
G1 X42.443 Y13.267
G2 X42.569 Y12.765 I-0.873 J-0.487
X43.071 Y12.891 I0.487 J-0.873
G1 X43.554 Y12.884
G2 X44.052 Y12.743 I-0.015 J-1
X44.193 Y13.241 I1 J-0.015
G1 X44.441 Y13.655
G2 X44.812 Y14.016 I0.858 J-0.513
X44.452 Y14.387 I0.513 J0.858
G1 X44.216 Y14.809
G2 X44.09 Y15.311 I0.873 J0.487
X43.588 Y15.184 I-0.487 J0.873
G1 X43.105 Y15.191
G2 X42.608 Y15.333 I0.015 J1
X42.466 Y14.835 I-1 J0.015
G1 X42.219 Y14.42
G2 X41.847 Y14.06 I-0.858 J0.513
X42.143 Y13.789 I-0.513 J-0.859
G3 X42.353 Y13.713 I0.162 J0.118
G1 X43.3 Y13.947
G3 X43.322 Y14.329 I-0.048 J0.194
G1 Z-1.8 F60
G3 X43.296 Y14.336 Z-1.9 I-0.07 J-0.187
X43.223 Y14.339 Z-1.973 I-0.044 J-0.195
X43.132 Y14.301 Z-2 I0.029 J-0.198
X43.527 Y13.774 I0.198 J-0.264 F240
X43.132 Y14.301 I-0.198 J0.264
G2 X42.533 Y14.248 I-0.343 J0.457
G3 X42.143 Y13.789 I-0.139 J-0.277
G2 X42.208 Y13.688 I-0.809 J-0.588
G1 X42.443 Y13.267
G2 X42.569 Y12.765 I-0.873 J-0.487
X43.071 Y12.891 I0.487 J-0.873
G1 X43.554 Y12.884
G2 X44.052 Y12.743 I-0.015 J-1
X44.193 Y13.241 I1 J-0.015
G1 X44.441 Y13.655
G2 X44.812 Y14.016 I0.858 J-0.513
X44.452 Y14.387 I0.513 J0.858
G1 X44.216 Y14.809
G2 X44.09 Y15.311 I0.873 J0.487
X43.588 Y15.184 I-0.487 J0.873
G1 X43.105 Y15.191
G2 X42.608 Y15.333 I0.015 J1
X42.466 Y14.835 I-1 J0.015
G1 X42.219 Y14.42
G2 X41.847 Y14.06 I-0.858 J0.513
X42.143 Y13.789 I-0.513 J-0.859
G3 X42.353 Y13.713 I0.162 J0.118
G1 X43.3 Y13.947
G3 X43.322 Y14.329 I-0.048 J0.194
G1 Z-2.7 F60
G3 X43.296 Y14.336 Z-2.8 I-0.07 J-0.187
X43.223 Y14.339 Z-2.873 I-0.044 J-0.195
X43.132 Y14.301 Z-2.9 I0.029 J-0.198
X43.527 Y13.774 I0.198 J-0.264 F240
X43.132 Y14.301 I-0.198 J0.264
G2 X42.533 Y14.248 I-0.343 J0.457
G3 X42.143 Y13.789 I-0.139 J-0.277
G2 X42.208 Y13.688 I-0.809 J-0.588
G1 X42.443 Y13.267
G2 X42.569 Y12.765 I-0.873 J-0.487
X43.071 Y12.891 I0.487 J-0.873
G1 X43.554 Y12.884
G2 X44.052 Y12.743 I-0.015 J-1
X44.193 Y13.241 I1 J-0.015
G1 X44.441 Y13.655
G2 X44.812 Y14.016 I0.858 J-0.513
X44.452 Y14.387 I0.513 J0.858
G1 X44.216 Y14.809
G2 X44.09 Y15.311 I0.873 J0.487
X43.588 Y15.184 I-0.487 J0.873
G1 X43.105 Y15.191
G2 X42.608 Y15.333 I0.015 J1
X42.466 Y14.835 I-1 J0.015
G1 X42.219 Y14.42
G2 X41.847 Y14.06 I-0.858 J0.513
X42.143 Y13.789 I-0.513 J-0.859
G3 X42.219 Y13.726 Z-2.873 I0.162 J0.118 F480
X42.29 Y13.708 Z-2.8 I0.086 J0.181
X42.316 Y13.707 Z-2.7 I0.015 J0.199
G0 Z5
X29.402 Y5.832
Z2
G1 Z-0.8 F60
G3 X29.424 Y5.848 Z-0.9 I-0.108 J0.168
X29.47 Y5.904 Z-0.973 I-0.13 J0.152
X29.494 Y6 Z-1 I-0.176 J0.096
X28.835 I-0.329 J0 F240
X29.494 I0.329 J0
G2 X29.712 Y6.587 I0.898 J0
G3 X29.442 Y7.151 I-0.259 J0.223
G2 X29.406 Y7.15 I-0.035 J0.999
G1 X28.924
G2 X28.424 Y7.284 I0 J1
X28.29 Y6.784 I-1 J0
G1 X28.048 Y6.366
G2 X27.682 Y6 I-0.866 J0.5
X28.048 Y5.634 I-0.5 J-0.866
G1 X28.29 Y5.216
G2 X28.424 Y4.716 I-0.866 J-0.5
X28.924 Y4.85 I0.5 J-0.866
G1 X29.406
G2 X29.906 Y4.716 I0 J-1
X30.04 Y5.216 I1 J0
G1 X30.281 Y5.634
G2 X30.647 Y6 I0.866 J-0.5
X30.281 Y6.366 I0.5 J0.866
G1 X30.04 Y6.784
G2 X29.906 Y7.284 I0.866 J0.5
X29.442 Y7.151 I-0.5 J0.866
G3 X29.251 Y6.983 I0.007 J-0.2
G1 X29.097 Y6.032
G3 X29.402 Y5.832 I0.197 J-0.032
G1 Z-1.8 F60
G3 X29.424 Y5.848 Z-1.9 I-0.108 J0.168
X29.47 Y5.904 Z-1.973 I-0.13 J0.152
X29.494 Y6 Z-2 I-0.176 J0.096
X28.835 I-0.329 J0 F240
X29.494 I0.329 J0
G2 X29.712 Y6.587 I0.898 J0
G3 X29.442 Y7.151 I-0.259 J0.223
G2 X29.406 Y7.15 I-0.035 J0.999
G1 X28.924
G2 X28.424 Y7.284 I0 J1
X28.29 Y6.784 I-1 J0
G1 X28.048 Y6.366
G2 X27.682 Y6 I-0.866 J0.5
X28.048 Y5.634 I-0.5 J-0.866
G1 X28.29 Y5.216
G2 X28.424 Y4.716 I-0.866 J-0.5
X28.924 Y4.85 I0.5 J-0.866
G1 X29.406
G2 X29.906 Y4.716 I0 J-1
X30.04 Y5.216 I1 J0
G1 X30.281 Y5.634
G2 X30.647 Y6 I0.866 J-0.5
X30.281 Y6.366 I0.5 J0.866
G1 X30.04 Y6.784
G2 X29.906 Y7.284 I0.866 J0.5
X29.442 Y7.151 I-0.5 J0.866
G3 X29.251 Y6.983 I0.007 J-0.2
G1 X29.097 Y6.032
G3 X29.402 Y5.832 I0.197 J-0.032
G1 Z-2.7 F60
G3 X29.424 Y5.848 Z-2.8 I-0.108 J0.168
X29.47 Y5.904 Z-2.873 I-0.13 J0.152
X29.494 Y6 Z-2.9 I-0.176 J0.096
X28.835 I-0.329 J0 F240
X29.494 I0.329 J0
G2 X29.712 Y6.587 I0.898 J0
G3 X29.442 Y7.151 I-0.259 J0.223
G2 X29.406 Y7.15 I-0.035 J0.999
G1 X28.924
G2 X28.424 Y7.284 I0 J1
X28.29 Y6.784 I-1 J0
G1 X28.048 Y6.366
G2 X27.682 Y6 I-0.866 J0.5
X28.048 Y5.634 I-0.5 J-0.866
G1 X28.29 Y5.216
G2 X28.424 Y4.716 I-0.866 J-0.5
X28.924 Y4.85 I0.5 J-0.866
G1 X29.406
G2 X29.906 Y4.716 I0 J-1
X30.04 Y5.216 I1 J0
G1 X30.281 Y5.634
G2 X30.647 Y6 I0.866 J-0.5
X30.281 Y6.366 I0.5 J0.866
G1 X30.04 Y6.784
G2 X29.906 Y7.284 I0.866 J0.5
X29.442 Y7.151 I-0.5 J0.866
G3 X29.347 Y7.123 Z-2.873 I0.007 J-0.2 F480
X29.292 Y7.075 Z-2.8 I0.102 J-0.172
X29.277 Y7.053 Z-2.7 I0.157 J-0.124
G0 Z5
X14.992 Y14.329
Z2
G1 Z-0.8 F60
G3 X14.966 Y14.336 Z-0.9 I-0.07 J-0.187
X14.894 Y14.339 Z-0.973 I-0.044 J-0.195
X14.802 Y14.301 Z-1 I0.029 J-0.198
X15.198 Y13.774 I0.198 J-0.264 F240
X14.802 Y14.301 I-0.198 J0.264
G2 X14.198 Y14.23 I-0.364 J0.485
G3 X13.824 Y13.751 I-0.125 J-0.288
G2 X13.889 Y13.655 I-0.794 J-0.608
G1 X14.136 Y13.241
G2 X14.278 Y12.743 I-0.858 J-0.513
X14.776 Y12.884 I0.513 J-0.859
G1 X15.258 Y12.891
G2 X15.76 Y12.765 I0.015 J-1
X15.887 Y13.267 I1 J0.015
G1 X16.122 Y13.688
G2 X16.482 Y14.06 I0.873 J-0.487
X16.111 Y14.42 I0.487 J0.873
G1 X15.864 Y14.835
G2 X15.722 Y15.333 I0.858 J0.513
X15.224 Y15.191 I-0.513 J0.859
G1 X14.742 Y15.184
G2 X14.24 Y15.311 I-0.015 J1
X14.113 Y14.809 I-1 J-0.015
G1 X13.878 Y14.387
G2 X13.518 Y14.016 I-0.873 J0.487
X13.824 Y13.751 I-0.487 J-0.873
G3 X14.038 Y13.68 I0.159 J0.122
G1 X14.977 Y13.949
G3 X14.992 Y14.329 I-0.055 J0.192
G1 Z-1.8 F60
G3 X14.966 Y14.336 Z-1.9 I-0.07 J-0.187
X14.894 Y14.339 Z-1.973 I-0.044 J-0.195
X14.802 Y14.301 Z-2 I0.029 J-0.198
X15.198 Y13.774 I0.198 J-0.264 F240
X14.802 Y14.301 I-0.198 J0.264
G2 X14.198 Y14.23 I-0.364 J0.485
G3 X13.824 Y13.751 I-0.125 J-0.288
G2 X13.889 Y13.655 I-0.794 J-0.608
G1 X14.136 Y13.241
G2 X14.278 Y12.743 I-0.858 J-0.513
X14.776 Y12.884 I0.513 J-0.859
G1 X15.258 Y12.891
G2 X15.76 Y12.765 I0.015 J-1
X15.887 Y13.267 I1 J0.015
G1 X16.122 Y13.688
G2 X16.482 Y14.06 I0.873 J-0.487
X16.111 Y14.42 I0.487 J0.873
G1 X15.864 Y14.835
G2 X15.722 Y15.333 I0.858 J0.513
X15.224 Y15.191 I-0.513 J0.859
G1 X14.742 Y15.184
G2 X14.24 Y15.311 I-0.015 J1
X14.113 Y14.809 I-1 J-0.015
G1 X13.878 Y14.387
G2 X13.518 Y14.016 I-0.873 J0.487
X13.824 Y13.751 I-0.487 J-0.873
G3 X14.038 Y13.68 I0.159 J0.122
G1 X14.977 Y13.949
G3 X14.992 Y14.329 I-0.055 J0.192
G1 Z-2.7 F60
G3 X14.966 Y14.336 Z-2.8 I-0.07 J-0.187
X14.894 Y14.339 Z-2.873 I-0.044 J-0.195
X14.802 Y14.301 Z-2.9 I0.029 J-0.198
X15.198 Y13.774 I0.198 J-0.264 F240
X14.802 Y14.301 I-0.198 J0.264
G2 X14.198 Y14.23 I-0.364 J0.485
G3 X13.824 Y13.751 I-0.125 J-0.288
G2 X13.889 Y13.655 I-0.794 J-0.608
G1 X14.136 Y13.241
G2 X14.278 Y12.743 I-0.858 J-0.513
X14.776 Y12.884 I0.513 J-0.859
G1 X15.258 Y12.891
G2 X15.76 Y12.765 I0.015 J-1
X15.887 Y13.267 I1 J0.015
G1 X16.122 Y13.688
G2 X16.482 Y14.06 I0.873 J-0.487
X16.111 Y14.42 I0.487 J0.873
G1 X15.864 Y14.835
G2 X15.722 Y15.333 I0.858 J0.513
X15.224 Y15.191 I-0.513 J0.859
G1 X14.742 Y15.184
G2 X14.24 Y15.311 I-0.015 J1
X14.113 Y14.809 I-1 J-0.015
G1 X13.878 Y14.387
G2 X13.518 Y14.016 I-0.873 J0.487
X13.824 Y13.751 I-0.487 J-0.873
G3 X13.902 Y13.689 Z-2.873 I0.159 J0.122 F480
X13.973 Y13.672 Z-2.8 I0.081 J0.183
X14 Y13.673 Z-2.7 I0.01 J0.2
G0 Z5
X55.322 Y14.329
Z2
G1 Z-0.8 F60
G3 X55.296 Y14.336 Z-0.9 I-0.07 J-0.187
X55.223 Y14.339 Z-0.973 I-0.044 J-0.195
X55.132 Y14.301 Z-1 I0.029 J-0.198
X55.527 Y13.774 I0.198 J-0.264 F240
X55.132 Y14.301 I-0.198 J0.264
G2 X54.528 Y14.23 I-0.363 J0.485
G3 X54.154 Y13.751 I-0.125 J-0.288
G2 X54.219 Y13.655 I-0.794 J-0.608
G1 X54.466 Y13.241
G2 X54.607 Y12.743 I-0.858 J-0.513
X55.105 Y12.884 I0.513 J-0.859
G1 X55.588 Y12.891
G2 X56.09 Y12.765 I0.015 J-1
X56.216 Y13.267 I1 J0.015
G1 X56.452 Y13.689
G2 X56.812 Y14.06 I0.873 J-0.487
X56.441 Y14.42 I0.487 J0.873
G1 X56.193 Y14.835
G2 X56.052 Y15.333 I0.858 J0.513
X55.554 Y15.191 I-0.513 J0.859
G1 X55.071 Y15.184
G2 X54.569 Y15.311 I-0.015 J1
X54.443 Y14.809 I-1 J-0.015
G1 X54.208 Y14.387
G2 X53.847 Y14.016 I-0.873 J0.487
X54.154 Y13.751 I-0.487 J-0.873
G3 X54.368 Y13.68 I0.159 J0.122
G1 X55.307 Y13.949
G3 X55.322 Y14.329 I-0.055 J0.192
G1 Z-1.8 F60
G3 X55.296 Y14.336 Z-1.9 I-0.07 J-0.187
X55.223 Y14.339 Z-1.973 I-0.044 J-0.195
X55.132 Y14.301 Z-2 I0.029 J-0.198
X55.527 Y13.774 I0.198 J-0.264 F240
X55.132 Y14.301 I-0.198 J0.264
G2 X54.528 Y14.23 I-0.363 J0.485
G3 X54.154 Y13.751 I-0.125 J-0.288
G2 X54.219 Y13.655 I-0.794 J-0.608
G1 X54.466 Y13.241
G2 X54.607 Y12.743 I-0.858 J-0.513
X55.105 Y12.884 I0.513 J-0.859
G1 X55.588 Y12.891
G2 X56.09 Y12.765 I0.015 J-1
X56.216 Y13.267 I1 J0.015
G1 X56.452 Y13.689
G2 X56.812 Y14.06 I0.873 J-0.487
X56.441 Y14.42 I0.487 J0.873
G1 X56.193 Y14.835
G2 X56.052 Y15.333 I0.858 J0.513
X55.554 Y15.191 I-0.513 J0.859
G1 X55.071 Y15.184
G2 X54.569 Y15.311 I-0.015 J1
X54.443 Y14.809 I-1 J-0.015
G1 X54.208 Y14.387
G2 X53.847 Y14.016 I-0.873 J0.487
X54.154 Y13.751 I-0.487 J-0.873
G3 X54.368 Y13.68 I0.159 J0.122
G1 X55.307 Y13.949
G3 X55.322 Y14.329 I-0.055 J0.192
G1 Z-2.7 F60
G3 X55.296 Y14.336 Z-2.8 I-0.07 J-0.187
X55.223 Y14.339 Z-2.873 I-0.044 J-0.195
X55.132 Y14.301 Z-2.9 I0.029 J-0.198
X55.527 Y13.774 I0.198 J-0.264 F240
X55.132 Y14.301 I-0.198 J0.264
G2 X54.528 Y14.23 I-0.363 J0.485
G3 X54.154 Y13.751 I-0.125 J-0.288
G2 X54.219 Y13.655 I-0.794 J-0.608
G1 X54.466 Y13.241
G2 X54.607 Y12.743 I-0.858 J-0.513
X55.105 Y12.884 I0.513 J-0.859
G1 X55.588 Y12.891
G2 X56.09 Y12.765 I0.015 J-1
X56.216 Y13.267 I1 J0.015
G1 X56.452 Y13.689
G2 X56.812 Y14.06 I0.873 J-0.487
X56.441 Y14.42 I0.487 J0.873
G1 X56.193 Y14.835
G2 X56.052 Y15.333 I0.858 J0.513
X55.554 Y15.191 I-0.513 J0.859
G1 X55.071 Y15.184
G2 X54.569 Y15.311 I-0.015 J1
X54.443 Y14.809 I-1 J-0.015
G1 X54.208 Y14.387
G2 X53.847 Y14.016 I-0.873 J0.487
X54.154 Y13.751 I-0.487 J-0.873
G3 X54.232 Y13.689 Z-2.873 I0.159 J0.122 F480
X54.302 Y13.672 Z-2.8 I0.081 J0.183
X54.329 Y13.673 Z-2.7 I0.01 J0.2
G0 Z5
X69.732 Y5.832
Z2
G1 Z-0.8 F60
G3 X69.753 Y5.848 Z-0.9 I-0.108 J0.168
X69.799 Y5.904 Z-0.973 I-0.13 J0.152
X69.824 Y6 Z-1 I-0.176 J0.096
X69.165 I-0.329 J0 F240
X69.824 I0.329 J0
G2 X70.042 Y6.587 I0.898 J0
G3 X69.771 Y7.151 I-0.259 J0.223
G2 X69.736 Y7.15 I-0.035 J0.999
G1 X69.253
G2 X68.753 Y7.284 I0 J1
X68.619 Y6.784 I-1 J0
G1 X68.378 Y6.366
G2 X68.012 Y6 I-0.866 J0.5
X68.378 Y5.634 I-0.5 J-0.866
G1 X68.619 Y5.216
G2 X68.753 Y4.716 I-0.866 J-0.5
X69.253 Y4.85 I0.5 J-0.866
G1 X69.736
G2 X70.236 Y4.716 I0 J-1
X70.37 Y5.216 I1 J0
G1 X70.611 Y5.634
G2 X70.977 Y6 I0.866 J-0.5
X70.611 Y6.366 I0.5 J0.866
G1 X70.37 Y6.784
G2 X70.236 Y7.284 I0.866 J0.5
X69.771 Y7.151 I-0.5 J0.866
G3 X69.581 Y6.983 I0.007 J-0.2
G1 X69.426 Y6.032
G3 X69.732 Y5.832 I0.197 J-0.032
G1 Z-1.8 F60
G3 X69.753 Y5.848 Z-1.9 I-0.108 J0.168
X69.799 Y5.904 Z-1.973 I-0.13 J0.152
X69.824 Y6 Z-2 I-0.176 J0.096
X69.165 I-0.329 J0 F240
X69.824 I0.329 J0
G2 X70.042 Y6.587 I0.898 J0
G3 X69.771 Y7.151 I-0.259 J0.223
G2 X69.736 Y7.15 I-0.035 J0.999
G1 X69.253
G2 X68.753 Y7.284 I0 J1
X68.619 Y6.784 I-1 J0
G1 X68.378 Y6.366
G2 X68.012 Y6 I-0.866 J0.5
X68.378 Y5.634 I-0.5 J-0.866
G1 X68.619 Y5.216
G2 X68.753 Y4.716 I-0.866 J-0.5
X69.253 Y4.85 I0.5 J-0.866
G1 X69.736
G2 X70.236 Y4.716 I0 J-1
X70.37 Y5.216 I1 J0
G1 X70.611 Y5.634
G2 X70.977 Y6 I0.866 J-0.5
X70.611 Y6.366 I0.5 J0.866
G1 X70.37 Y6.784
G2 X70.236 Y7.284 I0.866 J0.5
X69.771 Y7.151 I-0.5 J0.866
G3 X69.581 Y6.983 I0.007 J-0.2
G1 X69.426 Y6.032
G3 X69.732 Y5.832 I0.197 J-0.032
G1 Z-2.7 F60
G3 X69.753 Y5.848 Z-2.8 I-0.108 J0.168
X69.799 Y5.904 Z-2.873 I-0.13 J0.152
X69.824 Y6 Z-2.9 I-0.176 J0.096
X69.165 I-0.329 J0 F240
X69.824 I0.329 J0
G2 X70.042 Y6.587 I0.898 J0
G3 X69.771 Y7.151 I-0.259 J0.223
G2 X69.736 Y7.15 I-0.035 J0.999
G1 X69.253
G2 X68.753 Y7.284 I0 J1
X68.619 Y6.784 I-1 J0
G1 X68.378 Y6.366
G2 X68.012 Y6 I-0.866 J0.5
X68.378 Y5.634 I-0.5 J-0.866
G1 X68.619 Y5.216
G2 X68.753 Y4.716 I-0.866 J-0.5
X69.253 Y4.85 I0.5 J-0.866
G1 X69.736
G2 X70.236 Y4.716 I0 J-1
X70.37 Y5.216 I1 J0
G1 X70.611 Y5.634
G2 X70.977 Y6 I0.866 J-0.5
X70.611 Y6.366 I0.5 J0.866
G1 X70.37 Y6.784
G2 X70.236 Y7.284 I0.866 J0.5
X69.771 Y7.151 I-0.5 J0.866
G3 X69.676 Y7.123 Z-2.873 I0.007 J-0.2 F480
X69.621 Y7.075 Z-2.8 I0.102 J-0.172
X69.606 Y7.053 Z-2.7 I0.157 J-0.124
G0 Z5
X83.897 Y13.869
Z2
G1 Z-0.8 F60
G3 X83.918 Y13.885 Z-0.9 I-0.108 J0.168
X83.964 Y13.942 Z-0.973 I-0.13 J0.152
X83.989 Y14.038 Z-1 I-0.176 J0.096
X83.33 I-0.329 J0 F240
X83.989 I0.329 J0
G2 X84.225 Y14.615 I0.821 J0
G3 X83.973 Y15.185 I-0.238 J0.235
G2 X83.918 Y15.184 I-0.041 J0.999
G1 X83.435 Y15.191
G2 X82.937 Y15.333 I0.015 J1
X82.796 Y14.835 I-1 J0.015
G1 X82.548 Y14.42
G2 X82.177 Y14.06 I-0.858 J0.513
X82.537 Y13.689 I-0.513 J-0.858
G1 X82.772 Y13.267
G2 X82.899 Y12.765 I-0.873 J-0.487
X83.401 Y12.891 I0.487 J-0.873
G1 X83.883 Y12.884
G2 X84.381 Y12.743 I-0.015 J-1
X84.523 Y13.241 I1 J-0.015
G1 X84.77 Y13.655
G2 X85.142 Y14.016 I0.858 J-0.513
X84.781 Y14.387 I0.513 J0.859
G1 X84.546 Y14.809
G2 X84.42 Y15.311 I0.873 J0.487
X83.973 Y15.185 I-0.487 J0.873
G3 X83.786 Y15.025 I0.008 J-0.2
G1 X83.593 Y14.078
G3 X83.897 Y13.869 I0.196 J-0.04
G1 Z-1.8 F60
G3 X83.918 Y13.885 Z-1.9 I-0.108 J0.168
X83.964 Y13.942 Z-1.973 I-0.13 J0.152
X83.989 Y14.038 Z-2 I-0.176 J0.096
X83.33 I-0.329 J0 F240
X83.989 I0.329 J0
G2 X84.225 Y14.615 I0.821 J0
G3 X83.973 Y15.185 I-0.238 J0.235
G2 X83.918 Y15.184 I-0.041 J0.999
G1 X83.435 Y15.191
G2 X82.937 Y15.333 I0.015 J1
X82.796 Y14.835 I-1 J0.015
G1 X82.548 Y14.42
G2 X82.177 Y14.06 I-0.858 J0.513
X82.537 Y13.689 I-0.513 J-0.858
G1 X82.772 Y13.267
G2 X82.899 Y12.765 I-0.873 J-0.487
X83.401 Y12.891 I0.487 J-0.873
G1 X83.883 Y12.884
G2 X84.381 Y12.743 I-0.015 J-1
X84.523 Y13.241 I1 J-0.015
G1 X84.77 Y13.655
G2 X85.142 Y14.016 I0.858 J-0.513
X84.781 Y14.387 I0.513 J0.859
G1 X84.546 Y14.809
G2 X84.42 Y15.311 I0.873 J0.487
X83.973 Y15.185 I-0.487 J0.873
G3 X83.786 Y15.025 I0.008 J-0.2
G1 X83.593 Y14.078
G3 X83.897 Y13.869 I0.196 J-0.04
G1 Z-2.7 F60
G3 X83.918 Y13.885 Z-2.8 I-0.108 J0.168
X83.964 Y13.942 Z-2.873 I-0.13 J0.152
X83.989 Y14.038 Z-2.9 I-0.176 J0.096
X83.33 I-0.329 J0 F240
X83.989 I0.329 J0
G2 X84.225 Y14.615 I0.821 J0
G3 X83.973 Y15.185 I-0.238 J0.235
G2 X83.918 Y15.184 I-0.041 J0.999
G1 X83.435 Y15.191
G2 X82.937 Y15.333 I0.015 J1
X82.796 Y14.835 I-1 J0.015
G1 X82.548 Y14.42
G2 X82.177 Y14.06 I-0.858 J0.513
X82.537 Y13.689 I-0.513 J-0.858
G1 X82.772 Y13.267
G2 X82.899 Y12.765 I-0.873 J-0.487
X83.401 Y12.891 I0.487 J-0.873
G1 X83.883 Y12.884
G2 X84.381 Y12.743 I-0.015 J-1
X84.523 Y13.241 I1 J-0.015
G1 X84.77 Y13.655
G2 X85.142 Y14.016 I0.858 J-0.513
X84.781 Y14.387 I0.513 J0.859
G1 X84.546 Y14.809
G2 X84.42 Y15.311 I0.873 J0.487
X83.973 Y15.185 I-0.487 J0.873
G3 X83.879 Y15.156 Z-2.873 I0.008 J-0.2 F480
X83.824 Y15.108 Z-2.8 I0.103 J-0.171
X83.809 Y15.086 Z-2.7 I0.158 J-0.123
G0 Z5
X63.567 Y18.794
Z2
G1 Z-0.8 F60
G3 X63.589 Y18.81 Z-0.9 I-0.108 J0.168
X63.635 Y18.866 Z-0.973 I-0.13 J0.152
X63.659 Y18.962 Z-1 I-0.176 J0.096
X63 I-0.329 J0 F240
X63.659 I0.329 J0
G2 X63.944 Y19.537 I0.723 J0
G3 X63.692 Y20.127 I-0.201 J0.263
G2 X63.554 Y20.116 I-0.154 J0.988
G1 X63.071 Y20.109
G2 X62.569 Y20.235 I-0.015 J1
X62.443 Y19.733 I-1 J-0.015
G1 X62.208 Y19.312
G2 X61.847 Y18.94 I-0.873 J0.487
X62.219 Y18.58 I-0.487 J-0.873
G1 X62.466 Y18.165
G2 X62.607 Y17.667 I-0.858 J-0.513
X63.105 Y17.809 I0.513 J-0.859
G1 X63.588 Y17.816
G2 X64.09 Y17.689 I0.015 J-1
X64.216 Y18.191 I1 J0.015
G1 X64.452 Y18.613
G2 X64.812 Y18.984 I0.873 J-0.487
X64.441 Y19.345 I0.487 J0.873
G1 X64.193 Y19.759
G2 X64.052 Y20.257 I0.858 J0.513
X63.692 Y20.127 I-0.513 J0.859
G3 X63.53 Y19.982 I0.031 J-0.198
G1 X63.266 Y19.015
G3 X63.567 Y18.794 I0.193 J-0.053
G1 Z-1.8 F60
G3 X63.589 Y18.81 Z-1.9 I-0.108 J0.168
X63.635 Y18.866 Z-1.973 I-0.13 J0.152
X63.659 Y18.962 Z-2 I-0.176 J0.096
X63 I-0.329 J0 F240
X63.659 I0.329 J0
G2 X63.944 Y19.537 I0.723 J0
G3 X63.692 Y20.127 I-0.201 J0.263
G2 X63.554 Y20.116 I-0.154 J0.988
G1 X63.071 Y20.109
G2 X62.569 Y20.235 I-0.015 J1
X62.443 Y19.733 I-1 J-0.015
G1 X62.208 Y19.312
G2 X61.847 Y18.94 I-0.873 J0.487
X62.219 Y18.58 I-0.487 J-0.873
G1 X62.466 Y18.165
G2 X62.607 Y17.667 I-0.858 J-0.513
X63.105 Y17.809 I0.513 J-0.859
G1 X63.588 Y17.816
G2 X64.09 Y17.689 I0.015 J-1
X64.216 Y18.191 I1 J0.015
G1 X64.452 Y18.613
G2 X64.812 Y18.984 I0.873 J-0.487
X64.441 Y19.345 I0.487 J0.873
G1 X64.193 Y19.759
G2 X64.052 Y20.257 I0.858 J0.513
X63.692 Y20.127 I-0.513 J0.859
G3 X63.53 Y19.982 I0.031 J-0.198
G1 X63.266 Y19.015
G3 X63.567 Y18.794 I0.193 J-0.053
G1 Z-2.7 F60
G3 X63.589 Y18.81 Z-2.8 I-0.108 J0.168
X63.635 Y18.866 Z-2.873 I-0.13 J0.152
X63.659 Y18.962 Z-2.9 I-0.176 J0.096
X63 I-0.329 J0 F240
X63.659 I0.329 J0
G2 X63.944 Y19.537 I0.723 J0
G3 X63.692 Y20.127 I-0.201 J0.263
G2 X63.554 Y20.116 I-0.154 J0.988
G1 X63.071 Y20.109
G2 X62.569 Y20.235 I-0.015 J1
X62.443 Y19.733 I-1 J-0.015
G1 X62.208 Y19.312
G2 X61.847 Y18.94 I-0.873 J0.487
X62.219 Y18.58 I-0.487 J-0.873
G1 X62.466 Y18.165
G2 X62.607 Y17.667 I-0.858 J-0.513
X63.105 Y17.809 I0.513 J-0.859
G1 X63.588 Y17.816
G2 X64.09 Y17.689 I0.015 J-1
X64.216 Y18.191 I1 J0.015
G1 X64.452 Y18.613
G2 X64.812 Y18.984 I0.873 J-0.487
X64.441 Y19.345 I0.487 J0.873
G1 X64.193 Y19.759
G2 X64.052 Y20.257 I0.858 J0.513
X63.692 Y20.127 I-0.513 J0.859
G3 X63.601 Y20.089 Z-2.873 I0.031 J-0.198 F480
X63.553 Y20.034 Z-2.8 I0.122 J-0.159
X63.54 Y20.011 Z-2.7 I0.17 J-0.105
G0 Z5
X35.238 Y32.794
Z2
G1 Z-0.8 F60
G3 X35.259 Y32.81 Z-0.9 I-0.108 J0.168
X35.305 Y32.866 Z-0.973 I-0.13 J0.152
X35.33 Y32.962 Z-1 I-0.176 J0.096
X34.67 I-0.33 J0 F240
X35.33 I0.33 J0
G2 X35.566 Y33.539 I0.82 J0
G3 X35.314 Y34.109 I-0.238 J0.236
G2 X35.258 I-0.041 J0.999
G1 X34.776 Y34.116
G2 X34.278 Y34.257 I0.015 J1
X34.136 Y33.759 I-1 J0.015
G1 X33.889 Y33.345
G2 X33.518 Y32.984 I-0.858 J0.513
X33.878 Y32.613 I-0.513 J-0.858
G1 X34.113 Y32.191
G2 X34.24 Y31.689 I-0.873 J-0.487
X34.742 Y31.816 I0.487 J-0.873
G1 X35.224 Y31.809
G2 X35.722 Y31.667 I-0.015 J-1
X35.864 Y32.165 I1 J-0.015
G1 X36.111 Y32.58
G2 X36.482 Y32.94 I0.858 J-0.513
X36.122 Y33.312 I0.513 J0.858
G1 X35.887 Y33.733
G2 X35.76 Y34.235 I0.873 J0.487
X35.314 Y34.109 I-0.487 J0.873
G3 X35.127 Y33.949 I0.008 J-0.2
G1 X34.934 Y33.002
G3 X35.238 Y32.794 I0.196 J-0.04
G1 Z-1.8 F60
G3 X35.259 Y32.81 Z-1.9 I-0.108 J0.168
X35.305 Y32.866 Z-1.973 I-0.13 J0.152
X35.33 Y32.962 Z-2 I-0.176 J0.096
X34.67 I-0.33 J0 F240
X35.33 I0.33 J0
G2 X35.566 Y33.539 I0.82 J0
G3 X35.314 Y34.109 I-0.238 J0.236
G2 X35.258 I-0.041 J0.999
G1 X34.776 Y34.116
G2 X34.278 Y34.257 I0.015 J1
X34.136 Y33.759 I-1 J0.015
G1 X33.889 Y33.345
G2 X33.518 Y32.984 I-0.858 J0.513
X33.878 Y32.613 I-0.513 J-0.858
G1 X34.113 Y32.191
G2 X34.24 Y31.689 I-0.873 J-0.487
X34.742 Y31.816 I0.487 J-0.873
G1 X35.224 Y31.809
G2 X35.722 Y31.667 I-0.015 J-1
X35.864 Y32.165 I1 J-0.015
G1 X36.111 Y32.58
G2 X36.482 Y32.94 I0.858 J-0.513
X36.122 Y33.312 I0.513 J0.858
G1 X35.887 Y33.733
G2 X35.76 Y34.235 I0.873 J0.487
X35.314 Y34.109 I-0.487 J0.873
G3 X35.127 Y33.949 I0.008 J-0.2
G1 X34.934 Y33.002
G3 X35.238 Y32.794 I0.196 J-0.04
G1 Z-2.7 F60
G3 X35.259 Y32.81 Z-2.8 I-0.108 J0.168
X35.305 Y32.866 Z-2.873 I-0.13 J0.152
X35.33 Y32.962 Z-2.9 I-0.176 J0.096
X34.67 I-0.33 J0 F240
X35.33 I0.33 J0
G2 X35.566 Y33.539 I0.82 J0
G3 X35.314 Y34.109 I-0.238 J0.236
G2 X35.258 I-0.041 J0.999
G1 X34.776 Y34.116
G2 X34.278 Y34.257 I0.015 J1
X34.136 Y33.759 I-1 J0.015
G1 X33.889 Y33.345
G2 X33.518 Y32.984 I-0.858 J0.513
X33.878 Y32.613 I-0.513 J-0.858
G1 X34.113 Y32.191
G2 X34.24 Y31.689 I-0.873 J-0.487
X34.742 Y31.816 I0.487 J-0.873
G1 X35.224 Y31.809
G2 X35.722 Y31.667 I-0.015 J-1
X35.864 Y32.165 I1 J-0.015
G1 X36.111 Y32.58
G2 X36.482 Y32.94 I0.858 J-0.513
X36.122 Y33.312 I0.513 J0.858
G1 X35.887 Y33.733
G2 X35.76 Y34.235 I0.873 J0.487
X35.314 Y34.109 I-0.487 J0.873
G3 X35.22 Y34.081 Z-2.873 I0.008 J-0.2 F480
X35.165 Y34.033 Z-2.8 I0.103 J-0.171
X35.15 Y34.01 Z-2.7 I0.158 J-0.123
G0 Z5
X49.402 Y26.832
Z2
G1 Z-0.8 F60
G3 X49.424 Y26.848 Z-0.9 I-0.108 J0.168
X49.47 Y26.904 Z-0.973 I-0.13 J0.152
X49.494 Y27 Z-1 I-0.176 J0.096
X48.835 I-0.329 J0 F240
X49.494 I0.329 J0
G2 X49.712 Y27.587 I0.898 J0
G3 X49.442 Y28.151 I-0.259 J0.223
G2 X49.406 Y28.15 I-0.036 J0.999
G1 X48.924
G2 X48.424 Y28.284 I0 J1
X48.29 Y27.784 I-1 J0
G1 X48.048 Y27.366
G2 X47.682 Y27 I-0.866 J0.5
X48.048 Y26.634 I-0.5 J-0.866
G1 X48.29 Y26.216
G2 X48.424 Y25.716 I-0.866 J-0.5
X48.924 Y25.85 I0.5 J-0.866
G1 X49.406
G2 X49.906 Y25.716 I0 J-1
X50.04 Y26.216 I1 J0
G1 X50.281 Y26.634
G2 X50.647 Y27 I0.866 J-0.5
X50.281 Y27.366 I0.5 J0.866
G1 X50.04 Y27.784
G2 X49.906 Y28.284 I0.866 J0.5
X49.442 Y28.151 I-0.5 J0.866
G3 X49.251 Y27.983 I0.007 J-0.2
G1 X49.097 Y27.032
G3 X49.402 Y26.832 I0.197 J-0.032
G1 Z-1.8 F60
G3 X49.424 Y26.848 Z-1.9 I-0.108 J0.168
X49.47 Y26.904 Z-1.973 I-0.13 J0.152
X49.494 Y27 Z-2 I-0.176 J0.096
X48.835 I-0.329 J0 F240
X49.494 I0.329 J0
G2 X49.712 Y27.587 I0.898 J0
G3 X49.442 Y28.151 I-0.259 J0.223
G2 X49.406 Y28.15 I-0.036 J0.999
G1 X48.924
G2 X48.424 Y28.284 I0 J1
X48.29 Y27.784 I-1 J0
G1 X48.048 Y27.366
G2 X47.682 Y27 I-0.866 J0.5
X48.048 Y26.634 I-0.5 J-0.866
G1 X48.29 Y26.216
G2 X48.424 Y25.716 I-0.866 J-0.5
X48.924 Y25.85 I0.5 J-0.866
G1 X49.406
G2 X49.906 Y25.716 I0 J-1
X50.04 Y26.216 I1 J0
G1 X50.281 Y26.634
G2 X50.647 Y27 I0.866 J-0.5
X50.281 Y27.366 I0.5 J0.866
G1 X50.04 Y27.784
G2 X49.906 Y28.284 I0.866 J0.5
X49.442 Y28.151 I-0.5 J0.866
G3 X49.251 Y27.983 I0.007 J-0.2
G1 X49.097 Y27.032
G3 X49.402 Y26.832 I0.197 J-0.032
G1 Z-2.7 F60
G3 X49.424 Y26.848 Z-2.8 I-0.108 J0.168
X49.47 Y26.904 Z-2.873 I-0.13 J0.152
X49.494 Y27 Z-2.9 I-0.176 J0.096
X48.835 I-0.329 J0 F240
X49.494 I0.329 J0
G2 X49.712 Y27.587 I0.898 J0
G3 X49.442 Y28.151 I-0.259 J0.223
G2 X49.406 Y28.15 I-0.036 J0.999
G1 X48.924
G2 X48.424 Y28.284 I0 J1
X48.29 Y27.784 I-1 J0
G1 X48.048 Y27.366
G2 X47.682 Y27 I-0.866 J0.5
X48.048 Y26.634 I-0.5 J-0.866
G1 X48.29 Y26.216
G2 X48.424 Y25.716 I-0.866 J-0.5
X48.924 Y25.85 I0.5 J-0.866
G1 X49.406
G2 X49.906 Y25.716 I0 J-1
X50.04 Y26.216 I1 J0
G1 X50.281 Y26.634
G2 X50.647 Y27 I0.866 J-0.5
X50.281 Y27.366 I0.5 J0.866
G1 X50.04 Y27.784
G2 X49.906 Y28.284 I0.866 J0.5
X49.442 Y28.151 I-0.5 J0.866
G3 X49.347 Y28.123 Z-2.873 I0.007 J-0.2 F480
X49.292 Y28.075 Z-2.8 I0.102 J-0.172
X49.277 Y28.053 Z-2.7 I0.157 J-0.124
G0 Z5
X35.238 Y18.794
Z2
G1 Z-0.8 F60
G3 X35.259 Y18.81 Z-0.9 I-0.108 J0.168
X35.305 Y18.866 Z-0.973 I-0.13 J0.152
X35.33 Y18.962 Z-1 I-0.176 J0.096
X34.67 I-0.33 J0 F240
X35.33 I0.33 J0
G2 X35.566 Y19.539 I0.82 J0
G3 X35.314 Y20.109 I-0.238 J0.236
G2 X35.258 I-0.041 J0.999
G1 X34.776 Y20.116
G2 X34.278 Y20.257 I0.015 J1
X34.136 Y19.759 I-1 J0.015
G1 X33.889 Y19.345
G2 X33.518 Y18.984 I-0.858 J0.513
X33.878 Y18.613 I-0.513 J-0.858
G1 X34.113 Y18.191
G2 X34.24 Y17.689 I-0.873 J-0.487
X34.742 Y17.816 I0.487 J-0.873
G1 X35.224 Y17.809
G2 X35.722 Y17.667 I-0.015 J-1
X35.864 Y18.165 I1 J-0.015
G1 X36.111 Y18.58
G2 X36.482 Y18.94 I0.858 J-0.513
X36.122 Y19.312 I0.513 J0.858
G1 X35.887 Y19.733
G2 X35.76 Y20.235 I0.873 J0.487
X35.314 Y20.109 I-0.487 J0.873
G3 X35.127 Y19.949 I0.008 J-0.2
G1 X34.934 Y19.002
G3 X35.238 Y18.794 I0.196 J-0.04
G1 Z-1.8 F60
G3 X35.259 Y18.81 Z-1.9 I-0.108 J0.168
X35.305 Y18.866 Z-1.973 I-0.13 J0.152
X35.33 Y18.962 Z-2 I-0.176 J0.096
X34.67 I-0.33 J0 F240
X35.33 I0.33 J0
G2 X35.566 Y19.539 I0.82 J0
G3 X35.314 Y20.109 I-0.238 J0.236
G2 X35.258 I-0.041 J0.999
G1 X34.776 Y20.116
G2 X34.278 Y20.257 I0.015 J1
X34.136 Y19.759 I-1 J0.015
G1 X33.889 Y19.345
G2 X33.518 Y18.984 I-0.858 J0.513
X33.878 Y18.613 I-0.513 J-0.858
G1 X34.113 Y18.191
G2 X34.24 Y17.689 I-0.873 J-0.487
X34.742 Y17.816 I0.487 J-0.873
G1 X35.224 Y17.809
G2 X35.722 Y17.667 I-0.015 J-1
X35.864 Y18.165 I1 J-0.015
G1 X36.111 Y18.58
G2 X36.482 Y18.94 I0.858 J-0.513
X36.122 Y19.312 I0.513 J0.858
G1 X35.887 Y19.733
G2 X35.76 Y20.235 I0.873 J0.487
X35.314 Y20.109 I-0.487 J0.873
G3 X35.127 Y19.949 I0.008 J-0.2
G1 X34.934 Y19.002
G3 X35.238 Y18.794 I0.196 J-0.04
G1 Z-2.7 F60
G3 X35.259 Y18.81 Z-2.8 I-0.108 J0.168
X35.305 Y18.866 Z-2.873 I-0.13 J0.152
X35.33 Y18.962 Z-2.9 I-0.176 J0.096
X34.67 I-0.33 J0 F240
X35.33 I0.33 J0
G2 X35.566 Y19.539 I0.82 J0
G3 X35.314 Y20.109 I-0.238 J0.236
G2 X35.258 I-0.041 J0.999
G1 X34.776 Y20.116
G2 X34.278 Y20.257 I0.015 J1
X34.136 Y19.759 I-1 J0.015
G1 X33.889 Y19.345
G2 X33.518 Y18.984 I-0.858 J0.513
X33.878 Y18.613 I-0.513 J-0.858
G1 X34.113 Y18.191
G2 X34.24 Y17.689 I-0.873 J-0.487
X34.742 Y17.816 I0.487 J-0.873
G1 X35.224 Y17.809
G2 X35.722 Y17.667 I-0.015 J-1
X35.864 Y18.165 I1 J-0.015
G1 X36.111 Y18.58
G2 X36.482 Y18.94 I0.858 J-0.513
X36.122 Y19.312 I0.513 J0.858
G1 X35.887 Y19.733
G2 X35.76 Y20.235 I0.873 J0.487
X35.314 Y20.109 I-0.487 J0.873
G3 X35.22 Y20.081 Z-2.873 I0.008 J-0.2 F480
X35.165 Y20.033 Z-2.8 I0.103 J-0.171
X35.15 Y20.01 Z-2.7 I0.158 J-0.123
G0 Z5
X49.157 Y41.291
Z2
G1 Z-0.8 F60
G3 X49.131 Y41.299 Z-0.9 I-0.07 J-0.187
X49.058 Y41.302 Z-0.973 I-0.044 J-0.195
X48.967 Y41.264 Z-1 I0.029 J-0.198
X49.362 Y40.736 I0.198 J-0.264 F240
X48.967 Y41.264 I-0.198 J0.264
G2 X48.365 Y41.202 I-0.352 J0.47
G3 X47.983 Y40.733 I-0.132 J-0.282
G2 X48.048 Y40.634 I-0.801 J-0.599
G1 X48.29 Y40.216
G2 X48.424 Y39.716 I-0.866 J-0.5
X48.924 Y39.85 I0.5 J-0.866
G1 X49.406
G2 X49.906 Y39.716 I0 J-1
X50.04 Y40.216 I1 J0
G1 X50.281 Y40.634
G2 X50.647 Y41 I0.866 J-0.5
X50.281 Y41.366 I0.5 J0.866
G1 X50.04 Y41.784
G2 X49.906 Y42.284 I0.866 J0.5
X49.406 Y42.15 I-0.5 J0.866
G1 X48.924
G2 X48.424 Y42.284 I0 J1
X48.29 Y41.784 I-1 J0
G1 X48.048 Y41.366
G2 X47.682 Y41 I-0.866 J0.5
X47.983 Y40.733 I-0.5 J-0.866
G3 X48.195 Y40.659 I0.16 J0.12
G1 X49.139 Y40.91
G3 X49.157 Y41.291 I-0.051 J0.193
G1 Z-1.8 F60
G3 X49.131 Y41.299 Z-1.9 I-0.07 J-0.187
X49.058 Y41.302 Z-1.973 I-0.044 J-0.195
X48.967 Y41.264 Z-2 I0.029 J-0.198
X49.362 Y40.736 I0.198 J-0.264 F240
X48.967 Y41.264 I-0.198 J0.264
G2 X48.365 Y41.202 I-0.352 J0.47
G3 X47.983 Y40.733 I-0.132 J-0.282
G2 X48.048 Y40.634 I-0.801 J-0.599
G1 X48.29 Y40.216
G2 X48.424 Y39.716 I-0.866 J-0.5
X48.924 Y39.85 I0.5 J-0.866
G1 X49.406
G2 X49.906 Y39.716 I0 J-1
X50.04 Y40.216 I1 J0
G1 X50.281 Y40.634
G2 X50.647 Y41 I0.866 J-0.5
X50.281 Y41.366 I0.5 J0.866
G1 X50.04 Y41.784
G2 X49.906 Y42.284 I0.866 J0.5
X49.406 Y42.15 I-0.5 J0.866
G1 X48.924
G2 X48.424 Y42.284 I0 J1
X48.29 Y41.784 I-1 J0
G1 X48.048 Y41.366
G2 X47.682 Y41 I-0.866 J0.5
X47.983 Y40.733 I-0.5 J-0.866
G3 X48.195 Y40.659 I0.16 J0.12
G1 X49.139 Y40.91
G3 X49.157 Y41.291 I-0.051 J0.193
G1 Z-2.7 F60
G3 X49.131 Y41.299 Z-2.8 I-0.07 J-0.187
X49.058 Y41.302 Z-2.873 I-0.044 J-0.195
X48.967 Y41.264 Z-2.9 I0.029 J-0.198
X49.362 Y40.736 I0.198 J-0.264 F240
X48.967 Y41.264 I-0.198 J0.264
G2 X48.365 Y41.202 I-0.352 J0.47
G3 X47.983 Y40.733 I-0.132 J-0.282
G2 X48.048 Y40.634 I-0.801 J-0.599
G1 X48.29 Y40.216
G2 X48.424 Y39.716 I-0.866 J-0.5
X48.924 Y39.85 I0.5 J-0.866
G1 X49.406
G2 X49.906 Y39.716 I0 J-1
X50.04 Y40.216 I1 J0
G1 X50.281 Y40.634
G2 X50.647 Y41 I0.866 J-0.5
X50.281 Y41.366 I0.5 J0.866
G1 X50.04 Y41.784
G2 X49.906 Y42.284 I0.866 J0.5
X49.406 Y42.15 I-0.5 J0.866
G1 X48.924
G2 X48.424 Y42.284 I0 J1
X48.29 Y41.784 I-1 J0
G1 X48.048 Y41.366
G2 X47.682 Y41 I-0.866 J0.5
X47.983 Y40.733 I-0.5 J-0.866
G3 X48.06 Y40.67 Z-2.873 I0.16 J0.12 F480
X48.131 Y40.653 Z-2.8 I0.083 J0.182
X48.158 Z-2.7 I0.013 J0.2
G0 Z5
X63.567 Y32.794
Z2
G1 Z-0.8 F60
G3 X63.589 Y32.81 Z-0.9 I-0.108 J0.168
X63.635 Y32.866 Z-0.973 I-0.13 J0.152
X63.659 Y32.962 Z-1 I-0.176 J0.096
X63 I-0.329 J0 F240
X63.659 I0.329 J0
G2 X63.944 Y33.537 I0.723 J0
G3 X63.692 Y34.127 I-0.201 J0.263
G2 X63.554 Y34.116 I-0.153 J0.988
G1 X63.071 Y34.109
G2 X62.569 Y34.235 I-0.015 J1
X62.443 Y33.733 I-1 J-0.015
G1 X62.208 Y33.312
G2 X61.847 Y32.94 I-0.873 J0.487
X62.219 Y32.58 I-0.487 J-0.873
G1 X62.466 Y32.165
G2 X62.607 Y31.667 I-0.858 J-0.513
X63.105 Y31.809 I0.513 J-0.859
G1 X63.588 Y31.816
G2 X64.09 Y31.689 I0.015 J-1
X64.216 Y32.191 I1 J0.015
G1 X64.452 Y32.613
G2 X64.812 Y32.984 I0.873 J-0.487
X64.441 Y33.345 I0.487 J0.873
G1 X64.193 Y33.759
G2 X64.052 Y34.257 I0.858 J0.513
X63.692 Y34.127 I-0.513 J0.859
G3 X63.53 Y33.982 I0.031 J-0.198
G1 X63.266 Y33.015
G3 X63.567 Y32.794 I0.193 J-0.053
G1 Z-1.8 F60
G3 X63.589 Y32.81 Z-1.9 I-0.108 J0.168
X63.635 Y32.866 Z-1.973 I-0.13 J0.152
X63.659 Y32.962 Z-2 I-0.176 J0.096
X63 I-0.329 J0 F240
X63.659 I0.329 J0
G2 X63.944 Y33.537 I0.723 J0
G3 X63.692 Y34.127 I-0.201 J0.263
G2 X63.554 Y34.116 I-0.153 J0.988
G1 X63.071 Y34.109
G2 X62.569 Y34.235 I-0.015 J1
X62.443 Y33.733 I-1 J-0.015
G1 X62.208 Y33.312
G2 X61.847 Y32.94 I-0.873 J0.487
X62.219 Y32.58 I-0.487 J-0.873
G1 X62.466 Y32.165
G2 X62.607 Y31.667 I-0.858 J-0.513
X63.105 Y31.809 I0.513 J-0.859
G1 X63.588 Y31.816
G2 X64.09 Y31.689 I0.015 J-1
X64.216 Y32.191 I1 J0.015
G1 X64.452 Y32.613
G2 X64.812 Y32.984 I0.873 J-0.487
X64.441 Y33.345 I0.487 J0.873
G1 X64.193 Y33.759
G2 X64.052 Y34.257 I0.858 J0.513
X63.692 Y34.127 I-0.513 J0.859
G3 X63.53 Y33.982 I0.031 J-0.198
G1 X63.266 Y33.015
G3 X63.567 Y32.794 I0.193 J-0.053
G1 Z-2.7 F60
G3 X63.589 Y32.81 Z-2.8 I-0.108 J0.168
X63.635 Y32.866 Z-2.873 I-0.13 J0.152
X63.659 Y32.962 Z-2.9 I-0.176 J0.096
X63 I-0.329 J0 F240
X63.659 I0.329 J0
G2 X63.944 Y33.537 I0.723 J0
G3 X63.692 Y34.127 I-0.201 J0.263
G2 X63.554 Y34.116 I-0.153 J0.988
G1 X63.071 Y34.109
G2 X62.569 Y34.235 I-0.015 J1
X62.443 Y33.733 I-1 J-0.015
G1 X62.208 Y33.312
G2 X61.847 Y32.94 I-0.873 J0.487
X62.219 Y32.58 I-0.487 J-0.873
G1 X62.466 Y32.165
G2 X62.607 Y31.667 I-0.858 J-0.513
X63.105 Y31.809 I0.513 J-0.859
G1 X63.588 Y31.816
G2 X64.09 Y31.689 I0.015 J-1
X64.216 Y32.191 I1 J0.015
G1 X64.452 Y32.613
G2 X64.812 Y32.984 I0.873 J-0.487
X64.441 Y33.345 I0.487 J0.873
G1 X64.193 Y33.759
G2 X64.052 Y34.257 I0.858 J0.513
X63.692 Y34.127 I-0.513 J0.859
G3 X63.601 Y34.089 Z-2.873 I0.031 J-0.198 F480
X63.552 Y34.034 Z-2.8 I0.122 J-0.159
X63.54 Y34.011 Z-2.7 I0.17 J-0.105
G0 Z15

(SCREW HOLES)
M8
G0 X42.993 Y13.939
Z15
Z2
G1 Z-0.9 F60
Z-3.7
G3 X42.989 Y13.913 Z-3.8 I0.195 J-0.043
X42.996 Y13.84 Z-3.873 I0.199 J-0.016
X43.047 Y13.755 Z-3.9 I0.192 J0.056
X43.612 Y14.321 I0.283 J0.283 F240
X43.047 Y13.755 I-0.283 J-0.283
X43.127 Y13.802 I0.034 J0.034
G1 X43.086 Y13.942
G3 X42.993 Y13.939 I-0.046 J-0.013
G1 Z-4.38 F60
G3 X42.989 Y13.913 Z-4.48 I0.195 J-0.043
X42.996 Y13.84 Z-4.553 I0.199 J-0.016
X43.047 Y13.755 Z-4.58 I0.192 J0.056
X43.612 Y14.321 I0.283 J0.283 F240
X43.047 Y13.755 I-0.283 J-0.283
X43.132 Y13.704 Z-4.553 I0.141 J0.141 F480
X43.204 Y13.697 Z-4.48 I0.056 J0.192
X43.231 Y13.701 Z-4.38 I-0.016 J0.199
G0 Z5
X28.828 Y5.901
Z2
G1 Z-0.9 F60
Z-3.7
G3 X28.824 Y5.875 Z-3.8 I0.195 J-0.043
X28.831 Y5.802 Z-3.873 I0.199 J-0.016
X28.882 Y5.717 Z-3.9 I0.192 J0.056
X29.448 Y6.283 I0.283 J0.283 F240
X28.882 Y5.717 I-0.283 J-0.283
X28.962 Y5.765 I0.034 J0.034
G1 X28.921 Y5.904
G3 X28.828 Y5.901 I-0.046 J-0.013
G1 Z-4.38 F60
G3 X28.824 Y5.875 Z-4.48 I0.195 J-0.043
X28.831 Y5.802 Z-4.553 I0.199 J-0.016
X28.882 Y5.717 Z-4.58 I0.192 J0.056
X29.448 Y6.283 I0.283 J0.283 F240
X28.882 Y5.717 I-0.283 J-0.283
X28.967 Y5.667 Z-4.553 I0.141 J0.141 F480
X29.039 Y5.659 Z-4.48 I0.056 J0.192
X29.066 Y5.663 Z-4.38 I-0.016 J0.199
G0 Z5
X14.663 Y13.939
Z2
G1 Z-0.9 F60
Z-3.7
G3 X14.659 Y13.913 Z-3.8 I0.195 J-0.043
X14.667 Y13.84 Z-3.873 I0.199 J-0.016
X14.717 Y13.755 Z-3.9 I0.192 J0.056
X15.283 Y14.321 I0.283 J0.283 F240
X14.717 Y13.755 I-0.283 J-0.283
X14.797 Y13.802 I0.034 J0.034
G1 X14.756 Y13.942
G3 X14.663 Y13.939 I-0.046 J-0.013
G1 Z-4.38 F60
G3 X14.659 Y13.913 Z-4.48 I0.195 J-0.043
X14.667 Y13.84 Z-4.553 I0.199 J-0.016
X14.717 Y13.755 Z-4.58 I0.192 J0.056
X15.283 Y14.321 I0.283 J0.283 F240
X14.717 Y13.755 I-0.283 J-0.283
X14.802 Y13.705 Z-4.553 I0.141 J0.141 F480
X14.875 Y13.697 Z-4.48 I0.056 J0.192
X14.901 Y13.701 Z-4.38 I-0.016 J0.199
G0 Z5
X54.993 Y13.939
Z2
G1 Z-0.9 F60
Z-3.7
G3 X54.989 Y13.913 Z-3.8 I0.195 J-0.043
X54.996 Y13.84 Z-3.873 I0.199 J-0.016
X55.047 Y13.755 Z-3.9 I0.192 J0.056
X55.612 Y14.321 I0.283 J0.283 F240
X55.047 Y13.755 I-0.283 J-0.283
X55.127 Y13.802 I0.034 J0.034
G1 X55.086 Y13.942
G3 X54.993 Y13.939 I-0.046 J-0.013
G1 Z-4.38 F60
G3 X54.989 Y13.913 Z-4.48 I0.195 J-0.043
X54.996 Y13.84 Z-4.553 I0.199 J-0.016
X55.047 Y13.755 Z-4.58 I0.192 J0.056
X55.612 Y14.321 I0.283 J0.283 F240
X55.047 Y13.755 I-0.283 J-0.283
X55.132 Y13.704 Z-4.553 I0.141 J0.141 F480
X55.204 Y13.697 Z-4.48 I0.056 J0.192
X55.231 Y13.701 Z-4.38 I-0.016 J0.199
G0 Z5
X69.617 Y6.329
Z2
G1 Z-0.9 F60
Z-3.7
G3 X69.599 Y6.348 Z-3.8 I-0.151 J-0.131
X69.536 Y6.385 Z-3.873 I-0.132 J-0.15
X69.438 Y6.396 Z-3.9 I-0.07 J-0.187
X69.551 Y5.604 I0.057 J-0.396 F240
X69.438 Y6.396 I-0.057 J0.396
X69.428 Y6.304 I0.007 J-0.047
G1 X69.564 Y6.253
G3 X69.617 Y6.329 I0.017 J0.045
G1 Z-4.38 F60
G3 X69.599 Y6.348 Z-4.48 I-0.151 J-0.131
X69.536 Y6.385 Z-4.553 I-0.132 J-0.15
X69.438 Y6.396 Z-4.58 I-0.07 J-0.187
X69.551 Y5.604 I0.057 J-0.396 F240
X69.438 Y6.396 I-0.057 J0.396
X69.346 Y6.358 Z-4.553 I0.028 J-0.198 F480
X69.297 Y6.305 Z-4.48 I0.12 J-0.16
X69.284 Y6.281 Z-4.38 I0.169 J-0.107
G0 Z5
X83.322 Y13.939
Z2
G1 Z-0.9 F60
Z-3.7
G3 X83.318 Y13.913 Z-3.8 I0.195 J-0.043
X83.326 Y13.84 Z-3.873 I0.199 J-0.016
X83.376 Y13.755 Z-3.9 I0.192 J0.056
X83.942 Y14.321 I0.283 J0.283 F240
X83.376 Y13.755 I-0.283 J-0.283
X83.456 Y13.802 I0.034 J0.034
G1 X83.415 Y13.942
G3 X83.322 Y13.939 I-0.046 J-0.013
G1 Z-4.38 F60
G3 X83.318 Y13.913 Z-4.48 I0.195 J-0.043
X83.326 Y13.84 Z-4.553 I0.199 J-0.016
X83.376 Y13.755 Z-4.58 I0.192 J0.056
X83.942 Y14.321 I0.283 J0.283 F240
X83.376 Y13.755 I-0.283 J-0.283
X83.461 Y13.705 Z-4.553 I0.141 J0.141 F480
X83.534 Y13.697 Z-4.48 I0.056 J0.192
X83.56 Y13.701 Z-4.38 I-0.016 J0.199
G0 Z5
X63.049 Y19.172
Z2
G1 Z-0.9 F60
Z-3.7
G3 X63.025 Y19.16 Z-3.8 I0.083 J-0.182
X62.971 Y19.11 Z-3.873 I0.107 J-0.169
X62.934 Y19.019 Z-3.9 I0.16 J-0.12
X63.726 Y18.906 I0.396 J-0.057 F240
X62.934 Y19.019 I-0.396 J0.057
X63.02 Y18.983 I0.047 J-0.007
G1 X63.107 Y19.1
G3 X63.049 Y19.172 I-0.038 J0.029
G1 Z-4.38 F60
G3 X63.025 Y19.16 Z-4.48 I0.083 J-0.182
X62.971 Y19.11 Z-4.553 I0.107 J-0.169
X62.934 Y19.019 Z-4.58 I0.16 J-0.12
X63.726 Y18.906 I0.396 J-0.057 F240
X62.934 Y19.019 I-0.396 J0.057
X62.944 Y18.92 Z-4.553 I0.198 J-0.028 F480
X62.982 Y18.858 Z-4.48 I0.187 J0.07
X63.001 Y18.839 Z-4.38 I0.15 J0.132
G0 Z5
X49.502 Y27.099
Z2
G1 Z-0.9 F60
Z-3.7
G3 X49.506 Y27.125 Z-3.8 I-0.195 J0.043
X49.498 Y27.198 Z-3.873 I-0.199 J0.016
X49.448 Y27.283 Z-3.9 I-0.192 J-0.056
X48.882 Y26.717 I-0.283 J-0.283 F240
X49.448 Y27.283 I0.283 J0.283
X49.368 Y27.235 I-0.034 J-0.034
G1 X49.409 Y27.095
G3 X49.502 Y27.099 I0.046 J0.013
G1 Z-4.38 F60
G3 X49.506 Y27.125 Z-4.48 I-0.195 J0.043
X49.498 Y27.198 Z-4.553 I-0.199 J0.016
X49.448 Y27.283 Z-4.58 I-0.192 J-0.056
X48.882 Y26.717 I-0.283 J-0.283 F240
X49.448 Y27.283 I0.283 J0.283
X49.362 Y27.333 Z-4.553 I-0.141 J-0.141 F480
X49.29 Y27.341 Z-4.48 I-0.056 J-0.192
X49.264 Y27.337 Z-4.38 I0.016 J-0.199
G0 Z5
X34.719 Y33.172
Z2
G1 Z-0.9 F60
Z-3.7
G3 X34.695 Y33.16 Z-3.8 I0.083 J-0.182
X34.642 Y33.11 Z-3.873 I0.107 J-0.169
X34.604 Y33.019 Z-3.9 I0.16 J-0.12
X35.396 Y32.906 I0.396 J-0.057 F240
X34.604 Y33.019 I-0.396 J0.057
X34.69 Y32.983 I0.047 J-0.007
G1 X34.777 Y33.1
G3 X34.719 Y33.172 I-0.038 J0.029
G1 Z-4.38 F60
G3 X34.695 Y33.16 Z-4.48 I0.083 J-0.182
X34.642 Y33.11 Z-4.553 I0.107 J-0.169
X34.604 Y33.019 Z-4.58 I0.16 J-0.12
X35.396 Y32.906 I0.396 J-0.057 F240
X34.604 Y33.019 I-0.396 J0.057
X34.615 Y32.92 Z-4.553 I0.198 J-0.028 F480
X34.652 Y32.858 Z-4.48 I0.187 J0.07
X34.671 Y32.839 Z-4.38 I0.15 J0.132
G0 Z5
X35.337 Y19.061
Z2
G1 Z-0.9 F60
Z-3.7
G3 X35.341 Y19.087 Z-3.8 I-0.195 J0.043
X35.333 Y19.16 Z-3.873 I-0.199 J0.016
X35.283 Y19.245 Z-3.9 I-0.192 J-0.056
X34.717 Y18.679 I-0.283 J-0.283 F240
X35.283 Y19.245 I0.283 J0.283
X35.203 Y19.198 I-0.034 J-0.034
G1 X35.244 Y19.058
G3 X35.337 Y19.061 I0.046 J0.013
G1 Z-4.38 F60
G3 X35.341 Y19.087 Z-4.48 I-0.195 J0.043
X35.333 Y19.16 Z-4.553 I-0.199 J0.016
X35.283 Y19.245 Z-4.58 I-0.192 J-0.056
X34.717 Y18.679 I-0.283 J-0.283 F240
X35.283 Y19.245 I0.283 J0.283
X35.198 Y19.295 Z-4.553 I-0.141 J-0.141 F480
X35.125 Y19.303 Z-4.48 I-0.056 J-0.192
X35.099 Y19.299 Z-4.38 I0.016 J-0.199
G0 Z5
X49.502 Y41.099
Z2
G1 Z-0.9 F60
Z-3.7
G3 X49.506 Y41.125 Z-3.8 I-0.195 J0.043
X49.498 Y41.198 Z-3.873 I-0.199 J0.016
X49.448 Y41.283 Z-3.9 I-0.192 J-0.056
X48.882 Y40.717 I-0.283 J-0.283 F240
X49.448 Y41.283 I0.283 J0.283
X49.368 Y41.235 I-0.034 J-0.034
G1 X49.409 Y41.095
G3 X49.502 Y41.099 I0.046 J0.013
G1 Z-4.38 F60
G3 X49.506 Y41.125 Z-4.48 I-0.195 J0.043
X49.498 Y41.198 Z-4.553 I-0.199 J0.016
X49.448 Y41.283 Z-4.58 I-0.192 J-0.056
X48.882 Y40.717 I-0.283 J-0.283 F240
X49.448 Y41.283 I0.283 J0.283
X49.362 Y41.333 Z-4.553 I-0.141 J-0.141 F480
X49.29 Y41.341 Z-4.48 I-0.056 J-0.192
X49.264 Y41.337 Z-4.38 I0.016 J-0.199
G0 Z5
X63.049 Y33.172
Z2
G1 Z-0.9 F60
Z-3.7
G3 X63.025 Y33.16 Z-3.8 I0.083 J-0.182
X62.971 Y33.11 Z-3.873 I0.107 J-0.169
X62.934 Y33.019 Z-3.9 I0.16 J-0.12
X63.726 Y32.906 I0.396 J-0.057 F240
X62.934 Y33.019 I-0.396 J0.057
X63.02 Y32.983 I0.047 J-0.007
G1 X63.107 Y33.1
G3 X63.049 Y33.172 I-0.038 J0.029
G1 Z-4.38 F60
G3 X63.025 Y33.16 Z-4.48 I0.083 J-0.182
X62.971 Y33.11 Z-4.553 I0.107 J-0.169
X62.934 Y33.019 Z-4.58 I0.16 J-0.12
X63.726 Y32.906 I0.396 J-0.057 F240
X62.934 Y33.019 I-0.396 J0.057
X62.944 Y32.92 Z-4.553 I0.198 J-0.028 F480
X62.982 Y32.858 Z-4.48 I0.187 J0.07
X63.001 Y32.839 Z-4.38 I0.15 J0.132
G0 Z15

(CUTOUTS)
M8
G0 X17.808 Y17.687
Z15
Z2
G1 Z-0.8 F60
X17.803 Y17.682 Z-0.852
X17.79 Y17.667 Z-0.9
X17.77 Y17.642 Z-0.941
X17.743 Y17.611 Z-0.973
X17.712 Y17.574 Z-0.993
X17.679 Y17.534 Z-1
X17.55 Y17.381 F120
G3 X17.575 Y17.099 I0.153 J-0.129
G2 X17.824 Y16.784 I-0.644 J-0.765 F240
G3 X40.506 I11.341 J5.716
G2 X40.755 Y17.099 I0.893 J-0.45
X46.763 Y11.986 I2.575 J-3.061
X11.566 I-17.599 J10.514
X17.575 Y17.099 I3.434 J2.051
G3 X17.856 Y17.123 I0.129 J0.153 F480
G1 X17.985 Y17.277
X18.018 Y17.316 Z-0.993
X18.049 Y17.353 Z-0.973
X18.076 Y17.385 Z-0.941
X18.097 Y17.409 Z-0.9
X18.109 Y17.424 Z-0.852
X18.114 Y17.43 Z-0.8
X17.808 Y17.687
Z-1.8 F60
X17.803 Y17.682 Z-1.852
X17.79 Y17.667 Z-1.9
X17.77 Y17.642 Z-1.941
X17.743 Y17.611 Z-1.973
X17.712 Y17.574 Z-1.993
X17.679 Y17.534 Z-2
X17.55 Y17.381 F120
G3 X17.575 Y17.099 I0.153 J-0.129
G2 X17.824 Y16.784 I-0.644 J-0.765 F240
G3 X40.506 I11.341 J5.716
G2 X40.755 Y17.099 I0.893 J-0.45
X46.763 Y11.986 I2.575 J-3.061
X11.566 I-17.599 J10.514
X17.575 Y17.099 I3.434 J2.051
G3 X17.856 Y17.123 I0.129 J0.153 F480
G1 X17.985 Y17.277
X18.018 Y17.316 Z-1.993
X18.049 Y17.353 Z-1.973
X18.076 Y17.385 Z-1.941
X18.097 Y17.409 Z-1.9
X18.109 Y17.424 Z-1.852
X18.114 Y17.43 Z-1.8
X17.808 Y17.687
Z-2.8 F60
X17.803 Y17.682 Z-2.852
X17.79 Y17.667 Z-2.9
X17.77 Y17.642 Z-2.941
X17.743 Y17.611 Z-2.973
X17.712 Y17.574 Z-2.993
X17.679 Y17.534 Z-3
X17.55 Y17.381 F120
G3 X17.575 Y17.099 I0.153 J-0.129
G2 X17.824 Y16.784 I-0.644 J-0.765 F240
G3 X40.506 I11.341 J5.716
G2 X40.755 Y17.099 I0.893 J-0.45
X46.763 Y11.986 I2.575 J-3.061
X11.566 I-17.599 J10.514
X17.575 Y17.099 I3.434 J2.051
G3 X17.856 Y17.123 I0.129 J0.153 F480
G1 X17.985 Y17.277
X18.018 Y17.316 Z-2.993
X18.049 Y17.353 Z-2.973
X18.076 Y17.385 Z-2.941
X18.097 Y17.409 Z-2.9
X18.109 Y17.424 Z-2.852
X18.114 Y17.43 Z-2.8
X17.808 Y17.687
Z-3.8 F60
X17.803 Y17.682 Z-3.852
X17.79 Y17.667 Z-3.9
X17.77 Y17.642 Z-3.941
X17.743 Y17.611 Z-3.973
X17.712 Y17.574 Z-3.993
X17.679 Y17.534 Z-4
X17.55 Y17.381 F120
G3 X17.575 Y17.099 I0.153 J-0.129
G2 X17.824 Y16.784 I-0.644 J-0.765 F240
G3 X40.506 I11.341 J5.716
G2 X40.755 Y17.099 I0.893 J-0.45
X46.763 Y11.986 I2.575 J-3.061
X11.566 I-17.599 J10.514
X17.575 Y17.099 I3.434 J2.051
G3 X17.856 Y17.123 I0.129 J0.153 F480
G1 X17.985 Y17.277
X18.018 Y17.316 Z-3.993
X18.049 Y17.353 Z-3.973
X18.076 Y17.385 Z-3.941
X18.097 Y17.409 Z-3.9
X18.109 Y17.424 Z-3.852
X18.114 Y17.43 Z-3.8
X17.808 Y17.687
Z-4.38 F60
X17.803 Y17.682 Z-4.432
X17.79 Y17.667 Z-4.48
X17.77 Y17.642 Z-4.521
X17.743 Y17.611 Z-4.553
X17.712 Y17.574 Z-4.573
X17.679 Y17.534 Z-4.58
X17.55 Y17.381 F120
G3 X17.575 Y17.099 I0.153 J-0.129
G2 X17.824 Y16.784 I-0.644 J-0.765 F240
G3 X40.506 I11.341 J5.716
G2 X40.755 Y17.099 I0.893 J-0.45
X46.763 Y11.986 I2.575 J-3.061
X11.566 I-17.599 J10.514
X17.575 Y17.099 I3.434 J2.051
G3 X17.856 Y17.123 I0.129 J0.153 F480
G1 X17.985 Y17.277
X18.018 Y17.316 Z-4.573
X18.049 Y17.353 Z-4.553
X18.076 Y17.385 Z-4.521
X18.097 Y17.409 Z-4.48
X18.109 Y17.424 Z-4.432
X18.114 Y17.43 Z-4.38
G0 Z5
X58.599 Y17.233
Z2
G1 Z-0.8 F60
X58.593 Y17.229 Z-0.852
X58.575 Y17.22 Z-0.9
X58.547 Y17.206 Z-0.941
X58.51 Y17.188 Z-0.973
X58.467 Y17.166 Z-0.993
X58.421 Y17.143 Z-1
X58.242 Y17.053 F120
G3 X58.153 Y16.784 I0.09 J-0.179
X80.835 I11.341 J5.716 F240
G2 X81.085 Y17.099 I0.893 J-0.45
X87.093 Y11.986 I2.575 J-3.061
X51.896 I-17.599 J10.514
X57.904 Y17.099 I3.434 J2.051
X58.153 Y16.784 I-0.644 J-0.765
G3 X58.422 Y16.695 I0.179 J0.09 F480
G1 X58.601 Y16.785
X58.647 Y16.809 Z-0.993
X58.69 Y16.83 Z-0.973
X58.727 Y16.849 Z-0.941
X58.755 Y16.863 Z-0.9
X58.773 Y16.872 Z-0.852
X58.779 Y16.875 Z-0.8
X58.599 Y17.233
Z-1.8 F60
X58.593 Y17.229 Z-1.852
X58.575 Y17.22 Z-1.9
X58.547 Y17.206 Z-1.941
X58.51 Y17.188 Z-1.973
X58.467 Y17.166 Z-1.993
X58.421 Y17.143 Z-2
X58.242 Y17.053 F120
G3 X58.153 Y16.784 I0.09 J-0.179
X80.835 I11.341 J5.716 F240
G2 X81.085 Y17.099 I0.893 J-0.45
X87.093 Y11.986 I2.575 J-3.061
X51.896 I-17.599 J10.514
X57.904 Y17.099 I3.434 J2.051
X58.153 Y16.784 I-0.644 J-0.765
G3 X58.422 Y16.695 I0.179 J0.09 F480
G1 X58.601 Y16.785
X58.647 Y16.809 Z-1.993
X58.69 Y16.83 Z-1.973
X58.727 Y16.849 Z-1.941
X58.755 Y16.863 Z-1.9
X58.773 Y16.872 Z-1.852
X58.779 Y16.875 Z-1.8
X58.599 Y17.233
Z-2.8 F60
X58.593 Y17.229 Z-2.852
X58.575 Y17.22 Z-2.9
X58.547 Y17.206 Z-2.941
X58.51 Y17.188 Z-2.973
X58.467 Y17.166 Z-2.993
X58.421 Y17.143 Z-3
X58.242 Y17.053 F120
G3 X58.153 Y16.784 I0.09 J-0.179
X80.835 I11.341 J5.716 F240
G2 X81.085 Y17.099 I0.893 J-0.45
X87.093 Y11.986 I2.575 J-3.061
X51.896 I-17.599 J10.514
X57.904 Y17.099 I3.434 J2.051
X58.153 Y16.784 I-0.644 J-0.765
G3 X58.422 Y16.695 I0.179 J0.09 F480
G1 X58.601 Y16.785
X58.647 Y16.809 Z-2.993
X58.69 Y16.83 Z-2.973
X58.727 Y16.849 Z-2.941
X58.755 Y16.863 Z-2.9
X58.773 Y16.872 Z-2.852
X58.779 Y16.875 Z-2.8
X58.599 Y17.233
Z-3.8 F60
X58.593 Y17.229 Z-3.852
X58.575 Y17.22 Z-3.9
X58.547 Y17.206 Z-3.941
X58.51 Y17.188 Z-3.973
X58.467 Y17.166 Z-3.993
X58.421 Y17.143 Z-4
X58.242 Y17.053 F120
G3 X58.153 Y16.784 I0.09 J-0.179
X80.835 I11.341 J5.716 F240
G2 X81.085 Y17.099 I0.893 J-0.45
X87.093 Y11.986 I2.575 J-3.061
X51.896 I-17.599 J10.514
X57.904 Y17.099 I3.434 J2.051
X58.153 Y16.784 I-0.644 J-0.765
G3 X58.422 Y16.695 I0.179 J0.09 F480
G1 X58.601 Y16.785
X58.647 Y16.809 Z-3.993
X58.69 Y16.83 Z-3.973
X58.727 Y16.849 Z-3.941
X58.755 Y16.863 Z-3.9
X58.773 Y16.872 Z-3.852
X58.779 Y16.875 Z-3.8
X58.599 Y17.233
Z-4.38 F60
X58.593 Y17.229 Z-4.432
X58.575 Y17.22 Z-4.48
X58.547 Y17.206 Z-4.521
X58.51 Y17.188 Z-4.553
X58.467 Y17.166 Z-4.573
X58.421 Y17.143 Z-4.58
X58.242 Y17.053 F120
G3 X58.153 Y16.784 I0.09 J-0.179
X80.835 I11.341 J5.716 F240
G2 X81.085 Y17.099 I0.893 J-0.45
X87.093 Y11.986 I2.575 J-3.061
X51.896 I-17.599 J10.514
X57.904 Y17.099 I3.434 J2.051
X58.153 Y16.784 I-0.644 J-0.765
G3 X58.422 Y16.695 I0.179 J0.09 F480
G1 X58.601 Y16.785
X58.647 Y16.809 Z-4.573
X58.69 Y16.83 Z-4.553
X58.727 Y16.849 Z-4.521
X58.755 Y16.863 Z-4.48
X58.773 Y16.872 Z-4.432
X58.779 Y16.875 Z-4.38
G0 Z5
X38.114 Y15.57
Z2
G1 Z-0.8 F60
X38.109 Y15.576 Z-0.852
X38.097 Y15.591 Z-0.9
X38.076 Y15.615 Z-0.941
X38.049 Y15.647 Z-0.973
X38.018 Y15.684 Z-0.993
X37.985 Y15.723 Z-1
X37.856 Y15.877 F120
G3 X37.575 Y15.901 I-0.153 J-0.129
G2 X31.566 Y21.014 I-2.575 J3.061 F240
X66.763 I17.599 J-10.514
X60.755 Y15.901 I-3.434 J-2.051
X60.506 Y16.216 I0.644 J0.765
G3 X37.824 I-11.341 J-5.716
G2 X37.575 Y15.901 I-0.893 J0.45
G3 X37.55 Y15.619 I0.129 J-0.153 F480
G1 X37.679 Y15.466
X37.712 Y15.426 Z-0.993
X37.743 Y15.389 Z-0.973
X37.77 Y15.358 Z-0.941
X37.79 Y15.333 Z-0.9
X37.803 Y15.318 Z-0.852
X37.808 Y15.313 Z-0.8
X38.114 Y15.57
Z-1.8 F60
X38.109 Y15.576 Z-1.852
X38.097 Y15.591 Z-1.9
X38.076 Y15.615 Z-1.941
X38.049 Y15.647 Z-1.973
X38.018 Y15.684 Z-1.993
X37.985 Y15.723 Z-2
X37.856 Y15.877 F120
G3 X37.575 Y15.901 I-0.153 J-0.129
G2 X31.566 Y21.014 I-2.575 J3.061 F240
X66.763 I17.599 J-10.514
X60.755 Y15.901 I-3.434 J-2.051
X60.506 Y16.216 I0.644 J0.765
G3 X37.824 I-11.341 J-5.716
G2 X37.575 Y15.901 I-0.893 J0.45
G3 X37.55 Y15.619 I0.129 J-0.153 F480
G1 X37.679 Y15.466
X37.712 Y15.426 Z-1.993
X37.743 Y15.389 Z-1.973
X37.77 Y15.358 Z-1.941
X37.79 Y15.333 Z-1.9
X37.803 Y15.318 Z-1.852
X37.808 Y15.313 Z-1.8
X38.114 Y15.57
Z-2.8 F60
X38.109 Y15.576 Z-2.852
X38.097 Y15.591 Z-2.9
X38.076 Y15.615 Z-2.941
X38.049 Y15.647 Z-2.973
X38.018 Y15.684 Z-2.993
X37.985 Y15.723 Z-3
X37.856 Y15.877 F120
G3 X37.575 Y15.901 I-0.153 J-0.129
G2 X31.566 Y21.014 I-2.575 J3.061 F240
X66.763 I17.599 J-10.514
X60.755 Y15.901 I-3.434 J-2.051
X60.506 Y16.216 I0.644 J0.765
G3 X37.824 I-11.341 J-5.716
G2 X37.575 Y15.901 I-0.893 J0.45
G3 X37.55 Y15.619 I0.129 J-0.153 F480
G1 X37.679 Y15.466
X37.712 Y15.426 Z-2.993
X37.743 Y15.389 Z-2.973
X37.77 Y15.358 Z-2.941
X37.79 Y15.333 Z-2.9
X37.803 Y15.318 Z-2.852
X37.808 Y15.313 Z-2.8
X38.114 Y15.57
Z-3.8 F60
X38.109 Y15.576 Z-3.852
X38.097 Y15.591 Z-3.9
X38.076 Y15.615 Z-3.941
X38.049 Y15.647 Z-3.973
X38.018 Y15.684 Z-3.993
X37.985 Y15.723 Z-4
X37.856 Y15.877 F120
G3 X37.575 Y15.901 I-0.153 J-0.129
G2 X31.566 Y21.014 I-2.575 J3.061 F240
X66.763 I17.599 J-10.514
X60.755 Y15.901 I-3.434 J-2.051
X60.506 Y16.216 I0.644 J0.765
G3 X37.824 I-11.341 J-5.716
G2 X37.575 Y15.901 I-0.893 J0.45
G3 X37.55 Y15.619 I0.129 J-0.153 F480
G1 X37.679 Y15.466
X37.712 Y15.426 Z-3.993
X37.743 Y15.389 Z-3.973
X37.77 Y15.358 Z-3.941
X37.79 Y15.333 Z-3.9
X37.803 Y15.318 Z-3.852
X37.808 Y15.313 Z-3.8
X38.114 Y15.57
Z-4.38 F60
X38.109 Y15.576 Z-4.432
X38.097 Y15.591 Z-4.48
X38.076 Y15.615 Z-4.521
X38.049 Y15.647 Z-4.553
X38.018 Y15.684 Z-4.573
X37.985 Y15.723 Z-4.58
X37.856 Y15.877 F120
G3 X37.575 Y15.901 I-0.153 J-0.129
G2 X31.566 Y21.014 I-2.575 J3.061 F240
X66.763 I17.599 J-10.514
X60.755 Y15.901 I-3.434 J-2.051
X60.506 Y16.216 I0.644 J0.765
G3 X37.824 I-11.341 J-5.716
G2 X37.575 Y15.901 I-0.893 J0.45
G3 X37.55 Y15.619 I0.129 J-0.153 F480
G1 X37.679 Y15.466
X37.712 Y15.426 Z-4.573
X37.743 Y15.389 Z-4.553
X37.77 Y15.358 Z-4.521
X37.79 Y15.333 Z-4.48
X37.803 Y15.318 Z-4.432
X37.808 Y15.313 Z-4.38
G0 Z5
X38.114 Y29.57
Z2
G1 Z-0.8 F60
X38.109 Y29.576 Z-0.852
X38.097 Y29.591 Z-0.9
X38.076 Y29.615 Z-0.941
X38.049 Y29.647 Z-0.973
X38.018 Y29.684 Z-0.993
X37.985 Y29.723 Z-1
X37.856 Y29.877 F120
G3 X37.575 Y29.901 I-0.153 J-0.129
G2 X31.566 Y35.014 I-2.575 J3.061 F240
X66.763 I17.599 J-10.514
X60.755 Y29.901 I-3.434 J-2.051
X60.506 Y30.216 I0.644 J0.765
G3 X37.824 I-11.341 J-5.716
G2 X37.575 Y29.901 I-0.893 J0.45
G3 X37.55 Y29.619 I0.129 J-0.153 F480
G1 X37.679 Y29.466
X37.712 Y29.426 Z-0.993
X37.743 Y29.389 Z-0.973
X37.77 Y29.358 Z-0.941
X37.79 Y29.333 Z-0.9
X37.803 Y29.318 Z-0.852
X37.808 Y29.313 Z-0.8
X38.114 Y29.57
Z-1.8 F60
X38.109 Y29.576 Z-1.852
X38.097 Y29.591 Z-1.9
X38.076 Y29.615 Z-1.941
X38.049 Y29.647 Z-1.973
X38.018 Y29.684 Z-1.993
X37.985 Y29.723 Z-2
X37.856 Y29.877 F120
G3 X37.575 Y29.901 I-0.153 J-0.129
G2 X31.566 Y35.014 I-2.575 J3.061 F240
X66.763 I17.599 J-10.514
X60.755 Y29.901 I-3.434 J-2.051
X60.506 Y30.216 I0.644 J0.765
G3 X37.824 I-11.341 J-5.716
G2 X37.575 Y29.901 I-0.893 J0.45
G3 X37.55 Y29.619 I0.129 J-0.153 F480
G1 X37.679 Y29.466
X37.712 Y29.426 Z-1.993
X37.743 Y29.389 Z-1.973
X37.77 Y29.358 Z-1.941
X37.79 Y29.333 Z-1.9
X37.803 Y29.318 Z-1.852
X37.808 Y29.313 Z-1.8
X38.114 Y29.57
Z-2.8 F60
X38.109 Y29.576 Z-2.852
X38.097 Y29.591 Z-2.9
X38.076 Y29.615 Z-2.941
X38.049 Y29.647 Z-2.973
X38.018 Y29.684 Z-2.993
X37.985 Y29.723 Z-3
X37.856 Y29.877 F120
G3 X37.575 Y29.901 I-0.153 J-0.129
G2 X31.566 Y35.014 I-2.575 J3.061 F240
X66.763 I17.599 J-10.514
X60.755 Y29.901 I-3.434 J-2.051
X60.506 Y30.216 I0.644 J0.765
G3 X37.824 I-11.341 J-5.716
G2 X37.575 Y29.901 I-0.893 J0.45
G3 X37.55 Y29.619 I0.129 J-0.153 F480
G1 X37.679 Y29.466
X37.712 Y29.426 Z-2.993
X37.743 Y29.389 Z-2.973
X37.77 Y29.358 Z-2.941
X37.79 Y29.333 Z-2.9
X37.803 Y29.318 Z-2.852
X37.808 Y29.313 Z-2.8
X38.114 Y29.57
Z-3.8 F60
X38.109 Y29.576 Z-3.852
X38.097 Y29.591 Z-3.9
X38.076 Y29.615 Z-3.941
X38.049 Y29.647 Z-3.973
X38.018 Y29.684 Z-3.993
X37.985 Y29.723 Z-4
X37.856 Y29.877 F120
G3 X37.575 Y29.901 I-0.153 J-0.129
G2 X31.566 Y35.014 I-2.575 J3.061 F240
X66.763 I17.599 J-10.514
X60.755 Y29.901 I-3.434 J-2.051
X60.506 Y30.216 I0.644 J0.765
G3 X37.824 I-11.341 J-5.716
G2 X37.575 Y29.901 I-0.893 J0.45
G3 X37.55 Y29.619 I0.129 J-0.153 F480
G1 X37.679 Y29.466
X37.712 Y29.426 Z-3.993
X37.743 Y29.389 Z-3.973
X37.77 Y29.358 Z-3.941
X37.79 Y29.333 Z-3.9
X37.803 Y29.318 Z-3.852
X37.808 Y29.313 Z-3.8
X38.114 Y29.57
Z-4.38 F60
X38.109 Y29.576 Z-4.432
X38.097 Y29.591 Z-4.48
X38.076 Y29.615 Z-4.521
X38.049 Y29.647 Z-4.553
X38.018 Y29.684 Z-4.573
X37.985 Y29.723 Z-4.58
X37.856 Y29.877 F120
G3 X37.575 Y29.901 I-0.153 J-0.129
G2 X31.566 Y35.014 I-2.575 J3.061 F240
X66.763 I17.599 J-10.514
X60.755 Y29.901 I-3.434 J-2.051
X60.506 Y30.216 I0.644 J0.765
G3 X37.824 I-11.341 J-5.716
G2 X37.575 Y29.901 I-0.893 J0.45
G3 X37.55 Y29.619 I0.129 J-0.153 F480
G1 X37.679 Y29.466
X37.712 Y29.426 Z-4.573
X37.743 Y29.389 Z-4.553
X37.77 Y29.358 Z-4.521
X37.79 Y29.333 Z-4.48
X37.803 Y29.318 Z-4.432
X37.808 Y29.313 Z-4.38
G0 Z15

M9
M30
