(MOTOR-PROTECTORS)
(T11  D=2 CR=0 - ZMIN=-4.58 - FLAT END MILL)
G90 G94 G91.1 G40 G49 G17
G21

(NUT POCKETS)
M5
M9
T11 M6
(DIAMOND OR SPIRAL)
S16000 M3
G54
M8
G0 X43.341 Y14.302
G43 Z15 H1
Z2
G1 Z-0.8 F60
G3 X43.316 Y14.31 Z-0.9 I-0.07 J-0.187
X43.243 Y14.313 Z-0.973 I-0.044 J-0.195
X43.152 Y14.275 Z-1 I0.029 J-0.198
X43.507 Y13.801 I0.178 J-0.237 F240
X43.152 Y14.275 I-0.178 J0.237
G2 X42.6 Y14.231 I-0.31 J0.414
G3 X42.243 Y13.808 I-0.132 J-0.25
G2 X42.323 Y13.687 I-0.793 J-0.609
G1 X42.502 Y13.366
G2 X42.628 Y12.864 I-0.873 J-0.487
X43.13 Y12.991 I0.487 J-0.873
G1 X43.497 Y12.985
G2 X43.995 Y12.844 I-0.015 J-1
X44.137 Y13.342 I1 J-0.015
G1 X44.325 Y13.657
G2 X44.697 Y14.017 I0.858 J-0.513
X44.336 Y14.389 I0.513 J0.859
G1 X44.157 Y14.709
G2 X44.031 Y15.211 I0.873 J0.487
X43.529 Y15.085 I-0.487 J0.873
G1 X43.162 Y15.09
G2 X42.664 Y15.232 I0.015 J1
X42.522 Y14.734 I-1 J0.015
G1 X42.334 Y14.419
G2 X41.963 Y14.058 I-0.859 J0.513
X42.243 Y13.808 I-0.513 J-0.858
G3 X42.443 Y13.735 I0.159 J0.122
G1 X43.313 Y13.919
G3 X43.341 Y14.302 I-0.042 J0.196
G1 Z-1.8 F60
G3 X43.316 Y14.31 Z-1.9 I-0.07 J-0.187
X43.243 Y14.313 Z-1.973 I-0.044 J-0.195
X43.152 Y14.275 Z-2 I0.029 J-0.198
X43.507 Y13.801 I0.178 J-0.237 F240
X43.152 Y14.275 I-0.178 J0.237
G2 X42.6 Y14.231 I-0.31 J0.414
G3 X42.243 Y13.808 I-0.132 J-0.25
G2 X42.323 Y13.687 I-0.793 J-0.609
G1 X42.502 Y13.366
G2 X42.628 Y12.864 I-0.873 J-0.487
X43.13 Y12.991 I0.487 J-0.873
G1 X43.497 Y12.985
G2 X43.995 Y12.844 I-0.015 J-1
X44.137 Y13.342 I1 J-0.015
G1 X44.325 Y13.657
G2 X44.697 Y14.017 I0.858 J-0.513
X44.336 Y14.389 I0.513 J0.859
G1 X44.157 Y14.709
G2 X44.031 Y15.211 I0.873 J0.487
X43.529 Y15.085 I-0.487 J0.873
G1 X43.162 Y15.09
G2 X42.664 Y15.232 I0.015 J1
X42.522 Y14.734 I-1 J0.015
G1 X42.334 Y14.419
G2 X41.963 Y14.058 I-0.859 J0.513
X42.243 Y13.808 I-0.513 J-0.858
G3 X42.443 Y13.735 I0.159 J0.122
G1 X43.313 Y13.919
G3 X43.341 Y14.302 I-0.042 J0.196
G1 Z-2.7 F60
G3 X43.316 Y14.31 Z-2.8 I-0.07 J-0.187
X43.243 Y14.313 Z-2.873 I-0.044 J-0.195
X43.152 Y14.275 Z-2.9 I0.029 J-0.198
X43.507 Y13.801 I0.178 J-0.237 F240
X43.152 Y14.275 I-0.178 J0.237
G2 X42.6 Y14.231 I-0.31 J0.414
G3 X42.243 Y13.808 I-0.132 J-0.25
G2 X42.323 Y13.687 I-0.793 J-0.609
G1 X42.502 Y13.366
G2 X42.628 Y12.864 I-0.873 J-0.487
X43.13 Y12.991 I0.487 J-0.873
G1 X43.497 Y12.985
G2 X43.995 Y12.844 I-0.015 J-1
X44.137 Y13.342 I1 J-0.015
G1 X44.325 Y13.657
G2 X44.697 Y14.017 I0.858 J-0.513
X44.336 Y14.389 I0.513 J0.859
G1 X44.157 Y14.709
G2 X44.031 Y15.211 I0.873 J0.487
X43.529 Y15.085 I-0.487 J0.873
G1 X43.162 Y15.09
G2 X42.664 Y15.232 I0.015 J1
X42.522 Y14.734 I-1 J0.015
G1 X42.334 Y14.419
G2 X41.963 Y14.058 I-0.859 J0.513
X42.243 Y13.808 I-0.513 J-0.858
G3 X42.321 Y13.747 Z-2.873 I0.159 J0.122 F480
X42.392 Y13.73 Z-2.8 I0.081 J0.183
X42.418 Y13.731 Z-2.7 I0.01 J0.2
G0 Z5
X29.369 Y5.832
Z2
G1 Z-0.8 F60
G3 X29.391 Y5.848 Z-0.9 I-0.108 J0.168
X29.437 Y5.904 Z-0.973 I-0.13 J0.152
X29.461 Y6 Z-1 I-0.176 J0.096
X28.868 I-0.296 J0 F240
X29.461 I0.296 J0
G2 X29.665 Y6.537 I0.809 J0
G3 X29.413 Y7.052 I-0.232 J0.206
G2 X29.348 Y7.05 I-0.064 J0.998
G1 X28.981
G2 X28.481 Y7.184 I0 J1
X28.347 Y6.684 I-1 J0
G1 X28.164 Y6.366
G2 X27.798 Y6 I-0.866 J0.5
X28.164 Y5.634 I-0.5 J-0.866
G1 X28.347 Y5.316
G2 X28.481 Y4.816 I-0.866 J-0.5
X28.981 Y4.95 I0.5 J-0.866
G1 X29.348
G2 X29.848 Y4.816 I0 J-1
X29.982 Y5.316 I1 J0
G1 X30.166 Y5.634
G2 X30.532 Y6 I0.866 J-0.5
X30.166 Y6.366 I0.5 J0.866
G1 X29.982 Y6.684
G2 X29.848 Y7.184 I0.866 J0.5
X29.413 Y7.052 I-0.5 J0.866
G3 X29.229 Y6.89 I0.013 J-0.2
G1 X29.065 Y6.038
G3 X29.369 Y5.832 I0.196 J-0.038
G1 Z-1.8 F60
G3 X29.391 Y5.848 Z-1.9 I-0.108 J0.168
X29.437 Y5.904 Z-1.973 I-0.13 J0.152
X29.461 Y6 Z-2 I-0.176 J0.096
X28.868 I-0.296 J0 F240
X29.461 I0.296 J0
G2 X29.665 Y6.537 I0.809 J0
G3 X29.413 Y7.052 I-0.232 J0.206
G2 X29.348 Y7.05 I-0.064 J0.998
G1 X28.981
G2 X28.481 Y7.184 I0 J1
X28.347 Y6.684 I-1 J0
G1 X28.164 Y6.366
G2 X27.798 Y6 I-0.866 J0.5
X28.164 Y5.634 I-0.5 J-0.866
G1 X28.347 Y5.316
G2 X28.481 Y4.816 I-0.866 J-0.5
X28.981 Y4.95 I0.5 J-0.866
G1 X29.348
G2 X29.848 Y4.816 I0 J-1
X29.982 Y5.316 I1 J0
G1 X30.166 Y5.634
G2 X30.532 Y6 I0.866 J-0.5
X30.166 Y6.366 I0.5 J0.866
G1 X29.982 Y6.684
G2 X29.848 Y7.184 I0.866 J0.5
X29.413 Y7.052 I-0.5 J0.866
G3 X29.229 Y6.89 I0.013 J-0.2
G1 X29.065 Y6.038
G3 X29.369 Y5.832 I0.196 J-0.038
G1 Z-2.7 F60
G3 X29.391 Y5.848 Z-2.8 I-0.108 J0.168
X29.437 Y5.904 Z-2.873 I-0.13 J0.152
X29.461 Y6 Z-2.9 I-0.176 J0.096
X28.868 I-0.296 J0 F240
X29.461 I0.296 J0
G2 X29.665 Y6.537 I0.809 J0
G3 X29.413 Y7.052 I-0.232 J0.206
G2 X29.348 Y7.05 I-0.064 J0.998
G1 X28.981
G2 X28.481 Y7.184 I0 J1
X28.347 Y6.684 I-1 J0
G1 X28.164 Y6.366
G2 X27.798 Y6 I-0.866 J0.5
X28.164 Y5.634 I-0.5 J-0.866
G1 X28.347 Y5.316
G2 X28.481 Y4.816 I-0.866 J-0.5
X28.981 Y4.95 I0.5 J-0.866
G1 X29.348
G2 X29.848 Y4.816 I0 J-1
X29.982 Y5.316 I1 J0
G1 X30.166 Y5.634
G2 X30.532 Y6 I0.866 J-0.5
X30.166 Y6.366 I0.5 J0.866
G1 X29.982 Y6.684
G2 X29.848 Y7.184 I0.866 J0.5
X29.413 Y7.052 I-0.5 J0.866
G3 X29.319 Y7.021 Z-2.873 I0.013 J-0.2 F480
X29.265 Y6.972 Z-2.8 I0.107 J-0.169
X29.251 Y6.949 Z-2.7 I0.16 J-0.12
G0 Z5
X15.012 Y14.302
Z2
G1 Z-0.8 F60
G3 X14.986 Y14.31 Z-0.9 I-0.07 J-0.187
X14.913 Y14.313 Z-0.973 I-0.044 J-0.195
X14.822 Y14.275 Z-1 I0.029 J-0.198
X15.178 Y13.801 I0.178 J-0.237 F240
X14.822 Y14.275 I-0.178 J0.237
G2 X14.266 Y14.214 I-0.329 J0.439
G3 X13.924 Y13.772 I-0.119 J-0.262
G2 X14.004 Y13.657 I-0.778 J-0.628
G1 X14.193 Y13.342
G2 X14.334 Y12.844 I-0.858 J-0.513
X14.832 Y12.985 I0.513 J-0.859
G1 X15.199 Y12.991
G2 X15.701 Y12.864 I0.015 J-1
X15.828 Y13.366 I1 J0.015
G1 X16.006 Y13.687
G2 X16.367 Y14.058 I0.873 J-0.487
X15.996 Y14.419 I0.487 J0.873
G1 X15.807 Y14.734
G2 X15.666 Y15.232 I0.858 J0.513
X15.168 Y15.09 I-0.513 J0.859
G1 X14.801 Y15.085
G2 X14.299 Y15.211 I-0.015 J1
X14.172 Y14.709 I-1 J-0.015
G1 X13.994 Y14.389
G2 X13.633 Y14.017 I-0.873 J0.487
X13.924 Y13.772 I-0.487 J-0.873
G3 X14.129 Y13.704 I0.156 J0.126
G1 X14.991 Y13.921
G3 X15.012 Y14.302 I-0.049 J0.194
G1 Z-1.8 F60
G3 X14.986 Y14.31 Z-1.9 I-0.07 J-0.187
X14.913 Y14.313 Z-1.973 I-0.044 J-0.195
X14.822 Y14.275 Z-2 I0.029 J-0.198
X15.178 Y13.801 I0.178 J-0.237 F240
X14.822 Y14.275 I-0.178 J0.237
G2 X14.266 Y14.214 I-0.329 J0.439
G3 X13.924 Y13.772 I-0.119 J-0.262
G2 X14.004 Y13.657 I-0.778 J-0.628
G1 X14.193 Y13.342
G2 X14.334 Y12.844 I-0.858 J-0.513
X14.832 Y12.985 I0.513 J-0.859
G1 X15.199 Y12.991
G2 X15.701 Y12.864 I0.015 J-1
X15.828 Y13.366 I1 J0.015
G1 X16.006 Y13.687
G2 X16.367 Y14.058 I0.873 J-0.487
X15.996 Y14.419 I0.487 J0.873
G1 X15.807 Y14.734
G2 X15.666 Y15.232 I0.858 J0.513
X15.168 Y15.09 I-0.513 J0.859
G1 X14.801 Y15.085
G2 X14.299 Y15.211 I-0.015 J1
X14.172 Y14.709 I-1 J-0.015
G1 X13.994 Y14.389
G2 X13.633 Y14.017 I-0.873 J0.487
X13.924 Y13.772 I-0.487 J-0.873
G3 X14.129 Y13.704 I0.156 J0.126
G1 X14.991 Y13.921
G3 X15.012 Y14.302 I-0.049 J0.194
G1 Z-2.7 F60
G3 X14.986 Y14.31 Z-2.8 I-0.07 J-0.187
X14.913 Y14.313 Z-2.873 I-0.044 J-0.195
X14.822 Y14.275 Z-2.9 I0.029 J-0.198
X15.178 Y13.801 I0.178 J-0.237 F240
X14.822 Y14.275 I-0.178 J0.237
G2 X14.266 Y14.214 I-0.329 J0.439
G3 X13.924 Y13.772 I-0.119 J-0.262
G2 X14.004 Y13.657 I-0.778 J-0.628
G1 X14.193 Y13.342
G2 X14.334 Y12.844 I-0.858 J-0.513
X14.832 Y12.985 I0.513 J-0.859
G1 X15.199 Y12.991
G2 X15.701 Y12.864 I0.015 J-1
X15.828 Y13.366 I1 J0.015
G1 X16.006 Y13.687
G2 X16.367 Y14.058 I0.873 J-0.487
X15.996 Y14.419 I0.487 J0.873
G1 X15.807 Y14.734
G2 X15.666 Y15.232 I0.858 J0.513
X15.168 Y15.09 I-0.513 J0.859
G1 X14.801 Y15.085
G2 X14.299 Y15.211 I-0.015 J1
X14.172 Y14.709 I-1 J-0.015
G1 X13.994 Y14.389
G2 X13.633 Y14.017 I-0.873 J0.487
X13.924 Y13.772 I-0.487 J-0.873
G3 X14.003 Y13.713 Z-2.873 I0.156 J0.126 F480
X14.075 Y13.698 Z-2.8 I0.076 J0.185
X14.101 Y13.699 Z-2.7 I0.005 J0.2
G0 Z5
X55.341 Y14.302
Z2
G1 Z-0.8 F60
G3 X55.316 Y14.31 Z-0.9 I-0.07 J-0.187
X55.243 Y14.313 Z-0.973 I-0.044 J-0.195
X55.152 Y14.275 Z-1 I0.029 J-0.198
X55.507 Y13.801 I0.178 J-0.237 F240
X55.152 Y14.275 I-0.178 J0.237
G2 X54.596 Y14.214 I-0.329 J0.439
G3 X54.254 Y13.772 I-0.119 J-0.262
G2 X54.334 Y13.657 I-0.778 J-0.628
G1 X54.522 Y13.341
G2 X54.664 Y12.844 I-0.859 J-0.513
X55.162 Y12.985 I0.513 J-0.859
G1 X55.529 Y12.991
G2 X56.031 Y12.864 I0.015 J-1
X56.157 Y13.366 I1 J0.015
G1 X56.336 Y13.687
G2 X56.697 Y14.058 I0.873 J-0.487
X56.325 Y14.419 I0.487 J0.873
G1 X56.137 Y14.734
G2 X55.995 Y15.232 I0.858 J0.513
X55.497 Y15.09 I-0.513 J0.859
G1 X55.13 Y15.085
G2 X54.628 Y15.211 I-0.015 J1
X54.502 Y14.709 I-1 J-0.015
G1 X54.323 Y14.389
G2 X53.963 Y14.017 I-0.873 J0.487
X54.254 Y13.772 I-0.487 J-0.873
G3 X54.458 Y13.704 I0.156 J0.126
G1 X55.321 Y13.921
G3 X55.341 Y14.302 I-0.049 J0.194
G1 Z-1.8 F60
G3 X55.316 Y14.31 Z-1.9 I-0.07 J-0.187
X55.243 Y14.313 Z-1.973 I-0.044 J-0.195
X55.152 Y14.275 Z-2 I0.029 J-0.198
X55.507 Y13.801 I0.178 J-0.237 F240
X55.152 Y14.275 I-0.178 J0.237
G2 X54.596 Y14.214 I-0.329 J0.439
G3 X54.254 Y13.772 I-0.119 J-0.262
G2 X54.334 Y13.657 I-0.778 J-0.628
G1 X54.522 Y13.341
G2 X54.664 Y12.844 I-0.859 J-0.513
X55.162 Y12.985 I0.513 J-0.859
G1 X55.529 Y12.991
G2 X56.031 Y12.864 I0.015 J-1
X56.157 Y13.366 I1 J0.015
G1 X56.336 Y13.687
G2 X56.697 Y14.058 I0.873 J-0.487
X56.325 Y14.419 I0.487 J0.873
G1 X56.137 Y14.734
G2 X55.995 Y15.232 I0.858 J0.513
X55.497 Y15.09 I-0.513 J0.859
G1 X55.13 Y15.085
G2 X54.628 Y15.211 I-0.015 J1
X54.502 Y14.709 I-1 J-0.015
G1 X54.323 Y14.389
G2 X53.963 Y14.017 I-0.873 J0.487
X54.254 Y13.772 I-0.487 J-0.873
G3 X54.458 Y13.704 I0.156 J0.126
G1 X55.321 Y13.921
G3 X55.341 Y14.302 I-0.049 J0.194
G1 Z-2.7 F60
G3 X55.316 Y14.31 Z-2.8 I-0.07 J-0.187
X55.243 Y14.313 Z-2.873 I-0.044 J-0.195
X55.152 Y14.275 Z-2.9 I0.029 J-0.198
X55.507 Y13.801 I0.178 J-0.237 F240
X55.152 Y14.275 I-0.178 J0.237
G2 X54.596 Y14.214 I-0.329 J0.439
G3 X54.254 Y13.772 I-0.119 J-0.262
G2 X54.334 Y13.657 I-0.778 J-0.628
G1 X54.522 Y13.341
G2 X54.664 Y12.844 I-0.859 J-0.513
X55.162 Y12.985 I0.513 J-0.859
G1 X55.529 Y12.991
G2 X56.031 Y12.864 I0.015 J-1
X56.157 Y13.366 I1 J0.015
G1 X56.336 Y13.687
G2 X56.697 Y14.058 I0.873 J-0.487
X56.325 Y14.419 I0.487 J0.873
G1 X56.137 Y14.734
G2 X55.995 Y15.232 I0.858 J0.513
X55.497 Y15.09 I-0.513 J0.859
G1 X55.13 Y15.085
G2 X54.628 Y15.211 I-0.015 J1
X54.502 Y14.709 I-1 J-0.015
G1 X54.323 Y14.389
G2 X53.963 Y14.017 I-0.873 J0.487
X54.254 Y13.772 I-0.487 J-0.873
G3 X54.333 Y13.713 Z-2.873 I0.156 J0.126 F480
X54.404 Y13.698 Z-2.8 I0.076 J0.185
X54.431 Y13.699 Z-2.7 I0.005 J0.2
G0 Z5
X69.699 Y5.832
Z2
G1 Z-0.8 F60
G3 X69.72 Y5.848 Z-0.9 I-0.108 J0.168
X69.766 Y5.904 Z-0.973 I-0.13 J0.152
X69.791 Y6 Z-1 I-0.176 J0.096
X69.198 I-0.297 J0 F240
X69.791 I0.297 J0
G2 X69.994 Y6.537 I0.809 J0
G3 X69.742 Y7.052 I-0.232 J0.206
G2 X69.678 Y7.05 I-0.064 J0.998
G1 X69.311
G2 X68.811 Y7.184 I0 J1
X68.677 Y6.684 I-1 J0
G1 X68.493 Y6.366
G2 X68.127 Y6 I-0.866 J0.5
X68.493 Y5.634 I-0.5 J-0.866
G1 X68.677 Y5.316
G2 X68.811 Y4.816 I-0.866 J-0.5
X69.311 Y4.95 I0.5 J-0.866
G1 X69.678
G2 X70.178 Y4.816 I0 J-1
X70.312 Y5.316 I1 J0
G1 X70.496 Y5.634
G2 X70.862 Y6 I0.866 J-0.5
X70.496 Y6.366 I0.5 J0.866
G1 X70.312 Y6.684
G2 X70.178 Y7.184 I0.866 J0.5
X69.742 Y7.052 I-0.5 J0.866
G3 X69.559 Y6.89 I0.013 J-0.2
G1 X69.394 Y6.038
G3 X69.699 Y5.832 I0.196 J-0.038
G1 Z-1.8 F60
G3 X69.72 Y5.848 Z-1.9 I-0.108 J0.168
X69.766 Y5.904 Z-1.973 I-0.13 J0.152
X69.791 Y6 Z-2 I-0.176 J0.096
X69.198 I-0.297 J0 F240
X69.791 I0.297 J0
G2 X69.994 Y6.537 I0.809 J0
G3 X69.742 Y7.052 I-0.232 J0.206
G2 X69.678 Y7.05 I-0.064 J0.998
G1 X69.311
G2 X68.811 Y7.184 I0 J1
X68.677 Y6.684 I-1 J0
G1 X68.493 Y6.366
G2 X68.127 Y6 I-0.866 J0.5
X68.493 Y5.634 I-0.5 J-0.866
G1 X68.677 Y5.316
G2 X68.811 Y4.816 I-0.866 J-0.5
X69.311 Y4.95 I0.5 J-0.866
G1 X69.678
G2 X70.178 Y4.816 I0 J-1
X70.312 Y5.316 I1 J0
G1 X70.496 Y5.634
G2 X70.862 Y6 I0.866 J-0.5
X70.496 Y6.366 I0.5 J0.866
G1 X70.312 Y6.684
G2 X70.178 Y7.184 I0.866 J0.5
X69.742 Y7.052 I-0.5 J0.866
G3 X69.559 Y6.89 I0.013 J-0.2
G1 X69.394 Y6.038
G3 X69.699 Y5.832 I0.196 J-0.038
G1 Z-2.7 F60
G3 X69.72 Y5.848 Z-2.8 I-0.108 J0.168
X69.766 Y5.904 Z-2.873 I-0.13 J0.152
X69.791 Y6 Z-2.9 I-0.176 J0.096
X69.198 I-0.297 J0 F240
X69.791 I0.297 J0
G2 X69.994 Y6.537 I0.809 J0
G3 X69.742 Y7.052 I-0.232 J0.206
G2 X69.678 Y7.05 I-0.064 J0.998
G1 X69.311
G2 X68.811 Y7.184 I0 J1
X68.677 Y6.684 I-1 J0
G1 X68.493 Y6.366
G2 X68.127 Y6 I-0.866 J0.5
X68.493 Y5.634 I-0.5 J-0.866
G1 X68.677 Y5.316
G2 X68.811 Y4.816 I-0.866 J-0.5
X69.311 Y4.95 I0.5 J-0.866
G1 X69.678
G2 X70.178 Y4.816 I0 J-1
X70.312 Y5.316 I1 J0
G1 X70.496 Y5.634
G2 X70.862 Y6 I0.866 J-0.5
X70.496 Y6.366 I0.5 J0.866
G1 X70.312 Y6.684
G2 X70.178 Y7.184 I0.866 J0.5
X69.742 Y7.052 I-0.5 J0.866
G3 X69.648 Y7.021 Z-2.873 I0.013 J-0.2 F480
X69.595 Y6.972 Z-2.8 I0.107 J-0.169
X69.58 Y6.95 Z-2.7 I0.16 J-0.12
G0 Z5
X83.864 Y13.87
Z2
G1 Z-0.8 F60
G3 X83.885 Y13.885 Z-0.9 I-0.108 J0.168
X83.931 Y13.942 Z-0.973 I-0.13 J0.152
X83.956 Y14.038 Z-1 I-0.176 J0.096
X83.363 I-0.296 J0 F240
X83.956 I0.296 J0
G2 X84.176 Y14.566 I0.741 J0
G3 X83.942 Y15.087 I-0.214 J0.217
G2 X83.858 Y15.085 I-0.068 J0.998
G1 X83.491 Y15.09
G2 X82.993 Y15.232 I0.015 J1
X82.852 Y14.734 I-1 J0.015
G1 X82.664 Y14.419
G2 X82.292 Y14.058 I-0.858 J0.513
X82.653 Y13.687 I-0.513 J-0.858
G1 X82.831 Y13.366
G2 X82.958 Y12.864 I-0.873 J-0.487
X83.46 Y12.991 I0.487 J-0.873
G1 X83.827 Y12.985
G2 X84.325 Y12.844 I-0.015 J-1
X84.466 Y13.342 I1 J-0.015
G1 X84.655 Y13.657
G2 X85.026 Y14.017 I0.858 J-0.513
X84.666 Y14.389 I0.513 J0.858
G1 X84.487 Y14.709
G2 X84.36 Y15.211 I0.873 J0.487
X83.942 Y15.087 I-0.487 J0.873
G3 X83.76 Y14.933 I0.014 J-0.2
G1 X83.561 Y14.084
G3 X83.864 Y13.87 I0.195 J-0.046
G1 Z-1.8 F60
G3 X83.885 Y13.885 Z-1.9 I-0.108 J0.168
X83.931 Y13.942 Z-1.973 I-0.13 J0.152
X83.956 Y14.038 Z-2 I-0.176 J0.096
X83.363 I-0.296 J0 F240
X83.956 I0.296 J0
G2 X84.176 Y14.566 I0.741 J0
G3 X83.942 Y15.087 I-0.214 J0.217
G2 X83.858 Y15.085 I-0.068 J0.998
G1 X83.491 Y15.09
G2 X82.993 Y15.232 I0.015 J1
X82.852 Y14.734 I-1 J0.015
G1 X82.664 Y14.419
G2 X82.292 Y14.058 I-0.858 J0.513
X82.653 Y13.687 I-0.513 J-0.858
G1 X82.831 Y13.366
G2 X82.958 Y12.864 I-0.873 J-0.487
X83.46 Y12.991 I0.487 J-0.873
G1 X83.827 Y12.985
G2 X84.325 Y12.844 I-0.015 J-1
X84.466 Y13.342 I1 J-0.015
G1 X84.655 Y13.657
G2 X85.026 Y14.017 I0.858 J-0.513
X84.666 Y14.389 I0.513 J0.858
G1 X84.487 Y14.709
G2 X84.36 Y15.211 I0.873 J0.487
X83.942 Y15.087 I-0.487 J0.873
G3 X83.76 Y14.933 I0.014 J-0.2
G1 X83.561 Y14.084
G3 X83.864 Y13.87 I0.195 J-0.046
G1 Z-2.7 F60
G3 X83.885 Y13.885 Z-2.8 I-0.108 J0.168
X83.931 Y13.942 Z-2.873 I-0.13 J0.152
X83.956 Y14.038 Z-2.9 I-0.176 J0.096
X83.363 I-0.296 J0 F240
X83.956 I0.296 J0
G2 X84.176 Y14.566 I0.741 J0
G3 X83.942 Y15.087 I-0.214 J0.217
G2 X83.858 Y15.085 I-0.068 J0.998
G1 X83.491 Y15.09
G2 X82.993 Y15.232 I0.015 J1
X82.852 Y14.734 I-1 J0.015
G1 X82.664 Y14.419
G2 X82.292 Y14.058 I-0.858 J0.513
X82.653 Y13.687 I-0.513 J-0.858
G1 X82.831 Y13.366
G2 X82.958 Y12.864 I-0.873 J-0.487
X83.46 Y12.991 I0.487 J-0.873
G1 X83.827 Y12.985
G2 X84.325 Y12.844 I-0.015 J-1
X84.466 Y13.342 I1 J-0.015
G1 X84.655 Y13.657
G2 X85.026 Y14.017 I0.858 J-0.513
X84.666 Y14.389 I0.513 J0.858
G1 X84.487 Y14.709
G2 X84.36 Y15.211 I0.873 J0.487
X83.942 Y15.087 I-0.487 J0.873
G3 X83.848 Y15.056 Z-2.873 I0.014 J-0.2 F480
X83.794 Y15.006 Z-2.8 I0.108 J-0.169
X83.78 Y14.984 Z-2.7 I0.161 J-0.119
G0 Z5
X63.341 Y19.227
Z2
G1 Z-0.8 F60
G3 X63.316 Y19.234 Z-0.9 I-0.07 J-0.187
X63.243 Y19.237 Z-0.973 I-0.044 J-0.195
X63.152 Y19.199 Z-1 I0.029 J-0.198
X63.507 Y18.725 I0.178 J-0.237 F240
X63.152 Y19.199 I-0.178 J0.237
G2 X62.596 Y19.139 I-0.329 J0.439
G3 X62.254 Y18.697 I-0.119 J-0.262
G2 X62.334 Y18.581 I-0.778 J-0.628
G1 X62.522 Y18.266
G2 X62.664 Y17.768 I-0.859 J-0.513
X63.162 Y17.91 I0.513 J-0.859
G1 X63.529 Y17.915
G2 X64.031 Y17.789 I0.015 J-1
X64.157 Y18.291 I1 J0.015
G1 X64.336 Y18.611
G2 X64.697 Y18.983 I0.873 J-0.487
X64.325 Y19.343 I0.487 J0.873
G1 X64.137 Y19.658
G2 X63.995 Y20.156 I0.858 J0.513
X63.497 Y20.015 I-0.513 J0.859
G1 X63.13 Y20.009
G2 X62.628 Y20.136 I-0.015 J1
X62.502 Y19.634 I-1 J-0.015
G1 X62.323 Y19.313
G2 X61.963 Y18.942 I-0.873 J0.487
X62.254 Y18.697 I-0.487 J-0.873
G3 X62.458 Y18.628 I0.156 J0.126
G1 X63.321 Y18.845
G3 X63.341 Y19.227 I-0.049 J0.194
G1 Z-1.8 F60
G3 X63.316 Y19.234 Z-1.9 I-0.07 J-0.187
X63.243 Y19.237 Z-1.973 I-0.044 J-0.195
X63.152 Y19.199 Z-2 I0.029 J-0.198
X63.507 Y18.725 I0.178 J-0.237 F240
X63.152 Y19.199 I-0.178 J0.237
G2 X62.596 Y19.139 I-0.329 J0.439
G3 X62.254 Y18.697 I-0.119 J-0.262
G2 X62.334 Y18.581 I-0.778 J-0.628
G1 X62.522 Y18.266
G2 X62.664 Y17.768 I-0.859 J-0.513
X63.162 Y17.91 I0.513 J-0.859
G1 X63.529 Y17.915
G2 X64.031 Y17.789 I0.015 J-1
X64.157 Y18.291 I1 J0.015
G1 X64.336 Y18.611
G2 X64.697 Y18.983 I0.873 J-0.487
X64.325 Y19.343 I0.487 J0.873
G1 X64.137 Y19.658
G2 X63.995 Y20.156 I0.858 J0.513
X63.497 Y20.015 I-0.513 J0.859
G1 X63.13 Y20.009
G2 X62.628 Y20.136 I-0.015 J1
X62.502 Y19.634 I-1 J-0.015
G1 X62.323 Y19.313
G2 X61.963 Y18.942 I-0.873 J0.487
X62.254 Y18.697 I-0.487 J-0.873
G3 X62.458 Y18.628 I0.156 J0.126
G1 X63.321 Y18.845
G3 X63.341 Y19.227 I-0.049 J0.194
G1 Z-2.7 F60
G3 X63.316 Y19.234 Z-2.8 I-0.07 J-0.187
X63.243 Y19.237 Z-2.873 I-0.044 J-0.195
X63.152 Y19.199 Z-2.9 I0.029 J-0.198
X63.507 Y18.725 I0.178 J-0.237 F240
X63.152 Y19.199 I-0.178 J0.237
G2 X62.596 Y19.139 I-0.329 J0.439
G3 X62.254 Y18.697 I-0.119 J-0.262
G2 X62.334 Y18.581 I-0.778 J-0.628
G1 X62.522 Y18.266
G2 X62.664 Y17.768 I-0.859 J-0.513
X63.162 Y17.91 I0.513 J-0.859
G1 X63.529 Y17.915
G2 X64.031 Y17.789 I0.015 J-1
X64.157 Y18.291 I1 J0.015
G1 X64.336 Y18.611
G2 X64.697 Y18.983 I0.873 J-0.487
X64.325 Y19.343 I0.487 J0.873
G1 X64.137 Y19.658
G2 X63.995 Y20.156 I0.858 J0.513
X63.497 Y20.015 I-0.513 J0.859
G1 X63.13 Y20.009
G2 X62.628 Y20.136 I-0.015 J1
X62.502 Y19.634 I-1 J-0.015
G1 X62.323 Y19.313
G2 X61.963 Y18.942 I-0.873 J0.487
X62.254 Y18.697 I-0.487 J-0.873
G3 X62.333 Y18.637 Z-2.873 I0.156 J0.126 F480
X62.404 Y18.622 Z-2.8 I0.076 J0.185
X62.431 Y18.623 Z-2.7 I0.005 J0.2
G0 Z5
X35.205 Y32.794
Z2
G1 Z-0.8 F60
G3 X35.226 Y32.81 Z-0.9 I-0.108 J0.168
X35.272 Y32.866 Z-0.973 I-0.13 J0.152
X35.296 Y32.962 Z-1 I-0.176 J0.096
X34.703 I-0.296 J0 F240
X35.296 I0.296 J0
G2 X35.517 Y33.49 I0.741 J0
G3 X35.282 Y34.012 I-0.214 J0.217
G2 X35.199 Y34.009 I-0.068 J0.998
G1 X34.832 Y34.015
G2 X34.334 Y34.156 I0.015 J1
X34.193 Y33.658 I-1 J0.015
G1 X34.004 Y33.343
G2 X33.633 Y32.983 I-0.858 J0.513
X33.994 Y32.611 I-0.513 J-0.859
G1 X34.172 Y32.291
G2 X34.299 Y31.789 I-0.873 J-0.487
X34.801 Y31.915 I0.487 J-0.873
G1 X35.168 Y31.91
G2 X35.666 Y31.768 I-0.015 J-1
X35.807 Y32.266 I1 J-0.015
G1 X35.996 Y32.581
G2 X36.367 Y32.942 I0.858 J-0.513
X36.006 Y33.313 I0.513 J0.859
G1 X35.828 Y33.634
G2 X35.701 Y34.136 I0.873 J0.487
X35.282 Y34.012 I-0.487 J0.873
G3 X35.101 Y33.858 I0.014 J-0.2
G1 X34.902 Y33.008
G3 X35.205 Y32.794 I0.195 J-0.046
G1 Z-1.8 F60
G3 X35.226 Y32.81 Z-1.9 I-0.108 J0.168
X35.272 Y32.866 Z-1.973 I-0.13 J0.152
X35.296 Y32.962 Z-2 I-0.176 J0.096
X34.703 I-0.296 J0 F240
X35.296 I0.296 J0
G2 X35.517 Y33.49 I0.741 J0
G3 X35.282 Y34.012 I-0.214 J0.217
G2 X35.199 Y34.009 I-0.068 J0.998
G1 X34.832 Y34.015
G2 X34.334 Y34.156 I0.015 J1
X34.193 Y33.658 I-1 J0.015
G1 X34.004 Y33.343
G2 X33.633 Y32.983 I-0.858 J0.513
X33.994 Y32.611 I-0.513 J-0.859
G1 X34.172 Y32.291
G2 X34.299 Y31.789 I-0.873 J-0.487
X34.801 Y31.915 I0.487 J-0.873
G1 X35.168 Y31.91
G2 X35.666 Y31.768 I-0.015 J-1
X35.807 Y32.266 I1 J-0.015
G1 X35.996 Y32.581
G2 X36.367 Y32.942 I0.858 J-0.513
X36.006 Y33.313 I0.513 J0.859
G1 X35.828 Y33.634
G2 X35.701 Y34.136 I0.873 J0.487
X35.282 Y34.012 I-0.487 J0.873
G3 X35.101 Y33.858 I0.014 J-0.2
G1 X34.902 Y33.008
G3 X35.205 Y32.794 I0.195 J-0.046
G1 Z-2.7 F60
G3 X35.226 Y32.81 Z-2.8 I-0.108 J0.168
X35.272 Y32.866 Z-2.873 I-0.13 J0.152
X35.296 Y32.962 Z-2.9 I-0.176 J0.096
X34.703 I-0.296 J0 F240
X35.296 I0.296 J0
G2 X35.517 Y33.49 I0.741 J0
G3 X35.282 Y34.012 I-0.214 J0.217
G2 X35.199 Y34.009 I-0.068 J0.998
G1 X34.832 Y34.015
G2 X34.334 Y34.156 I0.015 J1
X34.193 Y33.658 I-1 J0.015
G1 X34.004 Y33.343
G2 X33.633 Y32.983 I-0.858 J0.513
X33.994 Y32.611 I-0.513 J-0.859
G1 X34.172 Y32.291
G2 X34.299 Y31.789 I-0.873 J-0.487
X34.801 Y31.915 I0.487 J-0.873
G1 X35.168 Y31.91
G2 X35.666 Y31.768 I-0.015 J-1
X35.807 Y32.266 I1 J-0.015
G1 X35.996 Y32.581
G2 X36.367 Y32.942 I0.858 J-0.513
X36.006 Y33.313 I0.513 J0.859
G1 X35.828 Y33.634
G2 X35.701 Y34.136 I0.873 J0.487
X35.282 Y34.012 I-0.487 J0.873
G3 X35.188 Y33.981 Z-2.873 I0.014 J-0.2 F480
X35.135 Y33.931 Z-2.8 I0.108 J-0.169
X35.121 Y33.908 Z-2.7 I0.161 J-0.119
G0 Z5
X49.369 Y26.832
Z2
G1 Z-0.8 F60
G3 X49.391 Y26.848 Z-0.9 I-0.108 J0.168
X49.437 Y26.904 Z-0.973 I-0.13 J0.152
X49.461 Y27 Z-1 I-0.176 J0.096
X48.868 I-0.297 J0 F240
X49.461 I0.297 J0
G2 X49.665 Y27.537 I0.809 J0
G3 X49.413 Y28.052 I-0.232 J0.206
G2 X49.348 Y28.05 I-0.064 J0.998
G1 X48.981
G2 X48.481 Y28.184 I0 J1
X48.347 Y27.684 I-1 J0
G1 X48.164 Y27.366
G2 X47.798 Y27 I-0.866 J0.5
X48.164 Y26.634 I-0.5 J-0.866
G1 X48.347 Y26.316
G2 X48.481 Y25.816 I-0.866 J-0.5
X48.981 Y25.95 I0.5 J-0.866
G1 X49.348
G2 X49.848 Y25.816 I0 J-1
X49.982 Y26.316 I1 J0
G1 X50.166 Y26.634
G2 X50.532 Y27 I0.866 J-0.5
X50.166 Y27.366 I0.5 J0.866
G1 X49.982 Y27.684
G2 X49.848 Y28.184 I0.866 J0.5
X49.413 Y28.052 I-0.5 J0.866
G3 X49.229 Y27.89 I0.013 J-0.2
G1 X49.065 Y27.038
G3 X49.369 Y26.832 I0.196 J-0.038
G1 Z-1.8 F60
G3 X49.391 Y26.848 Z-1.9 I-0.108 J0.168
X49.437 Y26.904 Z-1.973 I-0.13 J0.152
X49.461 Y27 Z-2 I-0.176 J0.096
X48.868 I-0.297 J0 F240
X49.461 I0.297 J0
G2 X49.665 Y27.537 I0.809 J0
G3 X49.413 Y28.052 I-0.232 J0.206
G2 X49.348 Y28.05 I-0.064 J0.998
G1 X48.981
G2 X48.481 Y28.184 I0 J1
X48.347 Y27.684 I-1 J0
G1 X48.164 Y27.366
G2 X47.798 Y27 I-0.866 J0.5
X48.164 Y26.634 I-0.5 J-0.866
G1 X48.347 Y26.316
G2 X48.481 Y25.816 I-0.866 J-0.5
X48.981 Y25.95 I0.5 J-0.866
G1 X49.348
G2 X49.848 Y25.816 I0 J-1
X49.982 Y26.316 I1 J0
G1 X50.166 Y26.634
G2 X50.532 Y27 I0.866 J-0.5
X50.166 Y27.366 I0.5 J0.866
G1 X49.982 Y27.684
G2 X49.848 Y28.184 I0.866 J0.5
X49.413 Y28.052 I-0.5 J0.866
G3 X49.229 Y27.89 I0.013 J-0.2
G1 X49.065 Y27.038
G3 X49.369 Y26.832 I0.196 J-0.038
G1 Z-2.7 F60
G3 X49.391 Y26.848 Z-2.8 I-0.108 J0.168
X49.437 Y26.904 Z-2.873 I-0.13 J0.152
X49.461 Y27 Z-2.9 I-0.176 J0.096
X48.868 I-0.297 J0 F240
X49.461 I0.297 J0
G2 X49.665 Y27.537 I0.809 J0
G3 X49.413 Y28.052 I-0.232 J0.206
G2 X49.348 Y28.05 I-0.064 J0.998
G1 X48.981
G2 X48.481 Y28.184 I0 J1
X48.347 Y27.684 I-1 J0
G1 X48.164 Y27.366
G2 X47.798 Y27 I-0.866 J0.5
X48.164 Y26.634 I-0.5 J-0.866
G1 X48.347 Y26.316
G2 X48.481 Y25.816 I-0.866 J-0.5
X48.981 Y25.95 I0.5 J-0.866
G1 X49.348
G2 X49.848 Y25.816 I0 J-1
X49.982 Y26.316 I1 J0
G1 X50.166 Y26.634
G2 X50.532 Y27 I0.866 J-0.5
X50.166 Y27.366 I0.5 J0.866
G1 X49.982 Y27.684
G2 X49.848 Y28.184 I0.866 J0.5
X49.413 Y28.052 I-0.5 J0.866
G3 X49.319 Y28.021 Z-2.873 I0.013 J-0.2 F480
X49.265 Y27.972 Z-2.8 I0.107 J-0.169
X49.251 Y27.949 Z-2.7 I0.16 J-0.119
G0 Z5
X35.205 Y18.794
Z2
G1 Z-0.8 F60
G3 X35.226 Y18.81 Z-0.9 I-0.108 J0.168
X35.272 Y18.866 Z-0.973 I-0.13 J0.152
X35.296 Y18.962 Z-1 I-0.176 J0.096
X34.704 I-0.296 J0 F240
X35.296 I0.296 J0
G2 X35.517 Y19.49 I0.741 J0
G3 X35.282 Y20.012 I-0.214 J0.217
G2 X35.199 Y20.009 I-0.068 J0.998
G1 X34.832 Y20.015
G2 X34.334 Y20.156 I0.015 J1
X34.193 Y19.658 I-1 J0.015
G1 X34.004 Y19.343
G2 X33.633 Y18.983 I-0.858 J0.513
X33.994 Y18.611 I-0.513 J-0.859
G1 X34.172 Y18.291
G2 X34.299 Y17.789 I-0.873 J-0.487
X34.801 Y17.915 I0.487 J-0.873
G1 X35.168 Y17.91
G2 X35.666 Y17.768 I-0.015 J-1
X35.807 Y18.266 I1 J-0.015
G1 X35.996 Y18.581
G2 X36.367 Y18.942 I0.858 J-0.513
X36.006 Y19.313 I0.513 J0.859
G1 X35.828 Y19.634
G2 X35.701 Y20.136 I0.873 J0.487
X35.282 Y20.012 I-0.487 J0.873
G3 X35.101 Y19.858 I0.014 J-0.2
G1 X34.902 Y19.008
G3 X35.205 Y18.794 I0.195 J-0.046
G1 Z-1.8 F60
G3 X35.226 Y18.81 Z-1.9 I-0.108 J0.168
X35.272 Y18.866 Z-1.973 I-0.13 J0.152
X35.296 Y18.962 Z-2 I-0.176 J0.096
X34.704 I-0.296 J0 F240
X35.296 I0.296 J0
G2 X35.517 Y19.49 I0.741 J0
G3 X35.282 Y20.012 I-0.214 J0.217
G2 X35.199 Y20.009 I-0.068 J0.998
G1 X34.832 Y20.015
G2 X34.334 Y20.156 I0.015 J1
X34.193 Y19.658 I-1 J0.015
G1 X34.004 Y19.343
G2 X33.633 Y18.983 I-0.858 J0.513
X33.994 Y18.611 I-0.513 J-0.859
G1 X34.172 Y18.291
G2 X34.299 Y17.789 I-0.873 J-0.487
X34.801 Y17.915 I0.487 J-0.873
G1 X35.168 Y17.91
G2 X35.666 Y17.768 I-0.015 J-1
X35.807 Y18.266 I1 J-0.015
G1 X35.996 Y18.581
G2 X36.367 Y18.942 I0.858 J-0.513
X36.006 Y19.313 I0.513 J0.859
G1 X35.828 Y19.634
G2 X35.701 Y20.136 I0.873 J0.487
X35.282 Y20.012 I-0.487 J0.873
G3 X35.101 Y19.858 I0.014 J-0.2
G1 X34.902 Y19.008
G3 X35.205 Y18.794 I0.195 J-0.046
G1 Z-2.7 F60
G3 X35.226 Y18.81 Z-2.8 I-0.108 J0.168
X35.272 Y18.866 Z-2.873 I-0.13 J0.152
X35.296 Y18.962 Z-2.9 I-0.176 J0.096
X34.704 I-0.296 J0 F240
X35.296 I0.296 J0
G2 X35.517 Y19.49 I0.741 J0
G3 X35.282 Y20.012 I-0.214 J0.217
G2 X35.199 Y20.009 I-0.068 J0.998
G1 X34.832 Y20.015
G2 X34.334 Y20.156 I0.015 J1
X34.193 Y19.658 I-1 J0.015
G1 X34.004 Y19.343
G2 X33.633 Y18.983 I-0.858 J0.513
X33.994 Y18.611 I-0.513 J-0.859
G1 X34.172 Y18.291
G2 X34.299 Y17.789 I-0.873 J-0.487
X34.801 Y17.915 I0.487 J-0.873
G1 X35.168 Y17.91
G2 X35.666 Y17.768 I-0.015 J-1
X35.807 Y18.266 I1 J-0.015
G1 X35.996 Y18.581
G2 X36.367 Y18.942 I0.858 J-0.513
X36.006 Y19.313 I0.513 J0.859
G1 X35.828 Y19.634
G2 X35.701 Y20.136 I0.873 J0.487
X35.282 Y20.012 I-0.487 J0.873
G3 X35.188 Y19.981 Z-2.873 I0.014 J-0.2 F480
X35.135 Y19.931 Z-2.8 I0.108 J-0.169
X35.121 Y19.908 Z-2.7 I0.161 J-0.119
G0 Z5
X49.369 Y40.832
Z2
G1 Z-0.8 F60
G3 X49.391 Y40.848 Z-0.9 I-0.108 J0.168
X49.437 Y40.904 Z-0.973 I-0.13 J0.152
X49.461 Y41 Z-1 I-0.176 J0.096
X48.868 I-0.297 J0 F240
X49.461 I0.297 J0
G2 X49.665 Y41.537 I0.809 J0
G3 X49.413 Y42.052 I-0.232 J0.206
G2 X49.348 Y42.05 I-0.064 J0.998
G1 X48.981
G2 X48.481 Y42.184 I0 J1
X48.347 Y41.684 I-1 J0
G1 X48.164 Y41.366
G2 X47.798 Y41 I-0.866 J0.5
X48.164 Y40.634 I-0.5 J-0.866
G1 X48.347 Y40.316
G2 X48.481 Y39.816 I-0.866 J-0.5
X48.981 Y39.95 I0.5 J-0.866
G1 X49.348
G2 X49.848 Y39.816 I0 J-1
X49.982 Y40.316 I1 J0
G1 X50.166 Y40.634
G2 X50.532 Y41 I0.866 J-0.5
X50.166 Y41.366 I0.5 J0.866
G1 X49.982 Y41.684
G2 X49.848 Y42.184 I0.866 J0.5
X49.413 Y42.052 I-0.5 J0.866
G3 X49.229 Y41.89 I0.013 J-0.2
G1 X49.065 Y41.038
G3 X49.369 Y40.832 I0.196 J-0.038
G1 Z-1.8 F60
G3 X49.391 Y40.848 Z-1.9 I-0.108 J0.168
X49.437 Y40.904 Z-1.973 I-0.13 J0.152
X49.461 Y41 Z-2 I-0.176 J0.096
X48.868 I-0.297 J0 F240
X49.461 I0.297 J0
G2 X49.665 Y41.537 I0.809 J0
G3 X49.413 Y42.052 I-0.232 J0.206
G2 X49.348 Y42.05 I-0.064 J0.998
G1 X48.981
G2 X48.481 Y42.184 I0 J1
X48.347 Y41.684 I-1 J0
G1 X48.164 Y41.366
G2 X47.798 Y41 I-0.866 J0.5
X48.164 Y40.634 I-0.5 J-0.866
G1 X48.347 Y40.316
G2 X48.481 Y39.816 I-0.866 J-0.5
X48.981 Y39.95 I0.5 J-0.866
G1 X49.348
G2 X49.848 Y39.816 I0 J-1
X49.982 Y40.316 I1 J0
G1 X50.166 Y40.634
G2 X50.532 Y41 I0.866 J-0.5
X50.166 Y41.366 I0.5 J0.866
G1 X49.982 Y41.684
G2 X49.848 Y42.184 I0.866 J0.5
X49.413 Y42.052 I-0.5 J0.866
G3 X49.229 Y41.89 I0.013 J-0.2
G1 X49.065 Y41.038
G3 X49.369 Y40.832 I0.196 J-0.038
G1 Z-2.7 F60
G3 X49.391 Y40.848 Z-2.8 I-0.108 J0.168
X49.437 Y40.904 Z-2.873 I-0.13 J0.152
X49.461 Y41 Z-2.9 I-0.176 J0.096
X48.868 I-0.297 J0 F240
X49.461 I0.297 J0
G2 X49.665 Y41.537 I0.809 J0
G3 X49.413 Y42.052 I-0.232 J0.206
G2 X49.348 Y42.05 I-0.064 J0.998
G1 X48.981
G2 X48.481 Y42.184 I0 J1
X48.347 Y41.684 I-1 J0
G1 X48.164 Y41.366
G2 X47.798 Y41 I-0.866 J0.5
X48.164 Y40.634 I-0.5 J-0.866
G1 X48.347 Y40.316
G2 X48.481 Y39.816 I-0.866 J-0.5
X48.981 Y39.95 I0.5 J-0.866
G1 X49.348
G2 X49.848 Y39.816 I0 J-1
X49.982 Y40.316 I1 J0
G1 X50.166 Y40.634
G2 X50.532 Y41 I0.866 J-0.5
X50.166 Y41.366 I0.5 J0.866
G1 X49.982 Y41.684
G2 X49.848 Y42.184 I0.866 J0.5
X49.413 Y42.052 I-0.5 J0.866
G3 X49.319 Y42.021 Z-2.873 I0.013 J-0.2 F480
X49.265 Y41.972 Z-2.8 I0.107 J-0.169
X49.251 Y41.949 Z-2.7 I0.16 J-0.12
G0 Z5
X63.534 Y32.794
Z2
G1 Z-0.8 F60
G3 X63.556 Y32.81 Z-0.9 I-0.108 J0.168
X63.602 Y32.866 Z-0.973 I-0.13 J0.152
X63.626 Y32.962 Z-1 I-0.176 J0.096
X63.033 I-0.296 J0 F240
X63.626 I0.296 J0
G2 X63.891 Y33.489 I0.657 J0
G3 X63.657 Y34.03 I-0.181 J0.243
G2 X63.497 Y34.015 I-0.174 J0.985
G1 X63.13 Y34.009
G2 X62.628 Y34.136 I-0.015 J1
X62.502 Y33.634 I-1 J-0.015
G1 X62.323 Y33.313
G2 X61.963 Y32.942 I-0.873 J0.487
X62.334 Y32.581 I-0.487 J-0.873
G1 X62.522 Y32.266
G2 X62.664 Y31.768 I-0.859 J-0.513
X63.162 Y31.91 I0.513 J-0.859
G1 X63.529 Y31.915
G2 X64.031 Y31.789 I0.015 J-1
X64.157 Y32.291 I1 J0.015
G1 X64.336 Y32.611
G2 X64.697 Y32.983 I0.873 J-0.487
X64.325 Y33.343 I0.487 J0.873
G1 X64.137 Y33.658
G2 X63.995 Y34.156 I0.858 J0.513
X63.657 Y34.03 I-0.513 J0.859
G3 X63.5 Y33.891 I0.035 J-0.197
G1 X63.235 Y33.021
G3 X63.534 Y32.794 I0.191 J-0.058
G1 Z-1.8 F60
G3 X63.556 Y32.81 Z-1.9 I-0.108 J0.168
X63.602 Y32.866 Z-1.973 I-0.13 J0.152
X63.626 Y32.962 Z-2 I-0.176 J0.096
X63.033 I-0.296 J0 F240
X63.626 I0.296 J0
G2 X63.891 Y33.489 I0.657 J0
G3 X63.657 Y34.03 I-0.181 J0.243
G2 X63.497 Y34.015 I-0.174 J0.985
G1 X63.13 Y34.009
G2 X62.628 Y34.136 I-0.015 J1
X62.502 Y33.634 I-1 J-0.015
G1 X62.323 Y33.313
G2 X61.963 Y32.942 I-0.873 J0.487
X62.334 Y32.581 I-0.487 J-0.873
G1 X62.522 Y32.266
G2 X62.664 Y31.768 I-0.859 J-0.513
X63.162 Y31.91 I0.513 J-0.859
G1 X63.529 Y31.915
G2 X64.031 Y31.789 I0.015 J-1
X64.157 Y32.291 I1 J0.015
G1 X64.336 Y32.611
G2 X64.697 Y32.983 I0.873 J-0.487
X64.325 Y33.343 I0.487 J0.873
G1 X64.137 Y33.658
G2 X63.995 Y34.156 I0.858 J0.513
X63.657 Y34.03 I-0.513 J0.859
G3 X63.5 Y33.891 I0.035 J-0.197
G1 X63.235 Y33.021
G3 X63.534 Y32.794 I0.191 J-0.058
G1 Z-2.7 F60
G3 X63.556 Y32.81 Z-2.8 I-0.108 J0.168
X63.602 Y32.866 Z-2.873 I-0.13 J0.152
X63.626 Y32.962 Z-2.9 I-0.176 J0.096
X63.033 I-0.296 J0 F240
X63.626 I0.296 J0
G2 X63.891 Y33.489 I0.657 J0
G3 X63.657 Y34.03 I-0.181 J0.243
G2 X63.497 Y34.015 I-0.174 J0.985
G1 X63.13 Y34.009
G2 X62.628 Y34.136 I-0.015 J1
X62.502 Y33.634 I-1 J-0.015
G1 X62.323 Y33.313
G2 X61.963 Y32.942 I-0.873 J0.487
X62.334 Y32.581 I-0.487 J-0.873
G1 X62.522 Y32.266
G2 X62.664 Y31.768 I-0.859 J-0.513
X63.162 Y31.91 I0.513 J-0.859
G1 X63.529 Y31.915
G2 X64.031 Y31.789 I0.015 J-1
X64.157 Y32.291 I1 J0.015
G1 X64.336 Y32.611
G2 X64.697 Y32.983 I0.873 J-0.487
X64.325 Y33.343 I0.487 J0.873
G1 X64.137 Y33.658
G2 X63.995 Y34.156 I0.858 J0.513
X63.657 Y34.03 I-0.513 J0.859
G3 X63.567 Y33.989 Z-2.873 I0.035 J-0.197 F480
X63.519 Y33.934 Z-2.8 I0.125 J-0.156
X63.507 Y33.91 Z-2.7 I0.173 J-0.101
G0 Z15

(SCREW HOLES)
M8
G0 X42.993 Y13.939
Z15
Z2
G1 Z-0.9 F60
Z-3.7
G3 X42.989 Y13.913 Z-3.8 I0.195 J-0.043
X42.996 Y13.84 Z-3.873 I0.199 J-0.016
X43.047 Y13.755 Z-3.9 I0.192 J0.056
X43.612 Y14.321 I0.283 J0.283 F240
X43.047 Y13.755 I-0.283 J-0.283
X43.127 Y13.802 I0.034 J0.034
G1 X43.086 Y13.942
G3 X42.993 Y13.939 I-0.046 J-0.013
G1 Z-4.38 F60
G3 X42.989 Y13.913 Z-4.48 I0.195 J-0.043
X42.996 Y13.84 Z-4.553 I0.199 J-0.016
X43.047 Y13.755 Z-4.58 I0.192 J0.056
X43.612 Y14.321 I0.283 J0.283 F240
X43.047 Y13.755 I-0.283 J-0.283
X43.132 Y13.704 Z-4.553 I0.141 J0.141 F480
X43.204 Y13.697 Z-4.48 I0.056 J0.192
X43.231 Y13.701 Z-4.38 I-0.016 J0.199
G0 Z5
X28.828 Y5.901
Z2
G1 Z-0.9 F60
Z-3.7
G3 X28.824 Y5.875 Z-3.8 I0.195 J-0.043
X28.831 Y5.802 Z-3.873 I0.199 J-0.016
X28.882 Y5.717 Z-3.9 I0.192 J0.056
X29.448 Y6.283 I0.283 J0.283 F240
X28.882 Y5.717 I-0.283 J-0.283
X28.962 Y5.765 I0.034 J0.034
G1 X28.921 Y5.904
G3 X28.828 Y5.901 I-0.046 J-0.013
G1 Z-4.38 F60
G3 X28.824 Y5.875 Z-4.48 I0.195 J-0.043
X28.831 Y5.802 Z-4.553 I0.199 J-0.016
X28.882 Y5.717 Z-4.58 I0.192 J0.056
X29.448 Y6.283 I0.283 J0.283 F240
X28.882 Y5.717 I-0.283 J-0.283
X28.967 Y5.667 Z-4.553 I0.141 J0.141 F480
X29.039 Y5.659 Z-4.48 I0.056 J0.192
X29.066 Y5.663 Z-4.38 I-0.016 J0.199
G0 Z5
X14.663 Y13.939
Z2
G1 Z-0.9 F60
Z-3.7
G3 X14.659 Y13.913 Z-3.8 I0.195 J-0.043
X14.667 Y13.84 Z-3.873 I0.199 J-0.016
X14.717 Y13.755 Z-3.9 I0.192 J0.056
X15.283 Y14.321 I0.283 J0.283 F240
X14.717 Y13.755 I-0.283 J-0.283
X14.797 Y13.802 I0.034 J0.034
G1 X14.756 Y13.942
G3 X14.663 Y13.939 I-0.046 J-0.013
G1 Z-4.38 F60
G3 X14.659 Y13.913 Z-4.48 I0.195 J-0.043
X14.667 Y13.84 Z-4.553 I0.199 J-0.016
X14.717 Y13.755 Z-4.58 I0.192 J0.056
X15.283 Y14.321 I0.283 J0.283 F240
X14.717 Y13.755 I-0.283 J-0.283
X14.802 Y13.705 Z-4.553 I0.141 J0.141 F480
X14.875 Y13.697 Z-4.48 I0.056 J0.192
X14.901 Y13.701 Z-4.38 I-0.016 J0.199
G0 Z5
X54.993 Y13.939
Z2
G1 Z-0.9 F60
Z-3.7
G3 X54.989 Y13.913 Z-3.8 I0.195 J-0.043
X54.996 Y13.84 Z-3.873 I0.199 J-0.016
X55.047 Y13.755 Z-3.9 I0.192 J0.056
X55.612 Y14.321 I0.283 J0.283 F240
X55.047 Y13.755 I-0.283 J-0.283
X55.127 Y13.802 I0.034 J0.034
G1 X55.086 Y13.942
G3 X54.993 Y13.939 I-0.046 J-0.013
G1 Z-4.38 F60
G3 X54.989 Y13.913 Z-4.48 I0.195 J-0.043
X54.996 Y13.84 Z-4.553 I0.199 J-0.016
X55.047 Y13.755 Z-4.58 I0.192 J0.056
X55.612 Y14.321 I0.283 J0.283 F240
X55.047 Y13.755 I-0.283 J-0.283
X55.132 Y13.704 Z-4.553 I0.141 J0.141 F480
X55.204 Y13.697 Z-4.48 I0.056 J0.192
X55.231 Y13.701 Z-4.38 I-0.016 J0.199
G0 Z5
X69.617 Y6.329
Z2
G1 Z-0.9 F60
Z-3.7
G3 X69.599 Y6.348 Z-3.8 I-0.151 J-0.131
X69.536 Y6.385 Z-3.873 I-0.132 J-0.15
X69.438 Y6.396 Z-3.9 I-0.07 J-0.187
X69.551 Y5.604 I0.057 J-0.396 F240
X69.438 Y6.396 I-0.057 J0.396
X69.428 Y6.304 I0.007 J-0.047
G1 X69.564 Y6.253
G3 X69.617 Y6.329 I0.017 J0.045
G1 Z-4.38 F60
G3 X69.599 Y6.348 Z-4.48 I-0.151 J-0.131
X69.536 Y6.385 Z-4.553 I-0.132 J-0.15
X69.438 Y6.396 Z-4.58 I-0.07 J-0.187
X69.551 Y5.604 I0.057 J-0.396 F240
X69.438 Y6.396 I-0.057 J0.396
X69.346 Y6.358 Z-4.553 I0.028 J-0.198 F480
X69.297 Y6.305 Z-4.48 I0.12 J-0.16
X69.284 Y6.281 Z-4.38 I0.169 J-0.107
G0 Z5
X83.322 Y13.939
Z2
G1 Z-0.9 F60
Z-3.7
G3 X83.318 Y13.913 Z-3.8 I0.195 J-0.043
X83.326 Y13.84 Z-3.873 I0.199 J-0.016
X83.376 Y13.755 Z-3.9 I0.192 J0.056
X83.942 Y14.321 I0.283 J0.283 F240
X83.376 Y13.755 I-0.283 J-0.283
X83.456 Y13.802 I0.034 J0.034
G1 X83.415 Y13.942
G3 X83.322 Y13.939 I-0.046 J-0.013
G1 Z-4.38 F60
G3 X83.318 Y13.913 Z-4.48 I0.195 J-0.043
X83.326 Y13.84 Z-4.553 I0.199 J-0.016
X83.376 Y13.755 Z-4.58 I0.192 J0.056
X83.942 Y14.321 I0.283 J0.283 F240
X83.376 Y13.755 I-0.283 J-0.283
X83.461 Y13.705 Z-4.553 I0.141 J0.141 F480
X83.534 Y13.697 Z-4.48 I0.056 J0.192
X83.56 Y13.701 Z-4.38 I-0.016 J0.199
G0 Z5
X63.049 Y19.172
Z2
G1 Z-0.9 F60
Z-3.7
G3 X63.025 Y19.16 Z-3.8 I0.083 J-0.182
X62.971 Y19.11 Z-3.873 I0.107 J-0.169
X62.934 Y19.019 Z-3.9 I0.16 J-0.12
X63.726 Y18.906 I0.396 J-0.057 F240
X62.934 Y19.019 I-0.396 J0.057
X63.02 Y18.983 I0.047 J-0.007
G1 X63.107 Y19.1
G3 X63.049 Y19.172 I-0.038 J0.029
G1 Z-4.38 F60
G3 X63.025 Y19.16 Z-4.48 I0.083 J-0.182
X62.971 Y19.11 Z-4.553 I0.107 J-0.169
X62.934 Y19.019 Z-4.58 I0.16 J-0.12
X63.726 Y18.906 I0.396 J-0.057 F240
X62.934 Y19.019 I-0.396 J0.057
X62.944 Y18.92 Z-4.553 I0.198 J-0.028 F480
X62.982 Y18.858 Z-4.48 I0.187 J0.07
X63.001 Y18.839 Z-4.38 I0.15 J0.132
G0 Z5
X49.502 Y27.099
Z2
G1 Z-0.9 F60
Z-3.7
G3 X49.506 Y27.125 Z-3.8 I-0.195 J0.043
X49.498 Y27.198 Z-3.873 I-0.199 J0.016
X49.448 Y27.283 Z-3.9 I-0.192 J-0.056
X48.882 Y26.717 I-0.283 J-0.283 F240
X49.448 Y27.283 I0.283 J0.283
X49.368 Y27.235 I-0.034 J-0.034
G1 X49.409 Y27.095
G3 X49.502 Y27.099 I0.046 J0.013
G1 Z-4.38 F60
G3 X49.506 Y27.125 Z-4.48 I-0.195 J0.043
X49.498 Y27.198 Z-4.553 I-0.199 J0.016
X49.448 Y27.283 Z-4.58 I-0.192 J-0.056
X48.882 Y26.717 I-0.283 J-0.283 F240
X49.448 Y27.283 I0.283 J0.283
X49.362 Y27.333 Z-4.553 I-0.141 J-0.141 F480
X49.29 Y27.341 Z-4.48 I-0.056 J-0.192
X49.264 Y27.337 Z-4.38 I0.016 J-0.199
G0 Z5
X34.719 Y33.172
Z2
G1 Z-0.9 F60
Z-3.7
G3 X34.695 Y33.16 Z-3.8 I0.083 J-0.182
X34.642 Y33.11 Z-3.873 I0.107 J-0.169
X34.604 Y33.019 Z-3.9 I0.16 J-0.12
X35.396 Y32.906 I0.396 J-0.057 F240
X34.604 Y33.019 I-0.396 J0.057
X34.69 Y32.983 I0.047 J-0.007
G1 X34.777 Y33.1
G3 X34.719 Y33.172 I-0.038 J0.029
G1 Z-4.38 F60
G3 X34.695 Y33.16 Z-4.48 I0.083 J-0.182
X34.642 Y33.11 Z-4.553 I0.107 J-0.169
X34.604 Y33.019 Z-4.58 I0.16 J-0.12
X35.396 Y32.906 I0.396 J-0.057 F240
X34.604 Y33.019 I-0.396 J0.057
X34.615 Y32.92 Z-4.553 I0.198 J-0.028 F480
X34.652 Y32.858 Z-4.48 I0.187 J0.07
X34.671 Y32.839 Z-4.38 I0.15 J0.132
G0 Z5
X35.337 Y19.061
Z2
G1 Z-0.9 F60
Z-3.7
G3 X35.341 Y19.087 Z-3.8 I-0.195 J0.043
X35.333 Y19.16 Z-3.873 I-0.199 J0.016
X35.283 Y19.245 Z-3.9 I-0.192 J-0.056
X34.717 Y18.679 I-0.283 J-0.283 F240
X35.283 Y19.245 I0.283 J0.283
X35.203 Y19.198 I-0.034 J-0.034
G1 X35.244 Y19.058
G3 X35.337 Y19.061 I0.046 J0.013
G1 Z-4.38 F60
G3 X35.341 Y19.087 Z-4.48 I-0.195 J0.043
X35.333 Y19.16 Z-4.553 I-0.199 J0.016
X35.283 Y19.245 Z-4.58 I-0.192 J-0.056
X34.717 Y18.679 I-0.283 J-0.283 F240
X35.283 Y19.245 I0.283 J0.283
X35.198 Y19.295 Z-4.553 I-0.141 J-0.141 F480
X35.125 Y19.303 Z-4.48 I-0.056 J-0.192
X35.099 Y19.299 Z-4.38 I0.016 J-0.199
G0 Z5
X49.502 Y41.099
Z2
G1 Z-0.9 F60
Z-3.7
G3 X49.506 Y41.125 Z-3.8 I-0.195 J0.043
X49.498 Y41.198 Z-3.873 I-0.199 J0.016
X49.448 Y41.283 Z-3.9 I-0.192 J-0.056
X48.882 Y40.717 I-0.283 J-0.283 F240
X49.448 Y41.283 I0.283 J0.283
X49.368 Y41.235 I-0.034 J-0.034
G1 X49.409 Y41.095
G3 X49.502 Y41.099 I0.046 J0.013
G1 Z-4.38 F60
G3 X49.506 Y41.125 Z-4.48 I-0.195 J0.043
X49.498 Y41.198 Z-4.553 I-0.199 J0.016
X49.448 Y41.283 Z-4.58 I-0.192 J-0.056
X48.882 Y40.717 I-0.283 J-0.283 F240
X49.448 Y41.283 I0.283 J0.283
X49.362 Y41.333 Z-4.553 I-0.141 J-0.141 F480
X49.29 Y41.341 Z-4.48 I-0.056 J-0.192
X49.264 Y41.337 Z-4.38 I0.016 J-0.199
G0 Z5
X63.049 Y33.172
Z2
G1 Z-0.9 F60
Z-3.7
G3 X63.025 Y33.16 Z-3.8 I0.083 J-0.182
X62.971 Y33.11 Z-3.873 I0.107 J-0.169
X62.934 Y33.019 Z-3.9 I0.16 J-0.12
X63.726 Y32.906 I0.396 J-0.057 F240
X62.934 Y33.019 I-0.396 J0.057
X63.02 Y32.983 I0.047 J-0.007
G1 X63.107 Y33.1
G3 X63.049 Y33.172 I-0.038 J0.029
G1 Z-4.38 F60
G3 X63.025 Y33.16 Z-4.48 I0.083 J-0.182
X62.971 Y33.11 Z-4.553 I0.107 J-0.169
X62.934 Y33.019 Z-4.58 I0.16 J-0.12
X63.726 Y32.906 I0.396 J-0.057 F240
X62.934 Y33.019 I-0.396 J0.057
X62.944 Y32.92 Z-4.553 I0.198 J-0.028 F480
X62.982 Y32.858 Z-4.48 I0.187 J0.07
X63.001 Y32.839 Z-4.38 I0.15 J0.132
G0 Z15

(CUTOUTS)
M8
G0 X17.808 Y17.687
Z15
Z2
G1 Z-0.8 F60
X17.803 Y17.682 Z-0.852
X17.79 Y17.667 Z-0.9
X17.77 Y17.642 Z-0.941
X17.743 Y17.611 Z-0.973
X17.712 Y17.574 Z-0.993
X17.679 Y17.534 Z-1
X17.55 Y17.381 F120
G3 X17.575 Y17.099 I0.153 J-0.129
G2 X17.824 Y16.784 I-0.644 J-0.765 F240
G3 X40.506 I11.341 J5.716
G2 X40.755 Y17.099 I0.893 J-0.45
X46.763 Y11.986 I2.575 J-3.061
X11.566 I-17.599 J10.514
X17.575 Y17.099 I3.434 J2.051
G3 X17.856 Y17.123 I0.129 J0.153 F480
G1 X17.985 Y17.277
X18.018 Y17.316 Z-0.993
X18.049 Y17.353 Z-0.973
X18.076 Y17.385 Z-0.941
X18.097 Y17.409 Z-0.9
X18.109 Y17.424 Z-0.852
X18.114 Y17.43 Z-0.8
X17.808 Y17.687
Z-1.8 F60
X17.803 Y17.682 Z-1.852
X17.79 Y17.667 Z-1.9
X17.77 Y17.642 Z-1.941
X17.743 Y17.611 Z-1.973
X17.712 Y17.574 Z-1.993
X17.679 Y17.534 Z-2
X17.55 Y17.381 F120
G3 X17.575 Y17.099 I0.153 J-0.129
G2 X17.824 Y16.784 I-0.644 J-0.765 F240
G3 X40.506 I11.341 J5.716
G2 X40.755 Y17.099 I0.893 J-0.45
X46.763 Y11.986 I2.575 J-3.061
X11.566 I-17.599 J10.514
X17.575 Y17.099 I3.434 J2.051
G3 X17.856 Y17.123 I0.129 J0.153 F480
G1 X17.985 Y17.277
X18.018 Y17.316 Z-1.993
X18.049 Y17.353 Z-1.973
X18.076 Y17.385 Z-1.941
X18.097 Y17.409 Z-1.9
X18.109 Y17.424 Z-1.852
X18.114 Y17.43 Z-1.8
X17.808 Y17.687
Z-2.8 F60
X17.803 Y17.682 Z-2.852
X17.79 Y17.667 Z-2.9
X17.77 Y17.642 Z-2.941
X17.743 Y17.611 Z-2.973
X17.712 Y17.574 Z-2.993
X17.679 Y17.534 Z-3
X17.55 Y17.381 F120
G3 X17.575 Y17.099 I0.153 J-0.129
G2 X17.824 Y16.784 I-0.644 J-0.765 F240
G3 X40.506 I11.341 J5.716
G2 X40.755 Y17.099 I0.893 J-0.45
X46.763 Y11.986 I2.575 J-3.061
X11.566 I-17.599 J10.514
X17.575 Y17.099 I3.434 J2.051
G3 X17.856 Y17.123 I0.129 J0.153 F480
G1 X17.985 Y17.277
X18.018 Y17.316 Z-2.993
X18.049 Y17.353 Z-2.973
X18.076 Y17.385 Z-2.941
X18.097 Y17.409 Z-2.9
X18.109 Y17.424 Z-2.852
X18.114 Y17.43 Z-2.8
X17.808 Y17.687
Z-3.8 F60
X17.803 Y17.682 Z-3.852
X17.79 Y17.667 Z-3.9
X17.77 Y17.642 Z-3.941
X17.743 Y17.611 Z-3.973
X17.712 Y17.574 Z-3.993
X17.679 Y17.534 Z-4
X17.55 Y17.381 F120
G3 X17.575 Y17.099 I0.153 J-0.129
G2 X17.824 Y16.784 I-0.644 J-0.765 F240
G3 X40.506 I11.341 J5.716
G2 X40.755 Y17.099 I0.893 J-0.45
X46.763 Y11.986 I2.575 J-3.061
X11.566 I-17.599 J10.514
X17.575 Y17.099 I3.434 J2.051
G3 X17.856 Y17.123 I0.129 J0.153 F480
G1 X17.985 Y17.277
X18.018 Y17.316 Z-3.993
X18.049 Y17.353 Z-3.973
X18.076 Y17.385 Z-3.941
X18.097 Y17.409 Z-3.9
X18.109 Y17.424 Z-3.852
X18.114 Y17.43 Z-3.8
X17.808 Y17.687
Z-4.38 F60
X17.803 Y17.682 Z-4.432
X17.79 Y17.667 Z-4.48
X17.77 Y17.642 Z-4.521
X17.743 Y17.611 Z-4.553
X17.712 Y17.574 Z-4.573
X17.679 Y17.534 Z-4.58
X17.55 Y17.381 F120
G3 X17.575 Y17.099 I0.153 J-0.129
G2 X17.824 Y16.784 I-0.644 J-0.765 F240
G3 X40.506 I11.341 J5.716
G2 X40.755 Y17.099 I0.893 J-0.45
X46.763 Y11.986 I2.575 J-3.061
X11.566 I-17.599 J10.514
X17.575 Y17.099 I3.434 J2.051
G3 X17.856 Y17.123 I0.129 J0.153 F480
G1 X17.985 Y17.277
X18.018 Y17.316 Z-4.573
X18.049 Y17.353 Z-4.553
X18.076 Y17.385 Z-4.521
X18.097 Y17.409 Z-4.48
X18.109 Y17.424 Z-4.432
X18.114 Y17.43 Z-4.38
G0 Z5
X58.599 Y17.233
Z2
G1 Z-0.8 F60
X58.593 Y17.229 Z-0.852
X58.575 Y17.22 Z-0.9
X58.547 Y17.206 Z-0.941
X58.51 Y17.188 Z-0.973
X58.467 Y17.166 Z-0.993
X58.421 Y17.143 Z-1
X58.242 Y17.053 F120
G3 X58.153 Y16.784 I0.09 J-0.179
X80.835 I11.341 J5.716 F240
G2 X81.085 Y17.099 I0.893 J-0.45
X87.093 Y11.986 I2.575 J-3.061
X51.896 I-17.599 J10.514
X57.904 Y17.099 I3.434 J2.051
X58.153 Y16.784 I-0.644 J-0.765
G3 X58.422 Y16.695 I0.179 J0.09 F480
G1 X58.601 Y16.785
X58.647 Y16.809 Z-0.993
X58.69 Y16.83 Z-0.973
X58.727 Y16.849 Z-0.941
X58.755 Y16.863 Z-0.9
X58.773 Y16.872 Z-0.852
X58.779 Y16.875 Z-0.8
X58.599 Y17.233
Z-1.8 F60
X58.593 Y17.229 Z-1.852
X58.575 Y17.22 Z-1.9
X58.547 Y17.206 Z-1.941
X58.51 Y17.188 Z-1.973
X58.467 Y17.166 Z-1.993
X58.421 Y17.143 Z-2
X58.242 Y17.053 F120
G3 X58.153 Y16.784 I0.09 J-0.179
X80.835 I11.341 J5.716 F240
G2 X81.085 Y17.099 I0.893 J-0.45
X87.093 Y11.986 I2.575 J-3.061
X51.896 I-17.599 J10.514
X57.904 Y17.099 I3.434 J2.051
X58.153 Y16.784 I-0.644 J-0.765
G3 X58.422 Y16.695 I0.179 J0.09 F480
G1 X58.601 Y16.785
X58.647 Y16.809 Z-1.993
X58.69 Y16.83 Z-1.973
X58.727 Y16.849 Z-1.941
X58.755 Y16.863 Z-1.9
X58.773 Y16.872 Z-1.852
X58.779 Y16.875 Z-1.8
X58.599 Y17.233
Z-2.8 F60
X58.593 Y17.229 Z-2.852
X58.575 Y17.22 Z-2.9
X58.547 Y17.206 Z-2.941
X58.51 Y17.188 Z-2.973
X58.467 Y17.166 Z-2.993
X58.421 Y17.143 Z-3
X58.242 Y17.053 F120
G3 X58.153 Y16.784 I0.09 J-0.179
X80.835 I11.341 J5.716 F240
G2 X81.085 Y17.099 I0.893 J-0.45
X87.093 Y11.986 I2.575 J-3.061
X51.896 I-17.599 J10.514
X57.904 Y17.099 I3.434 J2.051
X58.153 Y16.784 I-0.644 J-0.765
G3 X58.422 Y16.695 I0.179 J0.09 F480
G1 X58.601 Y16.785
X58.647 Y16.809 Z-2.993
X58.69 Y16.83 Z-2.973
X58.727 Y16.849 Z-2.941
X58.755 Y16.863 Z-2.9
X58.773 Y16.872 Z-2.852
X58.779 Y16.875 Z-2.8
X58.599 Y17.233
Z-3.8 F60
X58.593 Y17.229 Z-3.852
X58.575 Y17.22 Z-3.9
X58.547 Y17.206 Z-3.941
X58.51 Y17.188 Z-3.973
X58.467 Y17.166 Z-3.993
X58.421 Y17.143 Z-4
X58.242 Y17.053 F120
G3 X58.153 Y16.784 I0.09 J-0.179
X80.835 I11.341 J5.716 F240
G2 X81.085 Y17.099 I0.893 J-0.45
X87.093 Y11.986 I2.575 J-3.061
X51.896 I-17.599 J10.514
X57.904 Y17.099 I3.434 J2.051
X58.153 Y16.784 I-0.644 J-0.765
G3 X58.422 Y16.695 I0.179 J0.09 F480
G1 X58.601 Y16.785
X58.647 Y16.809 Z-3.993
X58.69 Y16.83 Z-3.973
X58.727 Y16.849 Z-3.941
X58.755 Y16.863 Z-3.9
X58.773 Y16.872 Z-3.852
X58.779 Y16.875 Z-3.8
X58.599 Y17.233
Z-4.38 F60
X58.593 Y17.229 Z-4.432
X58.575 Y17.22 Z-4.48
X58.547 Y17.206 Z-4.521
X58.51 Y17.188 Z-4.553
X58.467 Y17.166 Z-4.573
X58.421 Y17.143 Z-4.58
X58.242 Y17.053 F120
G3 X58.153 Y16.784 I0.09 J-0.179
X80.835 I11.341 J5.716 F240
G2 X81.085 Y17.099 I0.893 J-0.45
X87.093 Y11.986 I2.575 J-3.061
X51.896 I-17.599 J10.514
X57.904 Y17.099 I3.434 J2.051
X58.153 Y16.784 I-0.644 J-0.765
G3 X58.422 Y16.695 I0.179 J0.09 F480
G1 X58.601 Y16.785
X58.647 Y16.809 Z-4.573
X58.69 Y16.83 Z-4.553
X58.727 Y16.849 Z-4.521
X58.755 Y16.863 Z-4.48
X58.773 Y16.872 Z-4.432
X58.779 Y16.875 Z-4.38
G0 Z5
X38.114 Y15.57
Z2
G1 Z-0.8 F60
X38.109 Y15.576 Z-0.852
X38.097 Y15.591 Z-0.9
X38.076 Y15.615 Z-0.941
X38.049 Y15.647 Z-0.973
X38.018 Y15.684 Z-0.993
X37.985 Y15.723 Z-1
X37.856 Y15.877 F120
G3 X37.575 Y15.901 I-0.153 J-0.129
G2 X31.566 Y21.014 I-2.575 J3.061 F240
X66.763 I17.599 J-10.514
X60.755 Y15.901 I-3.434 J-2.051
X60.506 Y16.216 I0.644 J0.765
G3 X37.824 I-11.341 J-5.716
G2 X37.575 Y15.901 I-0.893 J0.45
G3 X37.55 Y15.619 I0.129 J-0.153 F480
G1 X37.679 Y15.466
X37.712 Y15.426 Z-0.993
X37.743 Y15.389 Z-0.973
X37.77 Y15.358 Z-0.941
X37.79 Y15.333 Z-0.9
X37.803 Y15.318 Z-0.852
X37.808 Y15.313 Z-0.8
X38.114 Y15.57
Z-1.8 F60
X38.109 Y15.576 Z-1.852
X38.097 Y15.591 Z-1.9
X38.076 Y15.615 Z-1.941
X38.049 Y15.647 Z-1.973
X38.018 Y15.684 Z-1.993
X37.985 Y15.723 Z-2
X37.856 Y15.877 F120
G3 X37.575 Y15.901 I-0.153 J-0.129
G2 X31.566 Y21.014 I-2.575 J3.061 F240
X66.763 I17.599 J-10.514
X60.755 Y15.901 I-3.434 J-2.051
X60.506 Y16.216 I0.644 J0.765
G3 X37.824 I-11.341 J-5.716
G2 X37.575 Y15.901 I-0.893 J0.45
G3 X37.55 Y15.619 I0.129 J-0.153 F480
G1 X37.679 Y15.466
X37.712 Y15.426 Z-1.993
X37.743 Y15.389 Z-1.973
X37.77 Y15.358 Z-1.941
X37.79 Y15.333 Z-1.9
X37.803 Y15.318 Z-1.852
X37.808 Y15.313 Z-1.8
X38.114 Y15.57
Z-2.8 F60
X38.109 Y15.576 Z-2.852
X38.097 Y15.591 Z-2.9
X38.076 Y15.615 Z-2.941
X38.049 Y15.647 Z-2.973
X38.018 Y15.684 Z-2.993
X37.985 Y15.723 Z-3
X37.856 Y15.877 F120
G3 X37.575 Y15.901 I-0.153 J-0.129
G2 X31.566 Y21.014 I-2.575 J3.061 F240
X66.763 I17.599 J-10.514
X60.755 Y15.901 I-3.434 J-2.051
X60.506 Y16.216 I0.644 J0.765
G3 X37.824 I-11.341 J-5.716
G2 X37.575 Y15.901 I-0.893 J0.45
G3 X37.55 Y15.619 I0.129 J-0.153 F480
G1 X37.679 Y15.466
X37.712 Y15.426 Z-2.993
X37.743 Y15.389 Z-2.973
X37.77 Y15.358 Z-2.941
X37.79 Y15.333 Z-2.9
X37.803 Y15.318 Z-2.852
X37.808 Y15.313 Z-2.8
X38.114 Y15.57
Z-3.8 F60
X38.109 Y15.576 Z-3.852
X38.097 Y15.591 Z-3.9
X38.076 Y15.615 Z-3.941
X38.049 Y15.647 Z-3.973
X38.018 Y15.684 Z-3.993
X37.985 Y15.723 Z-4
X37.856 Y15.877 F120
G3 X37.575 Y15.901 I-0.153 J-0.129
G2 X31.566 Y21.014 I-2.575 J3.061 F240
X66.763 I17.599 J-10.514
X60.755 Y15.901 I-3.434 J-2.051
X60.506 Y16.216 I0.644 J0.765
G3 X37.824 I-11.341 J-5.716
G2 X37.575 Y15.901 I-0.893 J0.45
G3 X37.55 Y15.619 I0.129 J-0.153 F480
G1 X37.679 Y15.466
X37.712 Y15.426 Z-3.993
X37.743 Y15.389 Z-3.973
X37.77 Y15.358 Z-3.941
X37.79 Y15.333 Z-3.9
X37.803 Y15.318 Z-3.852
X37.808 Y15.313 Z-3.8
X38.114 Y15.57
Z-4.38 F60
X38.109 Y15.576 Z-4.432
X38.097 Y15.591 Z-4.48
X38.076 Y15.615 Z-4.521
X38.049 Y15.647 Z-4.553
X38.018 Y15.684 Z-4.573
X37.985 Y15.723 Z-4.58
X37.856 Y15.877 F120
G3 X37.575 Y15.901 I-0.153 J-0.129
G2 X31.566 Y21.014 I-2.575 J3.061 F240
X66.763 I17.599 J-10.514
X60.755 Y15.901 I-3.434 J-2.051
X60.506 Y16.216 I0.644 J0.765
G3 X37.824 I-11.341 J-5.716
G2 X37.575 Y15.901 I-0.893 J0.45
G3 X37.55 Y15.619 I0.129 J-0.153 F480
G1 X37.679 Y15.466
X37.712 Y15.426 Z-4.573
X37.743 Y15.389 Z-4.553
X37.77 Y15.358 Z-4.521
X37.79 Y15.333 Z-4.48
X37.803 Y15.318 Z-4.432
X37.808 Y15.313 Z-4.38
G0 Z5
X38.114 Y29.57
Z2
G1 Z-0.8 F60
X38.109 Y29.576 Z-0.852
X38.097 Y29.591 Z-0.9
X38.076 Y29.615 Z-0.941
X38.049 Y29.647 Z-0.973
X38.018 Y29.684 Z-0.993
X37.985 Y29.723 Z-1
X37.856 Y29.877 F120
G3 X37.575 Y29.901 I-0.153 J-0.129
G2 X31.566 Y35.014 I-2.575 J3.061 F240
X66.763 I17.599 J-10.514
X60.755 Y29.901 I-3.434 J-2.051
X60.506 Y30.216 I0.644 J0.765
G3 X37.824 I-11.341 J-5.716
G2 X37.575 Y29.901 I-0.893 J0.45
G3 X37.55 Y29.619 I0.129 J-0.153 F480
G1 X37.679 Y29.466
X37.712 Y29.426 Z-0.993
X37.743 Y29.389 Z-0.973
X37.77 Y29.358 Z-0.941
X37.79 Y29.333 Z-0.9
X37.803 Y29.318 Z-0.852
X37.808 Y29.313 Z-0.8
X38.114 Y29.57
Z-1.8 F60
X38.109 Y29.576 Z-1.852
X38.097 Y29.591 Z-1.9
X38.076 Y29.615 Z-1.941
X38.049 Y29.647 Z-1.973
X38.018 Y29.684 Z-1.993
X37.985 Y29.723 Z-2
X37.856 Y29.877 F120
G3 X37.575 Y29.901 I-0.153 J-0.129
G2 X31.566 Y35.014 I-2.575 J3.061 F240
X66.763 I17.599 J-10.514
X60.755 Y29.901 I-3.434 J-2.051
X60.506 Y30.216 I0.644 J0.765
G3 X37.824 I-11.341 J-5.716
G2 X37.575 Y29.901 I-0.893 J0.45
G3 X37.55 Y29.619 I0.129 J-0.153 F480
G1 X37.679 Y29.466
X37.712 Y29.426 Z-1.993
X37.743 Y29.389 Z-1.973
X37.77 Y29.358 Z-1.941
X37.79 Y29.333 Z-1.9
X37.803 Y29.318 Z-1.852
X37.808 Y29.313 Z-1.8
X38.114 Y29.57
Z-2.8 F60
X38.109 Y29.576 Z-2.852
X38.097 Y29.591 Z-2.9
X38.076 Y29.615 Z-2.941
X38.049 Y29.647 Z-2.973
X38.018 Y29.684 Z-2.993
X37.985 Y29.723 Z-3
X37.856 Y29.877 F120
G3 X37.575 Y29.901 I-0.153 J-0.129
G2 X31.566 Y35.014 I-2.575 J3.061 F240
X66.763 I17.599 J-10.514
X60.755 Y29.901 I-3.434 J-2.051
X60.506 Y30.216 I0.644 J0.765
G3 X37.824 I-11.341 J-5.716
G2 X37.575 Y29.901 I-0.893 J0.45
G3 X37.55 Y29.619 I0.129 J-0.153 F480
G1 X37.679 Y29.466
X37.712 Y29.426 Z-2.993
X37.743 Y29.389 Z-2.973
X37.77 Y29.358 Z-2.941
X37.79 Y29.333 Z-2.9
X37.803 Y29.318 Z-2.852
X37.808 Y29.313 Z-2.8
X38.114 Y29.57
Z-3.8 F60
X38.109 Y29.576 Z-3.852
X38.097 Y29.591 Z-3.9
X38.076 Y29.615 Z-3.941
X38.049 Y29.647 Z-3.973
X38.018 Y29.684 Z-3.993
X37.985 Y29.723 Z-4
X37.856 Y29.877 F120
G3 X37.575 Y29.901 I-0.153 J-0.129
G2 X31.566 Y35.014 I-2.575 J3.061 F240
X66.763 I17.599 J-10.514
X60.755 Y29.901 I-3.434 J-2.051
X60.506 Y30.216 I0.644 J0.765
G3 X37.824 I-11.341 J-5.716
G2 X37.575 Y29.901 I-0.893 J0.45
G3 X37.55 Y29.619 I0.129 J-0.153 F480
G1 X37.679 Y29.466
X37.712 Y29.426 Z-3.993
X37.743 Y29.389 Z-3.973
X37.77 Y29.358 Z-3.941
X37.79 Y29.333 Z-3.9
X37.803 Y29.318 Z-3.852
X37.808 Y29.313 Z-3.8
X38.114 Y29.57
Z-4.38 F60
X38.109 Y29.576 Z-4.432
X38.097 Y29.591 Z-4.48
X38.076 Y29.615 Z-4.521
X38.049 Y29.647 Z-4.553
X38.018 Y29.684 Z-4.573
X37.985 Y29.723 Z-4.58
X37.856 Y29.877 F120
G3 X37.575 Y29.901 I-0.153 J-0.129
G2 X31.566 Y35.014 I-2.575 J3.061 F240
X66.763 I17.599 J-10.514
X60.755 Y29.901 I-3.434 J-2.051
X60.506 Y30.216 I0.644 J0.765
G3 X37.824 I-11.341 J-5.716
G2 X37.575 Y29.901 I-0.893 J0.45
G3 X37.55 Y29.619 I0.129 J-0.153 F480
G1 X37.679 Y29.466
X37.712 Y29.426 Z-4.573
X37.743 Y29.389 Z-4.553
X37.77 Y29.358 Z-4.521
X37.79 Y29.333 Z-4.48
X37.803 Y29.318 Z-4.432
X37.808 Y29.313 Z-4.38
G0 Z15

M9
M30
