(FRAME)
(T11  D=2 CR=0 - ZMIN=-4.58 - FLAT END MILL)
G90 G94 G91.1 G40 G49 G17
G21

(HOLES)
M5
M9
T11 M6
(DIAMOND OR SPIRAL)
S16000 M3
G54
M8
G0 X23.158 Y13.832
G43 Z15 H1
Z2
G1 Z-0.8 F60
G3 X23.18 Y13.848 Z-0.9 I-0.108 J0.168
X23.226 Y13.904 Z-0.973 I-0.13 J0.152
X23.25 Y14 Z-1 I-0.176 J0.096
G1 Y15.5 F240
G3 X21.75 I-0.75 J0
G1 Y14
G3 X23.25 I0.75 J0
X23.16 Y14.023 I-0.048 J0
G1 X23.09 Y13.895
G3 X23.158 Y13.832 I0.042 J-0.023
G1 Z-1.8 F60
G3 X23.18 Y13.848 Z-1.9 I-0.108 J0.168
X23.226 Y13.904 Z-1.973 I-0.13 J0.152
X23.25 Y14 Z-2 I-0.176 J0.096
G1 Y15.5 F240
G3 X21.75 I-0.75 J0
G1 Y14
G3 X23.25 I0.75 J0
X23.16 Y14.023 I-0.048 J0
G1 X23.09 Y13.895
G3 X23.158 Y13.832 I0.042 J-0.023
G1 Z-2.8 F60
G3 X23.18 Y13.848 Z-2.9 I-0.108 J0.168
X23.226 Y13.904 Z-2.973 I-0.13 J0.152
X23.25 Y14 Z-3 I-0.176 J0.096
G1 Y15.5 F240
G3 X21.75 I-0.75 J0
G1 Y14
G3 X23.25 I0.75 J0
X23.16 Y14.023 I-0.048 J0
G1 X23.09 Y13.895
G3 X23.158 Y13.832 I0.042 J-0.023
G1 Z-3.8 F60
G3 X23.18 Y13.848 Z-3.9 I-0.108 J0.168
X23.226 Y13.904 Z-3.973 I-0.13 J0.152
X23.25 Y14 Z-4 I-0.176 J0.096
G1 Y15.5 F240
G3 X21.75 I-0.75 J0
G1 Y14
G3 X23.25 I0.75 J0
X23.16 Y14.023 I-0.048 J0
G1 X23.09 Y13.895
G3 X23.158 Y13.832 I0.042 J-0.023
G1 Z-4.38 F60
G3 X23.18 Y13.848 Z-4.48 I-0.108 J0.168
X23.226 Y13.904 Z-4.553 I-0.13 J0.152
X23.25 Y14 Z-4.58 I-0.176 J0.096
G1 Y15.5 F240
G3 X21.75 I-0.75 J0
G1 Y14
G3 X23.25 I0.75 J0
X23.226 Y14.096 Z-4.553 I-0.2 J0 F480
X23.18 Y14.152 Z-4.48 I-0.176 J-0.096
X23.158 Y14.168 Z-4.38 I-0.13 J-0.152
G0 Z5
X12.832 Y22.842
Z2
G1 Z-0.8 F60
G3 X12.848 Y22.82 Z-0.9 I0.168 J0.108
X12.904 Y22.774 Z-0.973 I0.152 J0.13
X13 Y22.75 Z-1 I0.096 J0.176
G1 X14.5 F240
G3 Y24.25 I0 J0.75
G1 X13
G3 Y22.75 I0 J-0.75
X13.023 Y22.84 I0 J0.048
G1 X12.895 Y22.91
G3 X12.832 Y22.842 I-0.023 J-0.042
G1 Z-1.8 F60
G3 X12.848 Y22.82 Z-1.9 I0.168 J0.108
X12.904 Y22.774 Z-1.973 I0.152 J0.13
X13 Y22.75 Z-2 I0.096 J0.176
G1 X14.5 F240
G3 Y24.25 I0 J0.75
G1 X13
G3 Y22.75 I0 J-0.75
X13.023 Y22.84 I0 J0.048
G1 X12.895 Y22.91
G3 X12.832 Y22.842 I-0.023 J-0.042
G1 Z-2.8 F60
G3 X12.848 Y22.82 Z-2.9 I0.168 J0.108
X12.904 Y22.774 Z-2.973 I0.152 J0.13
X13 Y22.75 Z-3 I0.096 J0.176
G1 X14.5 F240
G3 Y24.25 I0 J0.75
G1 X13
G3 Y22.75 I0 J-0.75
X13.023 Y22.84 I0 J0.048
G1 X12.895 Y22.91
G3 X12.832 Y22.842 I-0.023 J-0.042
G1 Z-3.8 F60
G3 X12.848 Y22.82 Z-3.9 I0.168 J0.108
X12.904 Y22.774 Z-3.973 I0.152 J0.13
X13 Y22.75 Z-4 I0.096 J0.176
G1 X14.5 F240
G3 Y24.25 I0 J0.75
G1 X13
G3 Y22.75 I0 J-0.75
X13.023 Y22.84 I0 J0.048
G1 X12.895 Y22.91
G3 X12.832 Y22.842 I-0.023 J-0.042
G1 Z-4.38 F60
G3 X12.848 Y22.82 Z-4.48 I0.168 J0.108
X12.904 Y22.774 Z-4.553 I0.152 J0.13
X13 Y22.75 Z-4.58 I0.096 J0.176
G1 X14.5 F240
G3 Y24.25 I0 J0.75
G1 X13
G3 Y22.75 I0 J-0.75
X13.096 Y22.774 Z-4.553 I0 J0.2 F480
X13.152 Y22.82 Z-4.48 I-0.096 J0.176
X13.168 Y22.842 Z-4.38 I-0.152 J0.13
G0 Z5
X21.842 Y31.668
Z2
G1 Z-0.8 F60
G3 X21.82 Y31.652 Z-0.9 I0.108 J-0.168
X21.774 Y31.596 Z-0.973 I0.13 J-0.152
X21.75 Y31.5 Z-1 I0.176 J-0.096
X23.25 I0.75 J0 F240
G1 Y33
G3 X21.75 I-0.75 J0
G1 Y31.5
G3 X21.84 Y31.477 I0.048 J0
G1 X21.91 Y31.605
G3 X21.842 Y31.668 I-0.042 J0.023
G1 Z-1.8 F60
G3 X21.82 Y31.652 Z-1.9 I0.108 J-0.168
X21.774 Y31.596 Z-1.973 I0.13 J-0.152
X21.75 Y31.5 Z-2 I0.176 J-0.096
X23.25 I0.75 J0 F240
G1 Y33
G3 X21.75 I-0.75 J0
G1 Y31.5
G3 X21.84 Y31.477 I0.048 J0
G1 X21.91 Y31.605
G3 X21.842 Y31.668 I-0.042 J0.023
G1 Z-2.8 F60
G3 X21.82 Y31.652 Z-2.9 I0.108 J-0.168
X21.774 Y31.596 Z-2.973 I0.13 J-0.152
X21.75 Y31.5 Z-3 I0.176 J-0.096
X23.25 I0.75 J0 F240
G1 Y33
G3 X21.75 I-0.75 J0
G1 Y31.5
G3 X21.84 Y31.477 I0.048 J0
G1 X21.91 Y31.605
G3 X21.842 Y31.668 I-0.042 J0.023
G1 Z-3.8 F60
G3 X21.82 Y31.652 Z-3.9 I0.108 J-0.168
X21.774 Y31.596 Z-3.973 I0.13 J-0.152
X21.75 Y31.5 Z-4 I0.176 J-0.096
X23.25 I0.75 J0 F240
G1 Y33
G3 X21.75 I-0.75 J0
G1 Y31.5
G3 X21.84 Y31.477 I0.048 J0
G1 X21.91 Y31.605
G3 X21.842 Y31.668 I-0.042 J0.023
G1 Z-4.38 F60
G3 X21.82 Y31.652 Z-4.48 I0.108 J-0.168
X21.774 Y31.596 Z-4.553 I0.13 J-0.152
X21.75 Y31.5 Z-4.58 I0.176 J-0.096
X23.25 I0.75 J0 F240
G1 Y33
G3 X21.75 I-0.75 J0
G1 Y31.5
G3 X21.774 Y31.404 Z-4.553 I0.2 J0 F480
X21.82 Y31.348 Z-4.48 I0.176 J0.096
X21.842 Y31.332 Z-4.38 I0.13 J0.152
G0 Z5
X32.168 Y24.158
Z2
G1 Z-0.8 F60
G3 X32.152 Y24.18 Z-0.9 I-0.168 J-0.108
X32.096 Y24.226 Z-0.973 I-0.152 J-0.13
X32 Y24.25 Z-1 I-0.096 J-0.176
G1 X30.5 F240
G3 Y22.75 I0 J-0.75
G1 X32
G3 Y24.25 I0 J0.75
X31.977 Y24.16 I0 J-0.048
G1 X32.105 Y24.09
G3 X32.168 Y24.158 I0.023 J0.042
G1 Z-1.8 F60
G3 X32.152 Y24.18 Z-1.9 I-0.168 J-0.108
X32.096 Y24.226 Z-1.973 I-0.152 J-0.13
X32 Y24.25 Z-2 I-0.096 J-0.176
G1 X30.5 F240
G3 Y22.75 I0 J-0.75
G1 X32
G3 Y24.25 I0 J0.75
X31.977 Y24.16 I0 J-0.048
G1 X32.105 Y24.09
G3 X32.168 Y24.158 I0.023 J0.042
G1 Z-2.8 F60
G3 X32.152 Y24.18 Z-2.9 I-0.168 J-0.108
X32.096 Y24.226 Z-2.973 I-0.152 J-0.13
X32 Y24.25 Z-3 I-0.096 J-0.176
G1 X30.5 F240
G3 Y22.75 I0 J-0.75
G1 X32
G3 Y24.25 I0 J0.75
X31.977 Y24.16 I0 J-0.048
G1 X32.105 Y24.09
G3 X32.168 Y24.158 I0.023 J0.042
G1 Z-3.8 F60
G3 X32.152 Y24.18 Z-3.9 I-0.168 J-0.108
X32.096 Y24.226 Z-3.973 I-0.152 J-0.13
X32 Y24.25 Z-4 I-0.096 J-0.176
G1 X30.5 F240
G3 Y22.75 I0 J-0.75
G1 X32
G3 Y24.25 I0 J0.75
X31.977 Y24.16 I0 J-0.048
G1 X32.105 Y24.09
G3 X32.168 Y24.158 I0.023 J0.042
G1 Z-4.38 F60
G3 X32.152 Y24.18 Z-4.48 I-0.168 J-0.108
X32.096 Y24.226 Z-4.553 I-0.152 J-0.13
X32 Y24.25 Z-4.58 I-0.096 J-0.176
G1 X30.5 F240
G3 Y22.75 I0 J-0.75
G1 X32
G3 Y24.25 I0 J0.75
X31.904 Y24.226 Z-4.553 I0 J-0.2 F480
X31.848 Y24.18 Z-4.48 I0.096 J-0.176
X31.832 Y24.158 Z-4.38 I0.152 J-0.13
G0 Z5
X22.85 Y23.3
Z2
G1 Z-0.8 F60
Y23.307 Z-0.852
Y23.327 Z-0.9
Y23.359 Z-0.941
Y23.4 Z-0.973
Y23.448 Z-0.993
Y23.5 Z-1
G3 X22.15 I-0.35 J0 F240
X24.75 I1.3 J0
X20.25 I-2.25 J0
X24.75 I2.25 J0
X24.472 Y23.684 I-0.2 J0
G1 X23.128 Y23.116
G2 X22.85 Y23.3 I-0.078 J0.184
G1 Z-1.8 F60
Y23.307 Z-1.852
Y23.327 Z-1.9
Y23.359 Z-1.941
Y23.4 Z-1.973
Y23.448 Z-1.993
Y23.5 Z-2
G3 X22.15 I-0.35 J0 F240
X24.75 I1.3 J0
X20.25 I-2.25 J0
X24.75 I2.25 J0
X24.472 Y23.684 I-0.2 J0
G1 X23.128 Y23.116
G2 X22.85 Y23.3 I-0.078 J0.184
G1 Z-2.8 F60
Y23.307 Z-2.852
Y23.327 Z-2.9
Y23.359 Z-2.941
Y23.4 Z-2.973
Y23.448 Z-2.993
Y23.5 Z-3
G3 X22.15 I-0.35 J0 F240
X24.75 I1.3 J0
X20.25 I-2.25 J0
X24.75 I2.25 J0
X24.472 Y23.684 I-0.2 J0
G1 X23.128 Y23.116
G2 X22.85 Y23.3 I-0.078 J0.184
G1 Z-3.8 F60
Y23.307 Z-3.852
Y23.327 Z-3.9
Y23.359 Z-3.941
Y23.4 Z-3.973
Y23.448 Z-3.993
Y23.5 Z-4
G3 X22.15 I-0.35 J0 F240
X24.75 I1.3 J0
X20.25 I-2.25 J0
X24.75 I2.25 J0
X24.472 Y23.684 I-0.2 J0
G1 X23.128 Y23.116
G2 X22.85 Y23.3 I-0.078 J0.184
G1 Z-4.38 F60
Y23.307 Z-4.432
Y23.327 Z-4.48
Y23.359 Z-4.521
Y23.4 Z-4.553
Y23.448 Z-4.573
Y23.5 Z-4.58
G3 X22.15 I-0.35 J0 F240
X24.75 I1.3 J0
X20.25 I-2.25 J0
X24.75 I2.25 J0
X24.726 Y23.596 Z-4.553 I-0.2 J0 F480
X24.68 Y23.652 Z-4.48 I-0.176 J-0.096
X24.658 Y23.668 Z-4.38 I-0.13 J-0.152
G0 Z5
X6.646 Y27.213
Z2
G1 Z-0.8 F60
G3 X6.673 Z-0.9 I0.015 J0.199
X6.743 Y27.23 Z-0.973 I-0.012 J0.2
X6.82 Y27.292 Z-1 I-0.083 J0.182
X6.18 Y27.772 I-0.32 J0.24 F240
X6.82 Y27.292 I0.32 J-0.24
X6.762 Y27.365 I-0.038 J0.029
G1 X6.629 Y27.304
G3 X6.646 Y27.213 I0.02 J-0.044
G1 Z-1.8 F60
G3 X6.673 Z-1.9 I0.015 J0.199
X6.743 Y27.23 Z-1.973 I-0.012 J0.2
X6.82 Y27.292 Z-2 I-0.083 J0.182
X6.18 Y27.772 I-0.32 J0.24 F240
X6.82 Y27.292 I0.32 J-0.24
X6.762 Y27.365 I-0.038 J0.029
G1 X6.629 Y27.304
G3 X6.646 Y27.213 I0.02 J-0.044
G1 Z-2.8 F60
G3 X6.673 Z-2.9 I0.015 J0.199
X6.743 Y27.23 Z-2.973 I-0.012 J0.2
X6.82 Y27.292 Z-3 I-0.083 J0.182
X6.18 Y27.772 I-0.32 J0.24 F240
X6.82 Y27.292 I0.32 J-0.24
X6.762 Y27.365 I-0.038 J0.029
G1 X6.629 Y27.304
G3 X6.646 Y27.213 I0.02 J-0.044
G1 Z-3.8 F60
G3 X6.673 Z-3.9 I0.015 J0.199
X6.743 Y27.23 Z-3.973 I-0.012 J0.2
X6.82 Y27.292 Z-4 I-0.083 J0.182
X6.18 Y27.772 I-0.32 J0.24 F240
X6.82 Y27.292 I0.32 J-0.24
X6.762 Y27.365 I-0.038 J0.029
G1 X6.629 Y27.304
G3 X6.646 Y27.213 I0.02 J-0.044
G1 Z-4.38 F60
G3 X6.673 Z-4.48 I0.015 J0.199
X6.743 Y27.23 Z-4.553 I-0.012 J0.2
X6.82 Y27.292 Z-4.58 I-0.083 J0.182
X6.18 Y27.772 I-0.32 J0.24 F240
X6.82 Y27.292 I0.32 J-0.24
X6.858 Y27.384 Z-4.553 I-0.16 J0.12 F480
X6.855 Y27.456 Z-4.48 I-0.198 J0.029
X6.848 Y27.482 Z-4.38 I-0.195 J-0.044
G0 Z5
X10.485 Y11.782
Z2
G1 Z-0.8 F60
G3 X10.478 Y11.757 Z-0.9 I0.187 J-0.07
X10.475 Y11.684 Z-0.973 I0.195 J-0.044
X10.513 Y11.593 Z-1 I0.198 J0.029
X11.153 Y12.073 I0.32 J0.24 F240
X10.513 Y11.593 I-0.32 J-0.24
X10.599 Y11.628 I0.038 J0.029
G1 X10.578 Y11.773
G3 X10.485 Y11.782 I-0.047 J-0.007
G1 Z-1.8 F60
G3 X10.478 Y11.757 Z-1.9 I0.187 J-0.07
X10.475 Y11.684 Z-1.973 I0.195 J-0.044
X10.513 Y11.593 Z-2 I0.198 J0.029
X11.153 Y12.073 I0.32 J0.24 F240
X10.513 Y11.593 I-0.32 J-0.24
X10.599 Y11.628 I0.038 J0.029
G1 X10.578 Y11.773
G3 X10.485 Y11.782 I-0.047 J-0.007
G1 Z-2.8 F60
G3 X10.478 Y11.757 Z-2.9 I0.187 J-0.07
X10.475 Y11.684 Z-2.973 I0.195 J-0.044
X10.513 Y11.593 Z-3 I0.198 J0.029
X11.153 Y12.073 I0.32 J0.24 F240
X10.513 Y11.593 I-0.32 J-0.24
X10.599 Y11.628 I0.038 J0.029
G1 X10.578 Y11.773
G3 X10.485 Y11.782 I-0.047 J-0.007
G1 Z-3.8 F60
G3 X10.478 Y11.757 Z-3.9 I0.187 J-0.07
X10.475 Y11.684 Z-3.973 I0.195 J-0.044
X10.513 Y11.593 Z-4 I0.198 J0.029
X11.153 Y12.073 I0.32 J0.24 F240
X10.513 Y11.593 I-0.32 J-0.24
X10.599 Y11.628 I0.038 J0.029
G1 X10.578 Y11.773
G3 X10.485 Y11.782 I-0.047 J-0.007
G1 Z-4.38 F60
G3 X10.478 Y11.757 Z-4.48 I0.187 J-0.07
X10.475 Y11.684 Z-4.553 I0.195 J-0.044
X10.513 Y11.593 Z-4.58 I0.198 J0.029
X11.153 Y12.073 I0.32 J0.24 F240
X10.513 Y11.593 I-0.32 J-0.24
X10.59 Y11.531 Z-4.553 I0.16 J0.12 F480
X10.66 Y11.513 Z-4.48 I0.083 J0.182
X10.687 Z-4.38 I0.012 J0.2
G0 Z5
X26.185 Y7.45
Z2
G1 Z-0.8 F60
G3 X26.177 Y7.424 Z-0.9 I0.187 J-0.07
X26.174 Y7.352 Z-0.973 I0.195 J-0.044
X26.212 Y7.26 Z-1 I0.198 J0.029
X26.852 Y7.74 I0.32 J0.24 F240
X26.212 Y7.26 I-0.32 J-0.24
X26.298 Y7.296 I0.038 J0.029
G1 X26.277 Y7.44
G3 X26.185 Y7.45 I-0.047 J-0.007
G1 Z-1.8 F60
G3 X26.177 Y7.424 Z-1.9 I0.187 J-0.07
X26.174 Y7.352 Z-1.973 I0.195 J-0.044
X26.212 Y7.26 Z-2 I0.198 J0.029
X26.852 Y7.74 I0.32 J0.24 F240
X26.212 Y7.26 I-0.32 J-0.24
X26.298 Y7.296 I0.038 J0.029
G1 X26.277 Y7.44
G3 X26.185 Y7.45 I-0.047 J-0.007
G1 Z-2.8 F60
G3 X26.177 Y7.424 Z-2.9 I0.187 J-0.07
X26.174 Y7.352 Z-2.973 I0.195 J-0.044
X26.212 Y7.26 Z-3 I0.198 J0.029
X26.852 Y7.74 I0.32 J0.24 F240
X26.212 Y7.26 I-0.32 J-0.24
X26.298 Y7.296 I0.038 J0.029
G1 X26.277 Y7.44
G3 X26.185 Y7.45 I-0.047 J-0.007
G1 Z-3.8 F60
G3 X26.177 Y7.424 Z-3.9 I0.187 J-0.07
X26.174 Y7.352 Z-3.973 I0.195 J-0.044
X26.212 Y7.26 Z-4 I0.198 J0.029
X26.852 Y7.74 I0.32 J0.24 F240
X26.212 Y7.26 I-0.32 J-0.24
X26.298 Y7.296 I0.038 J0.029
G1 X26.277 Y7.44
G3 X26.185 Y7.45 I-0.047 J-0.007
G1 Z-4.38 F60
G3 X26.177 Y7.424 Z-4.48 I0.187 J-0.07
X26.174 Y7.352 Z-4.553 I0.195 J-0.044
X26.212 Y7.26 Z-4.58 I0.198 J0.029
X26.852 Y7.74 I0.32 J0.24 F240
X26.212 Y7.26 I-0.32 J-0.24
X26.289 Y7.198 Z-4.553 I0.16 J0.12 F480
X26.36 Y7.181 Z-4.48 I0.083 J0.182
X26.387 Z-4.38 I0.012 J0.2
G0 Z5
X23.171 Y143.893
Z2
G1 Z-0.8 F60
G3 X23.191 Y143.911 Z-0.9 I-0.123 J0.158
X23.231 Y143.971 Z-0.973 I-0.143 J0.14
X23.247 Y144.069 Z-1 I-0.184 J0.079
G2 X23.243 Y144.167 I0.996 J0.092 F240
G1 X23.25 Y145.503
G3 X21.75 Y145.5 I-0.75 J-0.003
G1 Y144.282
G2 X21.753 Y144.069 I-0.993 J-0.121
G3 X22.5 Y143.25 I0.747 J-0.069
X23.247 Y144.069 I0 J0.75
X23.155 Y144.084 I-0.048 J-0.004
G1 X23.097 Y143.95
G3 X23.171 Y143.893 I0.044 J-0.019
G1 Z-1.8 F60
G3 X23.191 Y143.911 Z-1.9 I-0.123 J0.158
X23.231 Y143.971 Z-1.973 I-0.143 J0.14
X23.247 Y144.069 Z-2 I-0.184 J0.079
G2 X23.243 Y144.167 I0.996 J0.092 F240
G1 X23.25 Y145.503
G3 X21.75 Y145.5 I-0.75 J-0.003
G1 Y144.282
G2 X21.753 Y144.069 I-0.993 J-0.121
G3 X22.5 Y143.25 I0.747 J-0.069
X23.247 Y144.069 I0 J0.75
X23.155 Y144.084 I-0.048 J-0.004
G1 X23.097 Y143.95
G3 X23.171 Y143.893 I0.044 J-0.019
G1 Z-2.8 F60
G3 X23.191 Y143.911 Z-2.9 I-0.123 J0.158
X23.231 Y143.971 Z-2.973 I-0.143 J0.14
X23.247 Y144.069 Z-3 I-0.184 J0.079
G2 X23.243 Y144.167 I0.996 J0.092 F240
G1 X23.25 Y145.503
G3 X21.75 Y145.5 I-0.75 J-0.003
G1 Y144.282
G2 X21.753 Y144.069 I-0.993 J-0.121
G3 X22.5 Y143.25 I0.747 J-0.069
X23.247 Y144.069 I0 J0.75
X23.155 Y144.084 I-0.048 J-0.004
G1 X23.097 Y143.95
G3 X23.171 Y143.893 I0.044 J-0.019
G1 Z-3.8 F60
G3 X23.191 Y143.911 Z-3.9 I-0.123 J0.158
X23.231 Y143.971 Z-3.973 I-0.143 J0.14
X23.247 Y144.069 Z-4 I-0.184 J0.079
G2 X23.243 Y144.167 I0.996 J0.092 F240
G1 X23.25 Y145.503
G3 X21.75 Y145.5 I-0.75 J-0.003
G1 Y144.282
G2 X21.753 Y144.069 I-0.993 J-0.121
G3 X22.5 Y143.25 I0.747 J-0.069
X23.247 Y144.069 I0 J0.75
X23.155 Y144.084 I-0.048 J-0.004
G1 X23.097 Y143.95
G3 X23.171 Y143.893 I0.044 J-0.019
G1 Z-4.38 F60
G3 X23.191 Y143.911 Z-4.48 I-0.123 J0.158
X23.231 Y143.971 Z-4.553 I-0.143 J0.14
X23.247 Y144.069 Z-4.58 I-0.184 J0.079
G2 X23.243 Y144.167 I0.996 J0.092 F240
G1 X23.25 Y145.503
G3 X21.75 Y145.5 I-0.75 J-0.003
G1 Y144.282
G2 X21.753 Y144.069 I-0.993 J-0.121
G3 X22.5 Y143.25 I0.747 J-0.069
X23.247 Y144.069 I0 J0.75
X23.214 Y144.162 Z-4.553 I-0.199 J-0.018 F480
X23.163 Y144.214 Z-4.48 I-0.166 J-0.112
X23.14 Y144.228 Z-4.38 I-0.115 J-0.164
G0 Z5
X13.228 Y154.14
Z2
G1 Z-0.8 F60
G3 X13.215 Y154.163 Z-0.9 I-0.178 J-0.092
X13.163 Y154.214 Z-0.973 I-0.164 J-0.115
X13.069 Y154.247 Z-1 I-0.112 J-0.166
X12.246 Y153.496 I-0.069 J-0.751 F240
X13.07 Y152.746 I0.754 J0
G2 X13.163 Y152.75 I0.093 J-0.996
G1 X14.5
G3 Y154.25 I0 J0.75
G1 X13.279
G2 X13.069 Y154.247 I-0.118 J0.993
G3 X13.038 Y154.16 I-0.004 J-0.048
G1 X13.159 Y154.078
G3 X13.228 Y154.14 I0.027 J0.04
G1 Z-1.8 F60
G3 X13.215 Y154.163 Z-1.9 I-0.178 J-0.092
X13.163 Y154.214 Z-1.973 I-0.164 J-0.115
X13.069 Y154.247 Z-2 I-0.112 J-0.166
X12.246 Y153.496 I-0.069 J-0.751 F240
X13.07 Y152.746 I0.754 J0
G2 X13.163 Y152.75 I0.093 J-0.996
G1 X14.5
G3 Y154.25 I0 J0.75
G1 X13.279
G2 X13.069 Y154.247 I-0.118 J0.993
G3 X13.038 Y154.16 I-0.004 J-0.048
G1 X13.159 Y154.078
G3 X13.228 Y154.14 I0.027 J0.04
G1 Z-2.8 F60
G3 X13.215 Y154.163 Z-2.9 I-0.178 J-0.092
X13.163 Y154.214 Z-2.973 I-0.164 J-0.115
X13.069 Y154.247 Z-3 I-0.112 J-0.166
X12.246 Y153.496 I-0.069 J-0.751 F240
X13.07 Y152.746 I0.754 J0
G2 X13.163 Y152.75 I0.093 J-0.996
G1 X14.5
G3 Y154.25 I0 J0.75
G1 X13.279
G2 X13.069 Y154.247 I-0.118 J0.993
G3 X13.038 Y154.16 I-0.004 J-0.048
G1 X13.159 Y154.078
G3 X13.228 Y154.14 I0.027 J0.04
G1 Z-3.8 F60
G3 X13.215 Y154.163 Z-3.9 I-0.178 J-0.092
X13.163 Y154.214 Z-3.973 I-0.164 J-0.115
X13.069 Y154.247 Z-4 I-0.112 J-0.166
X12.246 Y153.496 I-0.069 J-0.751 F240
X13.07 Y152.746 I0.754 J0
G2 X13.163 Y152.75 I0.093 J-0.996
G1 X14.5
G3 Y154.25 I0 J0.75
G1 X13.279
G2 X13.069 Y154.247 I-0.118 J0.993
G3 X13.038 Y154.16 I-0.004 J-0.048
G1 X13.159 Y154.078
G3 X13.228 Y154.14 I0.027 J0.04
G1 Z-4.38 F60
G3 X13.215 Y154.163 Z-4.48 I-0.178 J-0.092
X13.163 Y154.214 Z-4.553 I-0.164 J-0.115
X13.069 Y154.247 Z-4.58 I-0.112 J-0.166
X12.246 Y153.496 I-0.069 J-0.751 F240
X13.07 Y152.746 I0.754 J0
G2 X13.163 Y152.75 I0.093 J-0.996
G1 X14.5
G3 Y154.25 I0 J0.75
G1 X13.279
G2 X13.069 Y154.247 I-0.118 J0.993
G3 X12.972 Y154.232 Z-4.553 I-0.018 J-0.199 F480
X12.911 Y154.191 Z-4.48 I0.079 J-0.184
X12.893 Y154.171 Z-4.38 I0.14 J-0.143
G0 Z5
X23.14 Y162.772
Z2
G1 Z-0.8 F60
G3 X23.163 Y162.786 Z-0.9 I-0.092 J0.178
X23.214 Y162.838 Z-0.973 I-0.115 J0.164
X23.247 Y162.931 Z-1 I-0.166 J0.112
X22.5 Y163.75 I-0.747 J0.069 F240
X21.753 Y162.931 I0 J-0.75
G2 X21.75 Y162.718 I-0.996 J-0.092
G1 Y161.5
G3 X23.25 Y161.497 I0.75 J0
G1 X23.243 Y162.833
G2 X23.247 Y162.931 I1 J0.006
G3 X23.159 Y162.962 I-0.048 J0.004
G1 X23.078 Y162.841
G3 X23.14 Y162.772 I0.04 J-0.027
G1 Z-1.8 F60
G3 X23.163 Y162.786 Z-1.9 I-0.092 J0.178
X23.214 Y162.838 Z-1.973 I-0.115 J0.164
X23.247 Y162.931 Z-2 I-0.166 J0.112
X22.5 Y163.75 I-0.747 J0.069 F240
X21.753 Y162.931 I0 J-0.75
G2 X21.75 Y162.718 I-0.996 J-0.092
G1 Y161.5
G3 X23.25 Y161.497 I0.75 J0
G1 X23.243 Y162.833
G2 X23.247 Y162.931 I1 J0.006
G3 X23.159 Y162.962 I-0.048 J0.004
G1 X23.078 Y162.841
G3 X23.14 Y162.772 I0.04 J-0.027
G1 Z-2.8 F60
G3 X23.163 Y162.786 Z-2.9 I-0.092 J0.178
X23.214 Y162.838 Z-2.973 I-0.115 J0.164
X23.247 Y162.931 Z-3 I-0.166 J0.112
X22.5 Y163.75 I-0.747 J0.069 F240
X21.753 Y162.931 I0 J-0.75
G2 X21.75 Y162.718 I-0.996 J-0.092
G1 Y161.5
G3 X23.25 Y161.497 I0.75 J0
G1 X23.243 Y162.833
G2 X23.247 Y162.931 I1 J0.006
G3 X23.159 Y162.962 I-0.048 J0.004
G1 X23.078 Y162.841
G3 X23.14 Y162.772 I0.04 J-0.027
G1 Z-3.8 F60
G3 X23.163 Y162.786 Z-3.9 I-0.092 J0.178
X23.214 Y162.838 Z-3.973 I-0.115 J0.164
X23.247 Y162.931 Z-4 I-0.166 J0.112
X22.5 Y163.75 I-0.747 J0.069 F240
X21.753 Y162.931 I0 J-0.75
G2 X21.75 Y162.718 I-0.996 J-0.092
G1 Y161.5
G3 X23.25 Y161.497 I0.75 J0
G1 X23.243 Y162.833
G2 X23.247 Y162.931 I1 J0.006
G3 X23.159 Y162.962 I-0.048 J0.004
G1 X23.078 Y162.841
G3 X23.14 Y162.772 I0.04 J-0.027
G1 Z-4.38 F60
G3 X23.163 Y162.786 Z-4.48 I-0.092 J0.178
X23.214 Y162.838 Z-4.553 I-0.115 J0.164
X23.247 Y162.931 Z-4.58 I-0.166 J0.112
X22.5 Y163.75 I-0.747 J0.069 F240
X21.753 Y162.931 I0 J-0.75
G2 X21.75 Y162.718 I-0.996 J-0.092
G1 Y161.5
G3 X23.25 Y161.497 I0.75 J0
G1 X23.243 Y162.833
G2 X23.247 Y162.931 I1 J0.006
G3 X23.231 Y163.029 Z-4.553 I-0.199 J0.018 F480
X23.191 Y163.089 Z-4.48 I-0.184 J-0.079
X23.171 Y163.107 Z-4.38 I-0.143 J-0.14
G0 Z5
X32.107 Y154.171
Z2
G1 Z-0.8 F60
G3 X32.089 Y154.191 Z-0.9 I-0.158 J-0.123
X32.029 Y154.232 Z-0.973 I-0.14 J-0.143
X31.931 Y154.247 Z-1 I-0.079 J-0.184
G2 X31.721 Y154.25 I-0.092 J0.996 F240
G1 X30.5
G3 Y152.75 I0 J-0.75
G1 X31.721
G2 X31.931 Y152.753 I0.118 J-0.993
G3 X32.75 Y153.5 I0.069 J0.747
X31.931 Y154.247 I-0.75 J0
X31.916 Y154.156 I0.004 J-0.048
G1 X32.05 Y154.098
G3 X32.107 Y154.171 I0.019 J0.044
G1 Z-1.8 F60
G3 X32.089 Y154.191 Z-1.9 I-0.158 J-0.123
X32.029 Y154.232 Z-1.973 I-0.14 J-0.143
X31.931 Y154.247 Z-2 I-0.079 J-0.184
G2 X31.721 Y154.25 I-0.092 J0.996 F240
G1 X30.5
G3 Y152.75 I0 J-0.75
G1 X31.721
G2 X31.931 Y152.753 I0.118 J-0.993
G3 X32.75 Y153.5 I0.069 J0.747
X31.931 Y154.247 I-0.75 J0
X31.916 Y154.156 I0.004 J-0.048
G1 X32.05 Y154.098
G3 X32.107 Y154.171 I0.019 J0.044
G1 Z-2.8 F60
G3 X32.089 Y154.191 Z-2.9 I-0.158 J-0.123
X32.029 Y154.232 Z-2.973 I-0.14 J-0.143
X31.931 Y154.247 Z-3 I-0.079 J-0.184
G2 X31.721 Y154.25 I-0.092 J0.996 F240
G1 X30.5
G3 Y152.75 I0 J-0.75
G1 X31.721
G2 X31.931 Y152.753 I0.118 J-0.993
G3 X32.75 Y153.5 I0.069 J0.747
X31.931 Y154.247 I-0.75 J0
X31.916 Y154.156 I0.004 J-0.048
G1 X32.05 Y154.098
G3 X32.107 Y154.171 I0.019 J0.044
G1 Z-3.8 F60
G3 X32.089 Y154.191 Z-3.9 I-0.158 J-0.123
X32.029 Y154.232 Z-3.973 I-0.14 J-0.143
X31.931 Y154.247 Z-4 I-0.079 J-0.184
G2 X31.721 Y154.25 I-0.092 J0.996 F240
G1 X30.5
G3 Y152.75 I0 J-0.75
G1 X31.721
G2 X31.931 Y152.753 I0.118 J-0.993
G3 X32.75 Y153.5 I0.069 J0.747
X31.931 Y154.247 I-0.75 J0
X31.916 Y154.156 I0.004 J-0.048
G1 X32.05 Y154.098
G3 X32.107 Y154.171 I0.019 J0.044
G1 Z-4.38 F60
G3 X32.089 Y154.191 Z-4.48 I-0.158 J-0.123
X32.029 Y154.232 Z-4.553 I-0.14 J-0.143
X31.931 Y154.247 Z-4.58 I-0.079 J-0.184
G2 X31.721 Y154.25 I-0.092 J0.996 F240
G1 X30.5
G3 Y152.75 I0 J-0.75
G1 X31.721
G2 X31.931 Y152.753 I0.118 J-0.993
G3 X32.75 Y153.5 I0.069 J0.747
X31.931 Y154.247 I-0.75 J0
X31.838 Y154.214 Z-4.553 I0.018 J-0.199 F480
X31.786 Y154.163 Z-4.48 I0.112 J-0.166
X31.772 Y154.14 Z-4.38 I0.164 J-0.115
G0 Z5
X22.85 Y153.3
Z2
G1 Z-0.8 F60
Y153.307 Z-0.852
Y153.327 Z-0.9
Y153.359 Z-0.941
Y153.4 Z-0.973
Y153.448 Z-0.993
Y153.5 Z-1
G3 X22.15 I-0.35 J0 F240
X24.75 I1.3 J0
X20.25 I-2.25 J0
X24.75 I2.25 J0
X24.472 Y153.684 I-0.2 J0
G1 X23.128 Y153.116
G2 X22.85 Y153.3 I-0.078 J0.184
G1 Z-1.8 F60
Y153.307 Z-1.852
Y153.327 Z-1.9
Y153.359 Z-1.941
Y153.4 Z-1.973
Y153.448 Z-1.993
Y153.5 Z-2
G3 X22.15 I-0.35 J0 F240
X24.75 I1.3 J0
X20.25 I-2.25 J0
X24.75 I2.25 J0
X24.472 Y153.684 I-0.2 J0
G1 X23.128 Y153.116
G2 X22.85 Y153.3 I-0.078 J0.184
G1 Z-2.8 F60
Y153.307 Z-2.852
Y153.327 Z-2.9
Y153.359 Z-2.941
Y153.4 Z-2.973
Y153.448 Z-2.993
Y153.5 Z-3
G3 X22.15 I-0.35 J0 F240
X24.75 I1.3 J0
X20.25 I-2.25 J0
X24.75 I2.25 J0
X24.472 Y153.684 I-0.2 J0
G1 X23.128 Y153.116
G2 X22.85 Y153.3 I-0.078 J0.184
G1 Z-3.8 F60
Y153.307 Z-3.852
Y153.327 Z-3.9
Y153.359 Z-3.941
Y153.4 Z-3.973
Y153.448 Z-3.993
Y153.5 Z-4
G3 X22.15 I-0.35 J0 F240
X24.75 I1.3 J0
X20.25 I-2.25 J0
X24.75 I2.25 J0
X24.472 Y153.684 I-0.2 J0
G1 X23.128 Y153.116
G2 X22.85 Y153.3 I-0.078 J0.184
G1 Z-4.38 F60
Y153.307 Z-4.432
Y153.327 Z-4.48
Y153.359 Z-4.521
Y153.4 Z-4.553
Y153.448 Z-4.573
Y153.5 Z-4.58
G3 X22.15 I-0.35 J0 F240
X24.75 I1.3 J0
X20.25 I-2.25 J0
X24.75 I2.25 J0
X24.726 Y153.596 Z-4.553 I-0.2 J0 F480
X24.68 Y153.652 Z-4.48 I-0.176 J-0.096
X24.658 Y153.668 Z-4.38 I-0.13 J-0.152
G0 Z5
X6.669 Y149.776
Z2
G1 Z-0.8 F60
G3 X6.653 Y149.798 Z-0.9 I-0.168 J-0.108
X6.596 Y149.844 Z-0.973 I-0.152 J-0.13
X6.5 Y149.868 Z-1 I-0.096 J-0.176
Y149.068 I0 J-0.4 F240
Y149.868 I0 J0.4
X6.477 Y149.778 I0 J-0.048
G1 X6.605 Y149.708
G3 X6.669 Y149.776 I0.023 J0.042
G1 Z-1.8 F60
G3 X6.653 Y149.798 Z-1.9 I-0.168 J-0.108
X6.596 Y149.844 Z-1.973 I-0.152 J-0.13
X6.5 Y149.868 Z-2 I-0.096 J-0.176
Y149.068 I0 J-0.4 F240
Y149.868 I0 J0.4
X6.477 Y149.778 I0 J-0.048
G1 X6.605 Y149.708
G3 X6.669 Y149.776 I0.023 J0.042
G1 Z-2.8 F60
G3 X6.653 Y149.798 Z-2.9 I-0.168 J-0.108
X6.596 Y149.844 Z-2.973 I-0.152 J-0.13
X6.5 Y149.868 Z-3 I-0.096 J-0.176
Y149.068 I0 J-0.4 F240
Y149.868 I0 J0.4
X6.477 Y149.778 I0 J-0.048
G1 X6.605 Y149.708
G3 X6.669 Y149.776 I0.023 J0.042
G1 Z-3.8 F60
G3 X6.653 Y149.798 Z-3.9 I-0.168 J-0.108
X6.596 Y149.844 Z-3.973 I-0.152 J-0.13
X6.5 Y149.868 Z-4 I-0.096 J-0.176
Y149.068 I0 J-0.4 F240
Y149.868 I0 J0.4
X6.477 Y149.778 I0 J-0.048
G1 X6.605 Y149.708
G3 X6.669 Y149.776 I0.023 J0.042
G1 Z-4.38 F60
G3 X6.653 Y149.798 Z-4.48 I-0.168 J-0.108
X6.596 Y149.844 Z-4.553 I-0.152 J-0.13
X6.5 Y149.868 Z-4.58 I-0.096 J-0.176
Y149.068 I0 J-0.4 F240
Y149.868 I0 J0.4
X6.404 Y149.844 Z-4.553 I0 J-0.2 F480
X6.348 Y149.798 Z-4.48 I0.096 J-0.176
X6.332 Y149.776 Z-4.38 I0.152 J-0.13
G0 Z5
X10.978 Y164.848
Z2
G1 Z-0.8 F60
G3 X11.005 Y164.847 Z-0.9 I0.015 J0.199
X11.076 Y164.865 Z-0.973 I-0.012 J0.2
X11.153 Y164.927 Z-1 I-0.083 J0.182
X10.513 Y165.407 I-0.32 J0.24 F240
X11.153 Y164.927 I0.32 J-0.24
X11.094 Y164.999 I-0.038 J0.029
G1 X10.962 Y164.939
G3 X10.978 Y164.848 I0.02 J-0.044
G1 Z-1.8 F60
G3 X11.005 Y164.847 Z-1.9 I0.015 J0.199
X11.076 Y164.865 Z-1.973 I-0.012 J0.2
X11.153 Y164.927 Z-2 I-0.083 J0.182
X10.513 Y165.407 I-0.32 J0.24 F240
X11.153 Y164.927 I0.32 J-0.24
X11.094 Y164.999 I-0.038 J0.029
G1 X10.962 Y164.939
G3 X10.978 Y164.848 I0.02 J-0.044
G1 Z-2.8 F60
G3 X11.005 Y164.847 Z-2.9 I0.015 J0.199
X11.076 Y164.865 Z-2.973 I-0.012 J0.2
X11.153 Y164.927 Z-3 I-0.083 J0.182
X10.513 Y165.407 I-0.32 J0.24 F240
X11.153 Y164.927 I0.32 J-0.24
X11.094 Y164.999 I-0.038 J0.029
G1 X10.962 Y164.939
G3 X10.978 Y164.848 I0.02 J-0.044
G1 Z-3.8 F60
G3 X11.005 Y164.847 Z-3.9 I0.015 J0.199
X11.076 Y164.865 Z-3.973 I-0.012 J0.2
X11.153 Y164.927 Z-4 I-0.083 J0.182
X10.513 Y165.407 I-0.32 J0.24 F240
X11.153 Y164.927 I0.32 J-0.24
X11.094 Y164.999 I-0.038 J0.029
G1 X10.962 Y164.939
G3 X10.978 Y164.848 I0.02 J-0.044
G1 Z-4.38 F60
G3 X11.005 Y164.847 Z-4.48 I0.015 J0.199
X11.076 Y164.865 Z-4.553 I-0.012 J0.2
X11.153 Y164.927 Z-4.58 I-0.083 J0.182
X10.513 Y165.407 I-0.32 J0.24 F240
X11.153 Y164.927 I0.32 J-0.24
X11.191 Y165.018 Z-4.553 I-0.16 J0.12 F480
X11.188 Y165.091 Z-4.48 I-0.198 J0.029
X11.18 Y165.117 Z-4.38 I-0.195 J-0.044
G0 Z5
X26.701 Y169.808
Z2
G1 Z-0.8 F60
G3 X26.685 Y169.83 Z-0.9 I-0.168 J-0.108
X26.628 Y169.876 Z-0.973 I-0.152 J-0.13
X26.532 Y169.9 Z-1 I-0.096 J-0.176
Y169.1 I0 J-0.4 F240
Y169.9 I0 J0.4
X26.509 Y169.81 I0 J-0.048
G1 X26.637 Y169.74
G3 X26.701 Y169.808 I0.023 J0.042
G1 Z-1.8 F60
G3 X26.685 Y169.83 Z-1.9 I-0.168 J-0.108
X26.628 Y169.876 Z-1.973 I-0.152 J-0.13
X26.532 Y169.9 Z-2 I-0.096 J-0.176
Y169.1 I0 J-0.4 F240
Y169.9 I0 J0.4
X26.509 Y169.81 I0 J-0.048
G1 X26.637 Y169.74
G3 X26.701 Y169.808 I0.023 J0.042
G1 Z-2.8 F60
G3 X26.685 Y169.83 Z-2.9 I-0.168 J-0.108
X26.628 Y169.876 Z-2.973 I-0.152 J-0.13
X26.532 Y169.9 Z-3 I-0.096 J-0.176
Y169.1 I0 J-0.4 F240
Y169.9 I0 J0.4
X26.509 Y169.81 I0 J-0.048
G1 X26.637 Y169.74
G3 X26.701 Y169.808 I0.023 J0.042
G1 Z-3.8 F60
G3 X26.685 Y169.83 Z-3.9 I-0.168 J-0.108
X26.628 Y169.876 Z-3.973 I-0.152 J-0.13
X26.532 Y169.9 Z-4 I-0.096 J-0.176
Y169.1 I0 J-0.4 F240
Y169.9 I0 J0.4
X26.509 Y169.81 I0 J-0.048
G1 X26.637 Y169.74
G3 X26.701 Y169.808 I0.023 J0.042
G1 Z-4.38 F60
G3 X26.685 Y169.83 Z-4.48 I-0.168 J-0.108
X26.628 Y169.876 Z-4.553 I-0.152 J-0.13
X26.532 Y169.9 Z-4.58 I-0.096 J-0.176
Y169.1 I0 J-0.4 F240
Y169.9 I0 J0.4
X26.436 Y169.876 Z-4.553 I0 J-0.2 F480
X26.38 Y169.83 Z-4.48 I0.096 J-0.176
X26.364 Y169.808 Z-4.38 I0.152 J-0.13
G0 Z5
X151.842 Y145.668
Z2
G1 Z-0.8 F60
G3 X151.82 Y145.652 Z-0.9 I0.108 J-0.168
X151.774 Y145.596 Z-0.973 I0.13 J-0.152
X151.75 Y145.5 Z-1 I0.176 J-0.096
G1 Y144 F240
G3 X153.25 I0.75 J0
G1 Y145.5
G3 X151.75 I-0.75 J0
X151.84 Y145.477 I0.048 J0
G1 X151.91 Y145.605
G3 X151.842 Y145.668 I-0.042 J0.023
G1 Z-1.8 F60
G3 X151.82 Y145.652 Z-1.9 I0.108 J-0.168
X151.774 Y145.596 Z-1.973 I0.13 J-0.152
X151.75 Y145.5 Z-2 I0.176 J-0.096
G1 Y144 F240
G3 X153.25 I0.75 J0
G1 Y145.5
G3 X151.75 I-0.75 J0
X151.84 Y145.477 I0.048 J0
G1 X151.91 Y145.605
G3 X151.842 Y145.668 I-0.042 J0.023
G1 Z-2.8 F60
G3 X151.82 Y145.652 Z-2.9 I0.108 J-0.168
X151.774 Y145.596 Z-2.973 I0.13 J-0.152
X151.75 Y145.5 Z-3 I0.176 J-0.096
G1 Y144 F240
G3 X153.25 I0.75 J0
G1 Y145.5
G3 X151.75 I-0.75 J0
X151.84 Y145.477 I0.048 J0
G1 X151.91 Y145.605
G3 X151.842 Y145.668 I-0.042 J0.023
G1 Z-3.8 F60
G3 X151.82 Y145.652 Z-3.9 I0.108 J-0.168
X151.774 Y145.596 Z-3.973 I0.13 J-0.152
X151.75 Y145.5 Z-4 I0.176 J-0.096
G1 Y144 F240
G3 X153.25 I0.75 J0
G1 Y145.5
G3 X151.75 I-0.75 J0
X151.84 Y145.477 I0.048 J0
G1 X151.91 Y145.605
G3 X151.842 Y145.668 I-0.042 J0.023
G1 Z-4.38 F60
G3 X151.82 Y145.652 Z-4.48 I0.108 J-0.168
X151.774 Y145.596 Z-4.553 I0.13 J-0.152
X151.75 Y145.5 Z-4.58 I0.176 J-0.096
G1 Y144 F240
G3 X153.25 I0.75 J0
G1 Y145.5
G3 X151.75 I-0.75 J0
X151.774 Y145.404 Z-4.553 I0.2 J0 F480
X151.82 Y145.348 Z-4.48 I0.176 J0.096
X151.842 Y145.332 Z-4.38 I0.13 J0.152
G0 Z5
X143.168 Y154.158
Z2
G1 Z-0.8 F60
G3 X143.152 Y154.18 Z-0.9 I-0.168 J-0.108
X143.096 Y154.226 Z-0.973 I-0.152 J-0.13
X143 Y154.25 Z-1 I-0.096 J-0.176
Y152.75 I0 J-0.75 F240
G1 X144.5
G3 Y154.25 I0 J0.75
G1 X143
G3 X142.977 Y154.16 I0 J-0.048
G1 X143.105 Y154.09
G3 X143.168 Y154.158 I0.023 J0.042
G1 Z-1.8 F60
G3 X143.152 Y154.18 Z-1.9 I-0.168 J-0.108
X143.096 Y154.226 Z-1.973 I-0.152 J-0.13
X143 Y154.25 Z-2 I-0.096 J-0.176
Y152.75 I0 J-0.75 F240
G1 X144.5
G3 Y154.25 I0 J0.75
G1 X143
G3 X142.977 Y154.16 I0 J-0.048
G1 X143.105 Y154.09
G3 X143.168 Y154.158 I0.023 J0.042
G1 Z-2.8 F60
G3 X143.152 Y154.18 Z-2.9 I-0.168 J-0.108
X143.096 Y154.226 Z-2.973 I-0.152 J-0.13
X143 Y154.25 Z-3 I-0.096 J-0.176
Y152.75 I0 J-0.75 F240
G1 X144.5
G3 Y154.25 I0 J0.75
G1 X143
G3 X142.977 Y154.16 I0 J-0.048
G1 X143.105 Y154.09
G3 X143.168 Y154.158 I0.023 J0.042
G1 Z-3.8 F60
G3 X143.152 Y154.18 Z-3.9 I-0.168 J-0.108
X143.096 Y154.226 Z-3.973 I-0.152 J-0.13
X143 Y154.25 Z-4 I-0.096 J-0.176
Y152.75 I0 J-0.75 F240
G1 X144.5
G3 Y154.25 I0 J0.75
G1 X143
G3 X142.977 Y154.16 I0 J-0.048
G1 X143.105 Y154.09
G3 X143.168 Y154.158 I0.023 J0.042
G1 Z-4.38 F60
G3 X143.152 Y154.18 Z-4.48 I-0.168 J-0.108
X143.096 Y154.226 Z-4.553 I-0.152 J-0.13
X143 Y154.25 Z-4.58 I-0.096 J-0.176
Y152.75 I0 J-0.75 F240
G1 X144.5
G3 Y154.25 I0 J0.75
G1 X143
G3 X142.904 Y154.226 Z-4.553 I0 J-0.2 F480
X142.848 Y154.18 Z-4.48 I0.096 J-0.176
X142.832 Y154.158 Z-4.38 I0.152 J-0.13
G0 Z5
X151.842 Y161.668
Z2
G1 Z-0.8 F60
G3 X151.82 Y161.652 Z-0.9 I0.108 J-0.168
X151.774 Y161.596 Z-0.973 I0.13 J-0.152
X151.75 Y161.5 Z-1 I0.176 J-0.096
X153.25 I0.75 J0 F240
G1 Y163
G3 X151.75 I-0.75 J0
G1 Y161.5
G3 X151.84 Y161.477 I0.048 J0
G1 X151.91 Y161.605
G3 X151.842 Y161.668 I-0.042 J0.023
G1 Z-1.8 F60
G3 X151.82 Y161.652 Z-1.9 I0.108 J-0.168
X151.774 Y161.596 Z-1.973 I0.13 J-0.152
X151.75 Y161.5 Z-2 I0.176 J-0.096
X153.25 I0.75 J0 F240
G1 Y163
G3 X151.75 I-0.75 J0
G1 Y161.5
G3 X151.84 Y161.477 I0.048 J0
G1 X151.91 Y161.605
G3 X151.842 Y161.668 I-0.042 J0.023
G1 Z-2.8 F60
G3 X151.82 Y161.652 Z-2.9 I0.108 J-0.168
X151.774 Y161.596 Z-2.973 I0.13 J-0.152
X151.75 Y161.5 Z-3 I0.176 J-0.096
X153.25 I0.75 J0 F240
G1 Y163
G3 X151.75 I-0.75 J0
G1 Y161.5
G3 X151.84 Y161.477 I0.048 J0
G1 X151.91 Y161.605
G3 X151.842 Y161.668 I-0.042 J0.023
G1 Z-3.8 F60
G3 X151.82 Y161.652 Z-3.9 I0.108 J-0.168
X151.774 Y161.596 Z-3.973 I0.13 J-0.152
X151.75 Y161.5 Z-4 I0.176 J-0.096
X153.25 I0.75 J0 F240
G1 Y163
G3 X151.75 I-0.75 J0
G1 Y161.5
G3 X151.84 Y161.477 I0.048 J0
G1 X151.91 Y161.605
G3 X151.842 Y161.668 I-0.042 J0.023
G1 Z-4.38 F60
G3 X151.82 Y161.652 Z-4.48 I0.108 J-0.168
X151.774 Y161.596 Z-4.553 I0.13 J-0.152
X151.75 Y161.5 Z-4.58 I0.176 J-0.096
X153.25 I0.75 J0 F240
G1 Y163
G3 X151.75 I-0.75 J0
G1 Y161.5
G3 X151.774 Y161.404 Z-4.553 I0.2 J0 F480
X151.82 Y161.348 Z-4.48 I0.176 J0.096
X151.842 Y161.332 Z-4.38 I0.13 J0.152
G0 Z5
X162.168 Y154.158
Z2
G1 Z-0.8 F60
G3 X162.152 Y154.18 Z-0.9 I-0.168 J-0.108
X162.096 Y154.226 Z-0.973 I-0.152 J-0.13
X162 Y154.25 Z-1 I-0.096 J-0.176
G1 X160.5 F240
G3 Y152.75 I0 J-0.75
G1 X162
G3 Y154.25 I0 J0.75
X161.977 Y154.16 I0 J-0.048
G1 X162.105 Y154.09
G3 X162.168 Y154.158 I0.023 J0.042
G1 Z-1.8 F60
G3 X162.152 Y154.18 Z-1.9 I-0.168 J-0.108
X162.096 Y154.226 Z-1.973 I-0.152 J-0.13
X162 Y154.25 Z-2 I-0.096 J-0.176
G1 X160.5 F240
G3 Y152.75 I0 J-0.75
G1 X162
G3 Y154.25 I0 J0.75
X161.977 Y154.16 I0 J-0.048
G1 X162.105 Y154.09
G3 X162.168 Y154.158 I0.023 J0.042
G1 Z-2.8 F60
G3 X162.152 Y154.18 Z-2.9 I-0.168 J-0.108
X162.096 Y154.226 Z-2.973 I-0.152 J-0.13
X162 Y154.25 Z-3 I-0.096 J-0.176
G1 X160.5 F240
G3 Y152.75 I0 J-0.75
G1 X162
G3 Y154.25 I0 J0.75
X161.977 Y154.16 I0 J-0.048
G1 X162.105 Y154.09
G3 X162.168 Y154.158 I0.023 J0.042
G1 Z-3.8 F60
G3 X162.152 Y154.18 Z-3.9 I-0.168 J-0.108
X162.096 Y154.226 Z-3.973 I-0.152 J-0.13
X162 Y154.25 Z-4 I-0.096 J-0.176
G1 X160.5 F240
G3 Y152.75 I0 J-0.75
G1 X162
G3 Y154.25 I0 J0.75
X161.977 Y154.16 I0 J-0.048
G1 X162.105 Y154.09
G3 X162.168 Y154.158 I0.023 J0.042
G1 Z-4.38 F60
G3 X162.152 Y154.18 Z-4.48 I-0.168 J-0.108
X162.096 Y154.226 Z-4.553 I-0.152 J-0.13
X162 Y154.25 Z-4.58 I-0.096 J-0.176
G1 X160.5 F240
G3 Y152.75 I0 J-0.75
G1 X162
G3 Y154.25 I0 J0.75
X161.904 Y154.226 Z-4.553 I0 J-0.2 F480
X161.848 Y154.18 Z-4.48 I0.096 J-0.176
X161.832 Y154.158 Z-4.38 I0.152 J-0.13
G0 Z5
X152.85 Y153.3
Z2
G1 Z-0.8 F60
Y153.307 Z-0.852
Y153.327 Z-0.9
Y153.359 Z-0.941
Y153.4 Z-0.973
Y153.448 Z-0.993
Y153.5 Z-1
G3 X152.15 I-0.35 J0 F240
X154.75 I1.3 J0
X150.25 I-2.25 J0
X154.75 I2.25 J0
X154.472 Y153.684 I-0.2 J0
G1 X153.128 Y153.116
G2 X152.85 Y153.3 I-0.078 J0.184
G1 Z-1.8 F60
Y153.307 Z-1.852
Y153.327 Z-1.9
Y153.359 Z-1.941
Y153.4 Z-1.973
Y153.448 Z-1.993
Y153.5 Z-2
G3 X152.15 I-0.35 J0 F240
X154.75 I1.3 J0
X150.25 I-2.25 J0
X154.75 I2.25 J0
X154.472 Y153.684 I-0.2 J0
G1 X153.128 Y153.116
G2 X152.85 Y153.3 I-0.078 J0.184
G1 Z-2.8 F60
Y153.307 Z-2.852
Y153.327 Z-2.9
Y153.359 Z-2.941
Y153.4 Z-2.973
Y153.448 Z-2.993
Y153.5 Z-3
G3 X152.15 I-0.35 J0 F240
X154.75 I1.3 J0
X150.25 I-2.25 J0
X154.75 I2.25 J0
X154.472 Y153.684 I-0.2 J0
G1 X153.128 Y153.116
G2 X152.85 Y153.3 I-0.078 J0.184
G1 Z-3.8 F60
Y153.307 Z-3.852
Y153.327 Z-3.9
Y153.359 Z-3.941
Y153.4 Z-3.973
Y153.448 Z-3.993
Y153.5 Z-4
G3 X152.15 I-0.35 J0 F240
X154.75 I1.3 J0
X150.25 I-2.25 J0
X154.75 I2.25 J0
X154.472 Y153.684 I-0.2 J0
G1 X153.128 Y153.116
G2 X152.85 Y153.3 I-0.078 J0.184
G1 Z-4.38 F60
Y153.307 Z-4.432
Y153.327 Z-4.48
Y153.359 Z-4.521
Y153.4 Z-4.553
Y153.448 Z-4.573
Y153.5 Z-4.58
G3 X152.15 I-0.35 J0 F240
X154.75 I1.3 J0
X150.25 I-2.25 J0
X154.75 I2.25 J0
X154.726 Y153.596 Z-4.553 I-0.2 J0 F480
X154.68 Y153.652 Z-4.48 I-0.176 J-0.096
X154.658 Y153.668 Z-4.38 I-0.13 J-0.152
G0 Z5
X148.636 Y169.808
Z2
G1 Z-0.8 F60
G3 X148.62 Y169.83 Z-0.9 I-0.168 J-0.108
X148.564 Y169.876 Z-0.973 I-0.152 J-0.13
X148.468 Y169.9 Z-1 I-0.096 J-0.176
X148.148 Y169.26 I0 J-0.4 F240
X148.788 Y169.74 I0.32 J0.24
X148.468 Y169.9 I-0.32 J-0.24
X148.445 Y169.81 I0 J-0.048
G1 X148.573 Y169.74
G3 X148.636 Y169.808 I0.023 J0.042
G1 Z-1.8 F60
G3 X148.62 Y169.83 Z-1.9 I-0.168 J-0.108
X148.564 Y169.876 Z-1.973 I-0.152 J-0.13
X148.468 Y169.9 Z-2 I-0.096 J-0.176
X148.148 Y169.26 I0 J-0.4 F240
X148.788 Y169.74 I0.32 J0.24
X148.468 Y169.9 I-0.32 J-0.24
X148.445 Y169.81 I0 J-0.048
G1 X148.573 Y169.74
G3 X148.636 Y169.808 I0.023 J0.042
G1 Z-2.8 F60
G3 X148.62 Y169.83 Z-2.9 I-0.168 J-0.108
X148.564 Y169.876 Z-2.973 I-0.152 J-0.13
X148.468 Y169.9 Z-3 I-0.096 J-0.176
X148.148 Y169.26 I0 J-0.4 F240
X148.788 Y169.74 I0.32 J0.24
X148.468 Y169.9 I-0.32 J-0.24
X148.445 Y169.81 I0 J-0.048
G1 X148.573 Y169.74
G3 X148.636 Y169.808 I0.023 J0.042
G1 Z-3.8 F60
G3 X148.62 Y169.83 Z-3.9 I-0.168 J-0.108
X148.564 Y169.876 Z-3.973 I-0.152 J-0.13
X148.468 Y169.9 Z-4 I-0.096 J-0.176
X148.148 Y169.26 I0 J-0.4 F240
X148.788 Y169.74 I0.32 J0.24
X148.468 Y169.9 I-0.32 J-0.24
X148.445 Y169.81 I0 J-0.048
G1 X148.573 Y169.74
G3 X148.636 Y169.808 I0.023 J0.042
G1 Z-4.38 F60
G3 X148.62 Y169.83 Z-4.48 I-0.168 J-0.108
X148.564 Y169.876 Z-4.553 I-0.152 J-0.13
X148.468 Y169.9 Z-4.58 I-0.096 J-0.176
X148.148 Y169.26 I0 J-0.4 F240
X148.788 Y169.74 I0.32 J0.24
X148.468 Y169.9 I-0.32 J-0.24
X148.372 Y169.876 Z-4.553 I0 J-0.2 F480
X148.316 Y169.83 Z-4.48 I0.096 J-0.176
X148.3 Y169.808 Z-4.38 I0.152 J-0.13
G0 Z5
X164.312 Y164.848
Z2
G1 Z-0.8 F60
G3 X164.339 Y164.847 Z-0.9 I0.015 J0.199
X164.41 Y164.865 Z-0.973 I-0.012 J0.2
X164.487 Y164.927 Z-1 I-0.083 J0.182
X163.847 Y165.407 I-0.32 J0.24 F240
X164.487 Y164.927 I0.32 J-0.24
X164.429 Y164.999 I-0.038 J0.029
G1 X164.296 Y164.939
G3 X164.312 Y164.848 I0.02 J-0.044
G1 Z-1.8 F60
G3 X164.339 Y164.847 Z-1.9 I0.015 J0.199
X164.41 Y164.865 Z-1.973 I-0.012 J0.2
X164.487 Y164.927 Z-2 I-0.083 J0.182
X163.847 Y165.407 I-0.32 J0.24 F240
X164.487 Y164.927 I0.32 J-0.24
X164.429 Y164.999 I-0.038 J0.029
G1 X164.296 Y164.939
G3 X164.312 Y164.848 I0.02 J-0.044
G1 Z-2.8 F60
G3 X164.339 Y164.847 Z-2.9 I0.015 J0.199
X164.41 Y164.865 Z-2.973 I-0.012 J0.2
X164.487 Y164.927 Z-3 I-0.083 J0.182
X163.847 Y165.407 I-0.32 J0.24 F240
X164.487 Y164.927 I0.32 J-0.24
X164.429 Y164.999 I-0.038 J0.029
G1 X164.296 Y164.939
G3 X164.312 Y164.848 I0.02 J-0.044
G1 Z-3.8 F60
G3 X164.339 Y164.847 Z-3.9 I0.015 J0.199
X164.41 Y164.865 Z-3.973 I-0.012 J0.2
X164.487 Y164.927 Z-4 I-0.083 J0.182
X163.847 Y165.407 I-0.32 J0.24 F240
X164.487 Y164.927 I0.32 J-0.24
X164.429 Y164.999 I-0.038 J0.029
G1 X164.296 Y164.939
G3 X164.312 Y164.848 I0.02 J-0.044
G1 Z-4.38 F60
G3 X164.339 Y164.847 Z-4.48 I0.015 J0.199
X164.41 Y164.865 Z-4.553 I-0.012 J0.2
X164.487 Y164.927 Z-4.58 I-0.083 J0.182
X163.847 Y165.407 I-0.32 J0.24 F240
X164.487 Y164.927 I0.32 J-0.24
X164.525 Y165.018 Z-4.553 I-0.16 J0.12 F480
X164.522 Y165.091 Z-4.48 I-0.198 J0.029
X164.514 Y165.117 Z-4.38 I-0.195 J-0.044
G0 Z5
X168.645 Y149.149
Z2
G1 Z-0.8 F60
G3 X168.672 Y149.148 Z-0.9 I0.015 J0.199
X168.743 Y149.166 Z-0.973 I-0.012 J0.2
X168.82 Y149.228 Z-1 I-0.083 J0.182
X168.5 Y149.868 I-0.32 J0.24 F240
Y149.068 I0 J-0.4
X168.82 Y149.228 I0 J0.4
X168.762 Y149.3 I-0.038 J0.029
G1 X168.629 Y149.24
G3 X168.645 Y149.149 I0.02 J-0.044
G1 Z-1.8 F60
G3 X168.672 Y149.148 Z-1.9 I0.015 J0.199
X168.743 Y149.166 Z-1.973 I-0.012 J0.2
X168.82 Y149.228 Z-2 I-0.083 J0.182
X168.5 Y149.868 I-0.32 J0.24 F240
Y149.068 I0 J-0.4
X168.82 Y149.228 I0 J0.4
X168.762 Y149.3 I-0.038 J0.029
G1 X168.629 Y149.24
G3 X168.645 Y149.149 I0.02 J-0.044
G1 Z-2.8 F60
G3 X168.672 Y149.148 Z-2.9 I0.015 J0.199
X168.743 Y149.166 Z-2.973 I-0.012 J0.2
X168.82 Y149.228 Z-3 I-0.083 J0.182
X168.5 Y149.868 I-0.32 J0.24 F240
Y149.068 I0 J-0.4
X168.82 Y149.228 I0 J0.4
X168.762 Y149.3 I-0.038 J0.029
G1 X168.629 Y149.24
G3 X168.645 Y149.149 I0.02 J-0.044
G1 Z-3.8 F60
G3 X168.672 Y149.148 Z-3.9 I0.015 J0.199
X168.743 Y149.166 Z-3.973 I-0.012 J0.2
X168.82 Y149.228 Z-4 I-0.083 J0.182
X168.5 Y149.868 I-0.32 J0.24 F240
Y149.068 I0 J-0.4
X168.82 Y149.228 I0 J0.4
X168.762 Y149.3 I-0.038 J0.029
G1 X168.629 Y149.24
G3 X168.645 Y149.149 I0.02 J-0.044
G1 Z-4.38 F60
G3 X168.672 Y149.148 Z-4.48 I0.015 J0.199
X168.743 Y149.166 Z-4.553 I-0.012 J0.2
X168.82 Y149.228 Z-4.58 I-0.083 J0.182
X168.5 Y149.868 I-0.32 J0.24 F240
Y149.068 I0 J-0.4
X168.82 Y149.228 I0 J0.4
X168.858 Y149.319 Z-4.553 I-0.16 J0.12 F480
X168.855 Y149.392 Z-4.48 I-0.198 J0.029
X168.847 Y149.418 Z-4.38 I-0.195 J-0.044
G0 Z5
X142.832 Y22.842
Z2
G1 Z-0.8 F60
G3 X142.848 Y22.82 Z-0.9 I0.168 J0.108
X142.904 Y22.774 Z-0.973 I0.152 J0.13
X143 Y22.75 Z-1 I0.096 J0.176
G1 X144.5 F240
G3 Y24.25 I0 J0.75
G1 X143
G3 Y22.75 I0 J-0.75
X143.023 Y22.84 I0 J0.048
G1 X142.895 Y22.91
G3 X142.832 Y22.842 I-0.023 J-0.042
G1 Z-1.8 F60
G3 X142.848 Y22.82 Z-1.9 I0.168 J0.108
X142.904 Y22.774 Z-1.973 I0.152 J0.13
X143 Y22.75 Z-2 I0.096 J0.176
G1 X144.5 F240
G3 Y24.25 I0 J0.75
G1 X143
G3 Y22.75 I0 J-0.75
X143.023 Y22.84 I0 J0.048
G1 X142.895 Y22.91
G3 X142.832 Y22.842 I-0.023 J-0.042
G1 Z-2.8 F60
G3 X142.848 Y22.82 Z-2.9 I0.168 J0.108
X142.904 Y22.774 Z-2.973 I0.152 J0.13
X143 Y22.75 Z-3 I0.096 J0.176
G1 X144.5 F240
G3 Y24.25 I0 J0.75
G1 X143
G3 Y22.75 I0 J-0.75
X143.023 Y22.84 I0 J0.048
G1 X142.895 Y22.91
G3 X142.832 Y22.842 I-0.023 J-0.042
G1 Z-3.8 F60
G3 X142.848 Y22.82 Z-3.9 I0.168 J0.108
X142.904 Y22.774 Z-3.973 I0.152 J0.13
X143 Y22.75 Z-4 I0.096 J0.176
G1 X144.5 F240
G3 Y24.25 I0 J0.75
G1 X143
G3 Y22.75 I0 J-0.75
X143.023 Y22.84 I0 J0.048
G1 X142.895 Y22.91
G3 X142.832 Y22.842 I-0.023 J-0.042
G1 Z-4.38 F60
G3 X142.848 Y22.82 Z-4.48 I0.168 J0.108
X142.904 Y22.774 Z-4.553 I0.152 J0.13
X143 Y22.75 Z-4.58 I0.096 J0.176
G1 X144.5 F240
G3 Y24.25 I0 J0.75
G1 X143
G3 Y22.75 I0 J-0.75
X143.096 Y22.774 Z-4.553 I0 J0.2 F480
X143.152 Y22.82 Z-4.48 I-0.096 J0.176
X143.168 Y22.842 Z-4.38 I-0.152 J0.13
G0 Z5
X151.842 Y33.168
Z2
G1 Z-0.8 F60
G3 X151.82 Y33.152 Z-0.9 I0.108 J-0.168
X151.774 Y33.096 Z-0.973 I0.13 J-0.152
X151.75 Y33 Z-1 I0.176 J-0.096
G1 Y31.5 F240
G3 X153.25 I0.75 J0
G1 Y33
G3 X151.75 I-0.75 J0
X151.84 Y32.977 I0.048 J0
G1 X151.91 Y33.105
G3 X151.842 Y33.168 I-0.042 J0.023
G1 Z-1.8 F60
G3 X151.82 Y33.152 Z-1.9 I0.108 J-0.168
X151.774 Y33.096 Z-1.973 I0.13 J-0.152
X151.75 Y33 Z-2 I0.176 J-0.096
G1 Y31.5 F240
G3 X153.25 I0.75 J0
G1 Y33
G3 X151.75 I-0.75 J0
X151.84 Y32.977 I0.048 J0
G1 X151.91 Y33.105
G3 X151.842 Y33.168 I-0.042 J0.023
G1 Z-2.8 F60
G3 X151.82 Y33.152 Z-2.9 I0.108 J-0.168
X151.774 Y33.096 Z-2.973 I0.13 J-0.152
X151.75 Y33 Z-3 I0.176 J-0.096
G1 Y31.5 F240
G3 X153.25 I0.75 J0
G1 Y33
G3 X151.75 I-0.75 J0
X151.84 Y32.977 I0.048 J0
G1 X151.91 Y33.105
G3 X151.842 Y33.168 I-0.042 J0.023
G1 Z-3.8 F60
G3 X151.82 Y33.152 Z-3.9 I0.108 J-0.168
X151.774 Y33.096 Z-3.973 I0.13 J-0.152
X151.75 Y33 Z-4 I0.176 J-0.096
G1 Y31.5 F240
G3 X153.25 I0.75 J0
G1 Y33
G3 X151.75 I-0.75 J0
X151.84 Y32.977 I0.048 J0
G1 X151.91 Y33.105
G3 X151.842 Y33.168 I-0.042 J0.023
G1 Z-4.38 F60
G3 X151.82 Y33.152 Z-4.48 I0.108 J-0.168
X151.774 Y33.096 Z-4.553 I0.13 J-0.152
X151.75 Y33 Z-4.58 I0.176 J-0.096
G1 Y31.5 F240
G3 X153.25 I0.75 J0
G1 Y33
G3 X151.75 I-0.75 J0
X151.774 Y32.904 Z-4.553 I0.2 J0 F480
X151.82 Y32.848 Z-4.48 I0.176 J0.096
X151.842 Y32.832 Z-4.38 I0.13 J0.152
G0 Z5
X160.332 Y22.842
Z2
G1 Z-0.8 F60
G3 X160.348 Y22.82 Z-0.9 I0.168 J0.108
X160.404 Y22.774 Z-0.973 I0.152 J0.13
X160.5 Y22.75 Z-1 I0.096 J0.176
G1 X162 F240
G3 Y24.25 I0 J0.75
G1 X160.5
G3 Y22.75 I0 J-0.75
X160.641 Y23.091 I0 J0.2
G1 X160.091 Y23.641
G3 X159.842 Y23.668 I-0.141 J-0.141
G1 Z-1.8 F60
G3 X159.82 Y23.652 Z-1.9 I0.108 J-0.168
X159.774 Y23.596 Z-1.973 I0.13 J-0.152
X159.75 Y23.5 Z-2 I0.176 J-0.096
X160.5 Y22.75 I0.75 J0 F240
G1 X162
G3 Y24.25 I0 J0.75
G1 X160.5
G3 X159.75 Y23.5 I0 J-0.75
X159.84 Y23.477 I0.048 J0
G1 X159.91 Y23.605
G3 X159.842 Y23.668 I-0.042 J0.023
G1 Z-2.8 F60
G3 X159.82 Y23.652 Z-2.9 I0.108 J-0.168
X159.774 Y23.596 Z-2.973 I0.13 J-0.152
X159.75 Y23.5 Z-3 I0.176 J-0.096
X160.5 Y22.75 I0.75 J0 F240
G1 X162
G3 Y24.25 I0 J0.75
G1 X160.5
G3 X159.75 Y23.5 I0 J-0.75
X159.84 Y23.477 I0.048 J0
G1 X159.91 Y23.605
G3 X159.842 Y23.668 I-0.042 J0.023
G1 Z-3.8 F60
G3 X159.82 Y23.652 Z-3.9 I0.108 J-0.168
X159.774 Y23.596 Z-3.973 I0.13 J-0.152
X159.75 Y23.5 Z-4 I0.176 J-0.096
X160.5 Y22.75 I0.75 J0 F240
G1 X162
G3 Y24.25 I0 J0.75
G1 X160.5
G3 X159.75 Y23.5 I0 J-0.75
X159.84 Y23.477 I0.048 J0
G1 X159.91 Y23.605
G3 X159.842 Y23.668 I-0.042 J0.023
G1 Z-4.38 F60
G3 X159.82 Y23.652 Z-4.48 I0.108 J-0.168
X159.774 Y23.596 Z-4.553 I0.13 J-0.152
X159.75 Y23.5 Z-4.58 I0.176 J-0.096
X160.5 Y22.75 I0.75 J0 F240
G1 X162
G3 Y24.25 I0 J0.75
G1 X160.5
G3 X159.75 Y23.5 I0 J-0.75
X159.774 Y23.404 Z-4.553 I0.2 J0 F480
X159.82 Y23.348 Z-4.48 I0.176 J0.096
X159.842 Y23.332 Z-4.38 I0.13 J0.152
G0 Z5
X151.842 Y14.168
Z2
G1 Z-0.8 F60
G3 X151.82 Y14.152 Z-0.9 I0.108 J-0.168
X151.774 Y14.096 Z-0.973 I0.13 J-0.152
X151.75 Y14 Z-1 I0.176 J-0.096
X153.25 I0.75 J0 F240
G1 Y15.5
G3 X151.75 I-0.75 J0
G1 Y14
G3 X151.84 Y13.977 I0.048 J0
G1 X151.91 Y14.105
G3 X151.842 Y14.168 I-0.042 J0.023
G1 Z-1.8 F60
G3 X151.82 Y14.152 Z-1.9 I0.108 J-0.168
X151.774 Y14.096 Z-1.973 I0.13 J-0.152
X151.75 Y14 Z-2 I0.176 J-0.096
X153.25 I0.75 J0 F240
G1 Y15.5
G3 X151.75 I-0.75 J0
G1 Y14
G3 X151.84 Y13.977 I0.048 J0
G1 X151.91 Y14.105
G3 X151.842 Y14.168 I-0.042 J0.023
G1 Z-2.8 F60
G3 X151.82 Y14.152 Z-2.9 I0.108 J-0.168
X151.774 Y14.096 Z-2.973 I0.13 J-0.152
X151.75 Y14 Z-3 I0.176 J-0.096
X153.25 I0.75 J0 F240
G1 Y15.5
G3 X151.75 I-0.75 J0
G1 Y14
G3 X151.84 Y13.977 I0.048 J0
G1 X151.91 Y14.105
G3 X151.842 Y14.168 I-0.042 J0.023
G1 Z-3.8 F60
G3 X151.82 Y14.152 Z-3.9 I0.108 J-0.168
X151.774 Y14.096 Z-3.973 I0.13 J-0.152
X151.75 Y14 Z-4 I0.176 J-0.096
X153.25 I0.75 J0 F240
G1 Y15.5
G3 X151.75 I-0.75 J0
G1 Y14
G3 X151.84 Y13.977 I0.048 J0
G1 X151.91 Y14.105
G3 X151.842 Y14.168 I-0.042 J0.023
G1 Z-4.38 F60
G3 X151.82 Y14.152 Z-4.48 I0.108 J-0.168
X151.774 Y14.096 Z-4.553 I0.13 J-0.152
X151.75 Y14 Z-4.58 I0.176 J-0.096
X153.25 I0.75 J0 F240
G1 Y15.5
G3 X151.75 I-0.75 J0
G1 Y14
G3 X151.774 Y13.904 Z-4.553 I0.2 J0 F480
X151.82 Y13.848 Z-4.48 I0.176 J0.096
X151.842 Y13.832 Z-4.38 I0.13 J0.152
G0 Z5
X152.85 Y23.3
Z2
G1 Z-0.8 F60
Y23.307 Z-0.852
Y23.327 Z-0.9
Y23.359 Z-0.941
Y23.4 Z-0.973
Y23.448 Z-0.993
Y23.5 Z-1
G3 X152.15 I-0.35 J0 F240
X154.75 I1.3 J0
X150.25 I-2.25 J0
X154.75 I2.25 J0
X154.472 Y23.684 I-0.2 J0
G1 X153.128 Y23.116
G2 X152.85 Y23.3 I-0.078 J0.184
G1 Z-1.8 F60
Y23.307 Z-1.852
Y23.327 Z-1.9
Y23.359 Z-1.941
Y23.4 Z-1.973
Y23.448 Z-1.993
Y23.5 Z-2
G3 X152.15 I-0.35 J0 F240
X154.75 I1.3 J0
X150.25 I-2.25 J0
X154.75 I2.25 J0
X154.472 Y23.684 I-0.2 J0
G1 X153.128 Y23.116
G2 X152.85 Y23.3 I-0.078 J0.184
G1 Z-2.8 F60
Y23.307 Z-2.852
Y23.327 Z-2.9
Y23.359 Z-2.941
Y23.4 Z-2.973
Y23.448 Z-2.993
Y23.5 Z-3
G3 X152.15 I-0.35 J0 F240
X154.75 I1.3 J0
X150.25 I-2.25 J0
X154.75 I2.25 J0
X154.472 Y23.684 I-0.2 J0
G1 X153.128 Y23.116
G2 X152.85 Y23.3 I-0.078 J0.184
G1 Z-3.8 F60
Y23.307 Z-3.852
Y23.327 Z-3.9
Y23.359 Z-3.941
Y23.4 Z-3.973
Y23.448 Z-3.993
Y23.5 Z-4
G3 X152.15 I-0.35 J0 F240
X154.75 I1.3 J0
X150.25 I-2.25 J0
X154.75 I2.25 J0
X154.472 Y23.684 I-0.2 J0
G1 X153.128 Y23.116
G2 X152.85 Y23.3 I-0.078 J0.184
G1 Z-4.38 F60
Y23.307 Z-4.432
Y23.327 Z-4.48
Y23.359 Z-4.521
Y23.4 Z-4.553
Y23.448 Z-4.573
Y23.5 Z-4.58
G3 X152.15 I-0.35 J0 F240
X154.75 I1.3 J0
X150.25 I-2.25 J0
X154.75 I2.25 J0
X154.726 Y23.596 Z-4.553 I-0.2 J0 F480
X154.68 Y23.652 Z-4.48 I-0.176 J-0.096
X154.658 Y23.668 Z-4.38 I-0.13 J-0.152
G0 Z5
X148.636 Y7.808
Z2
G1 Z-0.8 F60
G3 X148.62 Y7.83 Z-0.9 I-0.168 J-0.108
X148.564 Y7.876 Z-0.973 I-0.152 J-0.13
X148.468 Y7.9 Z-1 I-0.096 J-0.176
Y7.1 I0 J-0.4 F240
Y7.9 I0 J0.4
X148.445 Y7.81 I0 J-0.048
G1 X148.573 Y7.74
G3 X148.636 Y7.808 I0.023 J0.042
G1 Z-1.8 F60
G3 X148.62 Y7.83 Z-1.9 I-0.168 J-0.108
X148.564 Y7.876 Z-1.973 I-0.152 J-0.13
X148.468 Y7.9 Z-2 I-0.096 J-0.176
Y7.1 I0 J-0.4 F240
Y7.9 I0 J0.4
X148.445 Y7.81 I0 J-0.048
G1 X148.573 Y7.74
G3 X148.636 Y7.808 I0.023 J0.042
G1 Z-2.8 F60
G3 X148.62 Y7.83 Z-2.9 I-0.168 J-0.108
X148.564 Y7.876 Z-2.973 I-0.152 J-0.13
X148.468 Y7.9 Z-3 I-0.096 J-0.176
Y7.1 I0 J-0.4 F240
Y7.9 I0 J0.4
X148.445 Y7.81 I0 J-0.048
G1 X148.573 Y7.74
G3 X148.636 Y7.808 I0.023 J0.042
G1 Z-3.8 F60
G3 X148.62 Y7.83 Z-3.9 I-0.168 J-0.108
X148.564 Y7.876 Z-3.973 I-0.152 J-0.13
X148.468 Y7.9 Z-4 I-0.096 J-0.176
Y7.1 I0 J-0.4 F240
Y7.9 I0 J0.4
X148.445 Y7.81 I0 J-0.048
G1 X148.573 Y7.74
G3 X148.636 Y7.808 I0.023 J0.042
G1 Z-4.38 F60
G3 X148.62 Y7.83 Z-4.48 I-0.168 J-0.108
X148.564 Y7.876 Z-4.553 I-0.152 J-0.13
X148.468 Y7.9 Z-4.58 I-0.096 J-0.176
Y7.1 I0 J-0.4 F240
Y7.9 I0 J0.4
X148.372 Y7.876 Z-4.553 I0 J-0.2 F480
X148.316 Y7.83 Z-4.48 I0.096 J-0.176
X148.3 Y7.808 Z-4.38 I0.152 J-0.13
G0 Z5
X164.335 Y12.141
Z2
G1 Z-0.8 F60
G3 X164.319 Y12.162 Z-0.9 I-0.168 J-0.108
X164.263 Y12.208 Z-0.973 I-0.152 J-0.13
X164.167 Y12.233 Z-1 I-0.096 J-0.176
Y11.433 I0 J-0.4 F240
Y12.233 I0 J0.4
X164.144 Y12.143 I0 J-0.048
G1 X164.272 Y12.073
G3 X164.335 Y12.141 I0.023 J0.042
G1 Z-1.8 F60
G3 X164.319 Y12.162 Z-1.9 I-0.168 J-0.108
X164.263 Y12.208 Z-1.973 I-0.152 J-0.13
X164.167 Y12.233 Z-2 I-0.096 J-0.176
Y11.433 I0 J-0.4 F240
Y12.233 I0 J0.4
X164.144 Y12.143 I0 J-0.048
G1 X164.272 Y12.073
G3 X164.335 Y12.141 I0.023 J0.042
G1 Z-2.8 F60
G3 X164.319 Y12.162 Z-2.9 I-0.168 J-0.108
X164.263 Y12.208 Z-2.973 I-0.152 J-0.13
X164.167 Y12.233 Z-3 I-0.096 J-0.176
Y11.433 I0 J-0.4 F240
Y12.233 I0 J0.4
X164.144 Y12.143 I0 J-0.048
G1 X164.272 Y12.073
G3 X164.335 Y12.141 I0.023 J0.042
G1 Z-3.8 F60
G3 X164.319 Y12.162 Z-3.9 I-0.168 J-0.108
X164.263 Y12.208 Z-3.973 I-0.152 J-0.13
X164.167 Y12.233 Z-4 I-0.096 J-0.176
Y11.433 I0 J-0.4 F240
Y12.233 I0 J0.4
X164.144 Y12.143 I0 J-0.048
G1 X164.272 Y12.073
G3 X164.335 Y12.141 I0.023 J0.042
G1 Z-4.38 F60
G3 X164.319 Y12.162 Z-4.48 I-0.168 J-0.108
X164.263 Y12.208 Z-4.553 I-0.152 J-0.13
X164.167 Y12.233 Z-4.58 I-0.096 J-0.176
Y11.433 I0 J-0.4 F240
Y12.233 I0 J0.4
X164.071 Y12.208 Z-4.553 I0 J-0.2 F480
X164.015 Y12.162 Z-4.48 I0.096 J-0.176
X163.999 Y12.141 Z-4.38 I0.152 J-0.13
G0 Z5
X168.668 Y27.84
Z2
G1 Z-0.8 F60
G3 X168.652 Y27.862 Z-0.9 I-0.168 J-0.108
X168.596 Y27.908 Z-0.973 I-0.152 J-0.13
X168.5 Y27.932 Z-1 I-0.096 J-0.176
Y27.132 I0 J-0.4 F240
Y27.932 I0 J0.4
X168.477 Y27.842 I0 J-0.048
G1 X168.605 Y27.772
G3 X168.668 Y27.84 I0.023 J0.042
G1 Z-1.8 F60
G3 X168.652 Y27.862 Z-1.9 I-0.168 J-0.108
X168.596 Y27.908 Z-1.973 I-0.152 J-0.13
X168.5 Y27.932 Z-2 I-0.096 J-0.176
Y27.132 I0 J-0.4 F240
Y27.932 I0 J0.4
X168.477 Y27.842 I0 J-0.048
G1 X168.605 Y27.772
G3 X168.668 Y27.84 I0.023 J0.042
G1 Z-2.8 F60
G3 X168.652 Y27.862 Z-2.9 I-0.168 J-0.108
X168.596 Y27.908 Z-2.973 I-0.152 J-0.13
X168.5 Y27.932 Z-3 I-0.096 J-0.176
Y27.132 I0 J-0.4 F240
Y27.932 I0 J0.4
X168.477 Y27.842 I0 J-0.048
G1 X168.605 Y27.772
G3 X168.668 Y27.84 I0.023 J0.042
G1 Z-3.8 F60
G3 X168.652 Y27.862 Z-3.9 I-0.168 J-0.108
X168.596 Y27.908 Z-3.973 I-0.152 J-0.13
X168.5 Y27.932 Z-4 I-0.096 J-0.176
Y27.132 I0 J-0.4 F240
Y27.932 I0 J0.4
X168.477 Y27.842 I0 J-0.048
G1 X168.605 Y27.772
G3 X168.668 Y27.84 I0.023 J0.042
G1 Z-4.38 F60
G3 X168.652 Y27.862 Z-4.48 I-0.168 J-0.108
X168.596 Y27.908 Z-4.553 I-0.152 J-0.13
X168.5 Y27.932 Z-4.58 I-0.096 J-0.176
Y27.132 I0 J-0.4 F240
Y27.932 I0 J0.4
X168.404 Y27.908 Z-4.553 I0 J-0.2 F480
X168.348 Y27.862 Z-4.48 I0.096 J-0.176
X168.332 Y27.84 Z-4.38 I0.152 J-0.13
G0 Z5
X72.082 Y103.242
Z2
G1 Z-0.8 F60
G3 X72.098 Y103.22 Z-0.9 I0.168 J0.108
X72.154 Y103.174 Z-0.973 I0.152 J0.13
X72.25 Y103.15 Z-1 I0.096 J0.176
Y104.35 I0 J0.6 F240
Y103.15 I0 J-0.6
X72.273 Y103.24 I0 J0.048
G1 X72.145 Y103.31
G3 X72.082 Y103.242 I-0.023 J-0.042
G1 Z-1.8 F60
G3 X72.098 Y103.22 Z-1.9 I0.168 J0.108
X72.154 Y103.174 Z-1.973 I0.152 J0.13
X72.25 Y103.15 Z-2 I0.096 J0.176
Y104.35 I0 J0.6 F240
Y103.15 I0 J-0.6
X72.273 Y103.24 I0 J0.048
G1 X72.145 Y103.31
G3 X72.082 Y103.242 I-0.023 J-0.042
G1 Z-2.8 F60
G3 X72.098 Y103.22 Z-2.9 I0.168 J0.108
X72.154 Y103.174 Z-2.973 I0.152 J0.13
X72.25 Y103.15 Z-3 I0.096 J0.176
Y104.35 I0 J0.6 F240
Y103.15 I0 J-0.6
X72.273 Y103.24 I0 J0.048
G1 X72.145 Y103.31
G3 X72.082 Y103.242 I-0.023 J-0.042
G1 Z-3.8 F60
G3 X72.098 Y103.22 Z-3.9 I0.168 J0.108
X72.154 Y103.174 Z-3.973 I0.152 J0.13
X72.25 Y103.15 Z-4 I0.096 J0.176
Y104.35 I0 J0.6 F240
Y103.15 I0 J-0.6
X72.273 Y103.24 I0 J0.048
G1 X72.145 Y103.31
G3 X72.082 Y103.242 I-0.023 J-0.042
G1 Z-4.38 F60
G3 X72.098 Y103.22 Z-4.48 I0.168 J0.108
X72.154 Y103.174 Z-4.553 I0.152 J0.13
X72.25 Y103.15 Z-4.58 I0.096 J0.176
Y104.35 I0 J0.6 F240
Y103.15 I0 J-0.6
X72.346 Y103.174 Z-4.553 I0 J0.2 F480
X72.402 Y103.22 Z-4.48 I-0.096 J0.176
X72.418 Y103.242 Z-4.38 I-0.152 J0.13
G0 Z5
X72.082 Y72.742
Z2
G1 Z-0.8 F60
G3 X72.098 Y72.72 Z-0.9 I0.168 J0.108
X72.154 Y72.674 Z-0.973 I0.152 J0.13
X72.25 Y72.65 Z-1 I0.096 J0.176
Y73.85 I0 J0.6 F240
Y72.65 I0 J-0.6
X72.273 Y72.74 I0 J0.048
G1 X72.145 Y72.81
G3 X72.082 Y72.742 I-0.023 J-0.042
G1 Z-1.8 F60
G3 X72.098 Y72.72 Z-1.9 I0.168 J0.108
X72.154 Y72.674 Z-1.973 I0.152 J0.13
X72.25 Y72.65 Z-2 I0.096 J0.176
Y73.85 I0 J0.6 F240
Y72.65 I0 J-0.6
X72.273 Y72.74 I0 J0.048
G1 X72.145 Y72.81
G3 X72.082 Y72.742 I-0.023 J-0.042
G1 Z-2.8 F60
G3 X72.098 Y72.72 Z-2.9 I0.168 J0.108
X72.154 Y72.674 Z-2.973 I0.152 J0.13
X72.25 Y72.65 Z-3 I0.096 J0.176
Y73.85 I0 J0.6 F240
Y72.65 I0 J-0.6
X72.273 Y72.74 I0 J0.048
G1 X72.145 Y72.81
G3 X72.082 Y72.742 I-0.023 J-0.042
G1 Z-3.8 F60
G3 X72.098 Y72.72 Z-3.9 I0.168 J0.108
X72.154 Y72.674 Z-3.973 I0.152 J0.13
X72.25 Y72.65 Z-4 I0.096 J0.176
Y73.85 I0 J0.6 F240
Y72.65 I0 J-0.6
X72.273 Y72.74 I0 J0.048
G1 X72.145 Y72.81
G3 X72.082 Y72.742 I-0.023 J-0.042
G1 Z-4.38 F60
G3 X72.098 Y72.72 Z-4.48 I0.168 J0.108
X72.154 Y72.674 Z-4.553 I0.152 J0.13
X72.25 Y72.65 Z-4.58 I0.096 J0.176
Y73.85 I0 J0.6 F240
Y72.65 I0 J-0.6
X72.346 Y72.674 Z-4.553 I0 J0.2 F480
X72.402 Y72.72 Z-4.48 I-0.096 J0.176
X72.418 Y72.742 Z-4.38 I-0.152 J0.13
G0 Z5
X103.257 Y73.42
Z2
G1 Z-0.8 F60
G3 X103.265 Y73.446 Z-0.9 I-0.187 J0.07
X103.268 Y73.519 Z-0.973 I-0.195 J0.044
X103.23 Y73.61 Z-1 I-0.198 J-0.029
X102.27 Y72.89 I-0.48 J-0.36 F240
X103.23 Y73.61 I0.48 J0.36
X103.144 Y73.574 I-0.038 J-0.029
G1 X103.165 Y73.43
G3 X103.257 Y73.42 I0.047 J0.007
G1 Z-1.8 F60
G3 X103.265 Y73.446 Z-1.9 I-0.187 J0.07
X103.268 Y73.519 Z-1.973 I-0.195 J0.044
X103.23 Y73.61 Z-2 I-0.198 J-0.029
X102.27 Y72.89 I-0.48 J-0.36 F240
X103.23 Y73.61 I0.48 J0.36
X103.144 Y73.574 I-0.038 J-0.029
G1 X103.165 Y73.43
G3 X103.257 Y73.42 I0.047 J0.007
G1 Z-2.8 F60
G3 X103.265 Y73.446 Z-2.9 I-0.187 J0.07
X103.268 Y73.519 Z-2.973 I-0.195 J0.044
X103.23 Y73.61 Z-3 I-0.198 J-0.029
X102.27 Y72.89 I-0.48 J-0.36 F240
X103.23 Y73.61 I0.48 J0.36
X103.144 Y73.574 I-0.038 J-0.029
G1 X103.165 Y73.43
G3 X103.257 Y73.42 I0.047 J0.007
G1 Z-3.8 F60
G3 X103.265 Y73.446 Z-3.9 I-0.187 J0.07
X103.268 Y73.519 Z-3.973 I-0.195 J0.044
X103.23 Y73.61 Z-4 I-0.198 J-0.029
X102.27 Y72.89 I-0.48 J-0.36 F240
X103.23 Y73.61 I0.48 J0.36
X103.144 Y73.574 I-0.038 J-0.029
G1 X103.165 Y73.43
G3 X103.257 Y73.42 I0.047 J0.007
G1 Z-4.38 F60
G3 X103.265 Y73.446 Z-4.48 I-0.187 J0.07
X103.268 Y73.519 Z-4.553 I-0.195 J0.044
X103.23 Y73.61 Z-4.58 I-0.198 J-0.029
X102.27 Y72.89 I-0.48 J-0.36 F240
X103.23 Y73.61 I0.48 J0.36
X103.153 Y73.672 Z-4.553 I-0.16 J-0.12 F480
X103.082 Y73.69 Z-4.48 I-0.083 J-0.182
X103.055 Y73.689 Z-4.38 I-0.012 J-0.2
G0 Z5
X102.582 Y103.242
Z2
G1 Z-0.8 F60
G3 X102.598 Y103.22 Z-0.9 I0.168 J0.108
X102.654 Y103.174 Z-0.973 I0.152 J0.13
X102.75 Y103.15 Z-1 I0.096 J0.176
Y104.35 I0 J0.6 F240
Y103.15 I0 J-0.6
X102.773 Y103.24 I0 J0.048
G1 X102.645 Y103.31
G3 X102.582 Y103.242 I-0.023 J-0.042
G1 Z-1.8 F60
G3 X102.598 Y103.22 Z-1.9 I0.168 J0.108
X102.654 Y103.174 Z-1.973 I0.152 J0.13
X102.75 Y103.15 Z-2 I0.096 J0.176
Y104.35 I0 J0.6 F240
Y103.15 I0 J-0.6
X102.773 Y103.24 I0 J0.048
G1 X102.645 Y103.31
G3 X102.582 Y103.242 I-0.023 J-0.042
G1 Z-2.8 F60
G3 X102.598 Y103.22 Z-2.9 I0.168 J0.108
X102.654 Y103.174 Z-2.973 I0.152 J0.13
X102.75 Y103.15 Z-3 I0.096 J0.176
Y104.35 I0 J0.6 F240
Y103.15 I0 J-0.6
X102.773 Y103.24 I0 J0.048
G1 X102.645 Y103.31
G3 X102.582 Y103.242 I-0.023 J-0.042
G1 Z-3.8 F60
G3 X102.598 Y103.22 Z-3.9 I0.168 J0.108
X102.654 Y103.174 Z-3.973 I0.152 J0.13
X102.75 Y103.15 Z-4 I0.096 J0.176
Y104.35 I0 J0.6 F240
Y103.15 I0 J-0.6
X102.773 Y103.24 I0 J0.048
G1 X102.645 Y103.31
G3 X102.582 Y103.242 I-0.023 J-0.042
G1 Z-4.38 F60
G3 X102.598 Y103.22 Z-4.48 I0.168 J0.108
X102.654 Y103.174 Z-4.553 I0.152 J0.13
X102.75 Y103.15 Z-4.58 I0.096 J0.176
Y104.35 I0 J0.6 F240
Y103.15 I0 J-0.6
X102.846 Y103.174 Z-4.553 I0 J0.2 F480
X102.902 Y103.22 Z-4.48 I-0.096 J0.176
X102.918 Y103.242 Z-4.38 I-0.152 J0.13
G0 Z5
X72.082 Y121.242
Z2
G1 Z-0.8 F60
G3 X72.098 Y121.22 Z-0.9 I0.168 J0.108
X72.154 Y121.174 Z-0.973 I0.152 J0.13
X72.25 Y121.15 Z-1 I0.096 J0.176
Y122.35 I0 J0.6 F240
Y121.15 I0 J-0.6
X72.273 Y121.24 I0 J0.048
G1 X72.145 Y121.31
G3 X72.082 Y121.242 I-0.023 J-0.042
G1 Z-1.8 F60
G3 X72.098 Y121.22 Z-1.9 I0.168 J0.108
X72.154 Y121.174 Z-1.973 I0.152 J0.13
X72.25 Y121.15 Z-2 I0.096 J0.176
Y122.35 I0 J0.6 F240
Y121.15 I0 J-0.6
X72.273 Y121.24 I0 J0.048
G1 X72.145 Y121.31
G3 X72.082 Y121.242 I-0.023 J-0.042
G1 Z-2.8 F60
G3 X72.098 Y121.22 Z-2.9 I0.168 J0.108
X72.154 Y121.174 Z-2.973 I0.152 J0.13
X72.25 Y121.15 Z-3 I0.096 J0.176
Y122.35 I0 J0.6 F240
Y121.15 I0 J-0.6
X72.273 Y121.24 I0 J0.048
G1 X72.145 Y121.31
G3 X72.082 Y121.242 I-0.023 J-0.042
G1 Z-3.8 F60
G3 X72.098 Y121.22 Z-3.9 I0.168 J0.108
X72.154 Y121.174 Z-3.973 I0.152 J0.13
X72.25 Y121.15 Z-4 I0.096 J0.176
Y122.35 I0 J0.6 F240
Y121.15 I0 J-0.6
X72.273 Y121.24 I0 J0.048
G1 X72.145 Y121.31
G3 X72.082 Y121.242 I-0.023 J-0.042
G1 Z-4.38 F60
G3 X72.098 Y121.22 Z-4.48 I0.168 J0.108
X72.154 Y121.174 Z-4.553 I0.152 J0.13
X72.25 Y121.15 Z-4.58 I0.096 J0.176
Y122.35 I0 J0.6 F240
Y121.15 I0 J-0.6
X72.346 Y121.174 Z-4.553 I0 J0.2 F480
X72.402 Y121.22 Z-4.48 I-0.096 J0.176
X72.418 Y121.242 Z-4.38 I-0.152 J0.13
G0 Z5
X102.582
Z2
G1 Z-0.8 F60
G3 X102.598 Y121.22 Z-0.9 I0.168 J0.108
X102.654 Y121.174 Z-0.973 I0.152 J0.13
X102.75 Y121.15 Z-1 I0.096 J0.176
Y122.35 I0 J0.6 F240
Y121.15 I0 J-0.6
X102.773 Y121.24 I0 J0.048
G1 X102.645 Y121.31
G3 X102.582 Y121.242 I-0.023 J-0.042
G1 Z-1.8 F60
G3 X102.598 Y121.22 Z-1.9 I0.168 J0.108
X102.654 Y121.174 Z-1.973 I0.152 J0.13
X102.75 Y121.15 Z-2 I0.096 J0.176
Y122.35 I0 J0.6 F240
Y121.15 I0 J-0.6
X102.773 Y121.24 I0 J0.048
G1 X102.645 Y121.31
G3 X102.582 Y121.242 I-0.023 J-0.042
G1 Z-2.8 F60
G3 X102.598 Y121.22 Z-2.9 I0.168 J0.108
X102.654 Y121.174 Z-2.973 I0.152 J0.13
X102.75 Y121.15 Z-3 I0.096 J0.176
Y122.35 I0 J0.6 F240
Y121.15 I0 J-0.6
X102.773 Y121.24 I0 J0.048
G1 X102.645 Y121.31
G3 X102.582 Y121.242 I-0.023 J-0.042
G1 Z-3.8 F60
G3 X102.598 Y121.22 Z-3.9 I0.168 J0.108
X102.654 Y121.174 Z-3.973 I0.152 J0.13
X102.75 Y121.15 Z-4 I0.096 J0.176
Y122.35 I0 J0.6 F240
Y121.15 I0 J-0.6
X102.773 Y121.24 I0 J0.048
G1 X102.645 Y121.31
G3 X102.582 Y121.242 I-0.023 J-0.042
G1 Z-4.38 F60
G3 X102.598 Y121.22 Z-4.48 I0.168 J0.108
X102.654 Y121.174 Z-4.553 I0.152 J0.13
X102.75 Y121.15 Z-4.58 I0.096 J0.176
Y122.35 I0 J0.6 F240
Y121.15 I0 J-0.6
X102.846 Y121.174 Z-4.553 I0 J0.2 F480
X102.902 Y121.22 Z-4.48 I-0.096 J0.176
X102.918 Y121.242 Z-4.38 I-0.152 J0.13
G0 Z15

(SLOTS)
M8
G0 X84.15 Y21.7
Z15
Z1
G1 Z0.5 F60
Z-0.58
Y19.8 F240
Z-1.58 F60
Y21.7 F240
Z-2.58 F60
Y19.8 F240
Z-3.58 F60
Y21.7 F240
Z-4.58 F60
Y19.8 F240
G0 Z5
X84.5 Y26.7
Z1
G1 Z0.5 F60
Z-0.58
Y24.8 F240
Z-1.58 F60
Y26.7 F240
Z-2.58 F60
Y24.8 F240
Z-3.58 F60
Y26.7 F240
Z-4.58 F60
Y24.8 F240
G0 Z5
X90.5 Y26.7
Z1
G1 Z0.5 F60
Z-0.58
Y24.8 F240
Z-1.58 F60
Y26.7 F240
Z-2.58 F60
Y24.8 F240
Z-3.58 F60
Y26.7 F240
Z-4.58 F60
Y24.8 F240
G0 Z5
X90.85 Y21.7
Z1
G1 Z0.5 F60
Z-0.58
Y19.8 F240
Z-1.58 F60
Y21.7 F240
Z-2.58 F60
Y19.8 F240
Z-3.58 F60
Y21.7 F240
Z-4.58 F60
Y19.8 F240
G0 Z5
X92.25 Y8.5
Z1
G1 Z0.5 F60
Z-0.58
Y5.5 F240
Z-1.58 F60
Y8.5 F240
Z-2.58 F60
Y5.5 F240
Z-3.58 F60
Y8.5 F240
Z-4.58 F60
Y5.5 F240
G0 Z5
X82.75 Y8.5
Z1
G1 Z0.5 F60
Z-0.58
Y5.5 F240
Z-1.58 F60
Y8.5 F240
Z-2.58 F60
Y5.5 F240
Z-3.58 F60
Y8.5 F240
Z-4.58 F60
Y5.5 F240
G0 Z5
X63.168 Y65.582
Z1
G1 Z0.5 F60
Z-0.58
X64.582 Y64.168 F240
Z-1.58 F60
X63.168 Y65.582 F240
Z-2.58 F60
X64.582 Y64.168 F240
Z-3.58 F60
X63.168 Y65.582 F240
Z-4.58 F60
X64.582 Y64.168 F240
G0 Z5
X111.832 Y65.582
Z1
G1 Z0.5 F60
Z-0.58
X110.418 Y64.168 F240
Z-1.58 F60
X111.832 Y65.582 F240
Z-2.58 F60
X110.418 Y64.168 F240
Z-3.58 F60
X111.832 Y65.582 F240
Z-4.58 F60
X110.418 Y64.168 F240
G0 Z5
Y112.832
Z1
G1 Z0.5 F60
Z-0.58
X111.832 Y111.418 F240
Z-1.58 F60
X110.418 Y112.832 F240
Z-2.58 F60
X111.832 Y111.418 F240
Z-3.58 F60
X110.418 Y112.832 F240
Z-4.58 F60
X111.832 Y111.418 F240
G0 Z5
X64.582 Y112.832
Z1
G1 Z0.5 F60
Z-0.58
X63.168 Y111.418 F240
Z-1.58 F60
X64.582 Y112.832 F240
Z-2.58 F60
X63.168 Y111.418 F240
Z-3.58 F60
X64.582 Y112.832 F240
Z-4.58 F60
X63.168 Y111.418 F240
G0 Z15

(INNER OUTLINES)
M8
G0 X60.009 Y18.6
Z15
Z2
G1 Z-0.8 F60
Y18.593 Z-0.852
Y18.573 Z-0.9
Y18.541 Z-0.941
Y18.5 Z-0.973
Y18.452 Z-0.993
Y18.4 Z-1
Y18.2 F120
G3 X60.209 Y18 I0.2 J0
G1 X78.25 F240
Y26.7
G2 X81.75 Y30.2 I3.5 J0
G1 X85.5
Y56.4
G2 X84.5 Y57.4 I0 J1
G1 Y59.4
G2 X85.5 Y60.4 I1 J0
G1 Y61.4
X71.714
X36.708 Y26.394
G2 X35.916 Y18 I-14.208 J-2.894
G1 X38.571
G2 X39.571 Y19 I1 J0
G1 X41.571
G2 X42.571 Y18 I0 J-1
G1 X60.209
G3 X60.41 Y18.2 I0 J0.2 F480
G1 Y18.4
Y18.452 Z-0.993
Y18.5 Z-0.973
Y18.541 Z-0.941
Y18.573 Z-0.9
Y18.593 Z-0.852
Y18.6 Z-0.8
X60.009
Z-1.8 F60
Y18.593 Z-1.852
Y18.573 Z-1.9
Y18.541 Z-1.941
Y18.5 Z-1.973
Y18.452 Z-1.993
Y18.4 Z-2
Y18.2 F120
G3 X60.209 Y18 I0.2 J0
G1 X78.25 F240
Y26.7
G2 X81.75 Y30.2 I3.5 J0
G1 X85.5
Y56.4
G2 X84.5 Y57.4 I0 J1
G1 Y59.4
G2 X85.5 Y60.4 I1 J0
G1 Y61.4
X71.714
X36.708 Y26.394
G2 X35.916 Y18 I-14.208 J-2.894
G1 X38.571
G2 X39.571 Y19 I1 J0
G1 X41.571
G2 X42.571 Y18 I0 J-1
G1 X60.209
G3 X60.41 Y18.2 I0 J0.2 F480
G1 Y18.4
Y18.452 Z-1.993
Y18.5 Z-1.973
Y18.541 Z-1.941
Y18.573 Z-1.9
Y18.593 Z-1.852
Y18.6 Z-1.8
X60.009
Z-2.8 F60
Y18.593 Z-2.852
Y18.573 Z-2.9
Y18.541 Z-2.941
Y18.5 Z-2.973
Y18.452 Z-2.993
Y18.4 Z-3
Y18.2 F120
G3 X60.209 Y18 I0.2 J0
G1 X78.25 F240
Y26.7
G2 X81.75 Y30.2 I3.5 J0
G1 X85.5
Y56.4
G2 X84.5 Y57.4 I0 J1
G1 Y59.4
G2 X85.5 Y60.4 I1 J0
G1 Y61.4
X71.714
X36.708 Y26.394
G2 X35.916 Y18 I-14.208 J-2.894
G1 X38.571
G2 X39.571 Y19 I1 J0
G1 X41.571
G2 X42.571 Y18 I0 J-1
G1 X60.209
G3 X60.41 Y18.2 I0 J0.2 F480
G1 Y18.4
Y18.452 Z-2.993
Y18.5 Z-2.973
Y18.541 Z-2.941
Y18.573 Z-2.9
Y18.593 Z-2.852
Y18.6 Z-2.8
X60.009
Z-3.8 F60
Y18.593 Z-3.852
Y18.573 Z-3.9
Y18.541 Z-3.941
Y18.5 Z-3.973
Y18.452 Z-3.993
Y18.4 Z-4
Y18.2 F120
G3 X60.209 Y18 I0.2 J0
G1 X78.25 F240
Y26.7
G2 X81.75 Y30.2 I3.5 J0
G1 X85.5
Y56.4
G2 X84.5 Y57.4 I0 J1
G1 Y59.4
G2 X85.5 Y60.4 I1 J0
G1 Y61.4
X71.714
X36.708 Y26.394
G2 X35.916 Y18 I-14.208 J-2.894
G1 X38.571
G2 X39.571 Y19 I1 J0
G1 X41.571
G2 X42.571 Y18 I0 J-1
G1 X60.209
G3 X60.41 Y18.2 I0 J0.2 F480
G1 Y18.4
Y18.452 Z-3.993
Y18.5 Z-3.973
Y18.541 Z-3.941
Y18.573 Z-3.9
Y18.593 Z-3.852
Y18.6 Z-3.8
X60.009
Z-4.38 F60
Y18.593 Z-4.432
Y18.573 Z-4.48
Y18.541 Z-4.521
Y18.5 Z-4.553
Y18.452 Z-4.573
Y18.4 Z-4.58
Y18.2 F120
G3 X60.209 Y18 I0.2 J0
G1 X78.25 F240
Y26.7
G2 X81.75 Y30.2 I3.5 J0
G1 X85.5
Y56.4
G2 X84.5 Y57.4 I0 J1
G1 Y59.4
G2 X85.5 Y60.4 I1 J0
G1 Y61.4
X71.714
X36.708 Y26.394
G2 X35.916 Y18 I-14.208 J-2.894
G1 X38.571
G2 X39.571 Y19 I1 J0
G1 X41.571
G2 X42.571 Y18 I0 J-1
G1 X60.209
G3 X60.41 Y18.2 I0 J0.2 F480
G1 Y18.4
Y18.452 Z-4.573
Y18.5 Z-4.553
Y18.541 Z-4.521
Y18.573 Z-4.48
Y18.593 Z-4.432
Y18.6 Z-4.38
G0 Z5
X114.591
Z2
G1 Z-0.8 F60
Y18.593 Z-0.852
Y18.573 Z-0.9
Y18.541 Z-0.941
Y18.5 Z-0.973
Y18.452 Z-0.993
Y18.4 Z-1
Y18.2 F120
G3 X114.791 Y18 I0.2 J0
G1 X132.429 F240
G2 X133.429 Y19 I1 J0
G1 X135.429
G2 X136.429 Y18 I0 J-1
G1 X139.084
G2 X138.292 Y26.394 I13.416 J5.5
G1 X103.286 Y61.4
X89.5
Y60.4
G2 X90.5 Y59.4 I0 J-1
G1 Y57.4
G2 X89.5 Y56.4 I-1 J0
G1 Y30.2
X93.25
G2 X96.75 Y26.7 I0 J-3.5
G1 Y18
X114.791
G3 X114.991 Y18.2 I0 J0.2 F480
G1 Y18.4
Y18.452 Z-0.993
Y18.5 Z-0.973
Y18.541 Z-0.941
Y18.573 Z-0.9
Y18.593 Z-0.852
Y18.6 Z-0.8
X114.591
Z-1.8 F60
Y18.593 Z-1.852
Y18.573 Z-1.9
Y18.541 Z-1.941
Y18.5 Z-1.973
Y18.452 Z-1.993
Y18.4 Z-2
Y18.2 F120
G3 X114.791 Y18 I0.2 J0
G1 X132.429 F240
G2 X133.429 Y19 I1 J0
G1 X135.429
G2 X136.429 Y18 I0 J-1
G1 X139.084
G2 X138.292 Y26.394 I13.416 J5.5
G1 X103.286 Y61.4
X89.5
Y60.4
G2 X90.5 Y59.4 I0 J-1
G1 Y57.4
G2 X89.5 Y56.4 I-1 J0
G1 Y30.2
X93.25
G2 X96.75 Y26.7 I0 J-3.5
G1 Y18
X114.791
G3 X114.991 Y18.2 I0 J0.2 F480
G1 Y18.4
Y18.452 Z-1.993
Y18.5 Z-1.973
Y18.541 Z-1.941
Y18.573 Z-1.9
Y18.593 Z-1.852
Y18.6 Z-1.8
X114.591
Z-2.8 F60
Y18.593 Z-2.852
Y18.573 Z-2.9
Y18.541 Z-2.941
Y18.5 Z-2.973
Y18.452 Z-2.993
Y18.4 Z-3
Y18.2 F120
G3 X114.791 Y18 I0.2 J0
G1 X132.429 F240
G2 X133.429 Y19 I1 J0
G1 X135.429
G2 X136.429 Y18 I0 J-1
G1 X139.084
G2 X138.292 Y26.394 I13.416 J5.5
G1 X103.286 Y61.4
X89.5
Y60.4
G2 X90.5 Y59.4 I0 J-1
G1 Y57.4
G2 X89.5 Y56.4 I-1 J0
G1 Y30.2
X93.25
G2 X96.75 Y26.7 I0 J-3.5
G1 Y18
X114.791
G3 X114.991 Y18.2 I0 J0.2 F480
G1 Y18.4
Y18.452 Z-2.993
Y18.5 Z-2.973
Y18.541 Z-2.941
Y18.573 Z-2.9
Y18.593 Z-2.852
Y18.6 Z-2.8
X114.591
Z-3.8 F60
Y18.593 Z-3.852
Y18.573 Z-3.9
Y18.541 Z-3.941
Y18.5 Z-3.973
Y18.452 Z-3.993
Y18.4 Z-4
Y18.2 F120
G3 X114.791 Y18 I0.2 J0
G1 X132.429 F240
G2 X133.429 Y19 I1 J0
G1 X135.429
G2 X136.429 Y18 I0 J-1
G1 X139.084
G2 X138.292 Y26.394 I13.416 J5.5
G1 X103.286 Y61.4
X89.5
Y60.4
G2 X90.5 Y59.4 I0 J-1
G1 Y57.4
G2 X89.5 Y56.4 I-1 J0
G1 Y30.2
X93.25
G2 X96.75 Y26.7 I0 J-3.5
G1 Y18
X114.791
G3 X114.991 Y18.2 I0 J0.2 F480
G1 Y18.4
Y18.452 Z-3.993
Y18.5 Z-3.973
Y18.541 Z-3.941
Y18.573 Z-3.9
Y18.593 Z-3.852
Y18.6 Z-3.8
X114.591
Z-4.38 F60
Y18.593 Z-4.432
Y18.573 Z-4.48
Y18.541 Z-4.521
Y18.5 Z-4.553
Y18.452 Z-4.573
Y18.4 Z-4.58
Y18.2 F120
G3 X114.791 Y18 I0.2 J0
G1 X132.429 F240
G2 X133.429 Y19 I1 J0
G1 X135.429
G2 X136.429 Y18 I0 J-1
G1 X139.084
G2 X138.292 Y26.394 I13.416 J5.5
G1 X103.286 Y61.4
X89.5
Y60.4
G2 X90.5 Y59.4 I0 J-1
G1 Y57.4
G2 X89.5 Y56.4 I-1 J0
G1 Y30.2
X93.25
G2 X96.75 Y26.7 I0 J-3.5
G1 Y18
X114.791
G3 X114.991 Y18.2 I0 J0.2 F480
G1 Y18.4
Y18.452 Z-4.573
Y18.5 Z-4.553
Y18.541 Z-4.521
Y18.573 Z-4.48
Y18.593 Z-4.432
Y18.6 Z-4.38
G0 Z5
X38.926 Y52.088
Z2
G1 Z-0.8 F60
X38.931 Y52.083 Z-0.852
X38.945 Y52.069 Z-0.9
X38.967 Y52.047 Z-0.941
X38.996 Y52.017 Z-0.973
X39.031 Y51.983 Z-0.993
X39.067 Y51.947 Z-1
X39.209 Y51.805 F120
G3 X39.491 I0.141 J0.141
G1 X67 Y79.314 F240
Y97.686
X25.394 Y139.292
G2 X17 Y140.084 I-2.894 J14.208
G1 Y36.916
G2 X25.394 Y37.708 I5.5 J-13.416
G1 X39.491 Y51.805
G3 Y52.088 I-0.141 J0.141 F480
G1 X39.35 Y52.229
X39.313 Y52.266 Z-0.993
X39.279 Y52.3 Z-0.973
X39.25 Y52.329 Z-0.941
X39.228 Y52.352 Z-0.9
X39.213 Y52.366 Z-0.852
X39.209 Y52.371 Z-0.8
X38.926 Y52.088
Z-1.8 F60
X38.931 Y52.083 Z-1.852
X38.945 Y52.069 Z-1.9
X38.967 Y52.047 Z-1.941
X38.996 Y52.017 Z-1.973
X39.031 Y51.983 Z-1.993
X39.067 Y51.947 Z-2
X39.209 Y51.805 F120
G3 X39.491 I0.141 J0.141
G1 X67 Y79.314 F240
Y97.686
X25.394 Y139.292
G2 X17 Y140.084 I-2.894 J14.208
G1 Y36.916
G2 X25.394 Y37.708 I5.5 J-13.416
G1 X39.491 Y51.805
G3 Y52.088 I-0.141 J0.141 F480
G1 X39.35 Y52.229
X39.313 Y52.266 Z-1.993
X39.279 Y52.3 Z-1.973
X39.25 Y52.329 Z-1.941
X39.228 Y52.352 Z-1.9
X39.213 Y52.366 Z-1.852
X39.209 Y52.371 Z-1.8
X38.926 Y52.088
Z-2.8 F60
X38.931 Y52.083 Z-2.852
X38.945 Y52.069 Z-2.9
X38.967 Y52.047 Z-2.941
X38.996 Y52.017 Z-2.973
X39.031 Y51.983 Z-2.993
X39.067 Y51.947 Z-3
X39.209 Y51.805 F120
G3 X39.491 I0.141 J0.141
G1 X67 Y79.314 F240
Y97.686
X25.394 Y139.292
G2 X17 Y140.084 I-2.894 J14.208
G1 Y36.916
G2 X25.394 Y37.708 I5.5 J-13.416
G1 X39.491 Y51.805
G3 Y52.088 I-0.141 J0.141 F480
G1 X39.35 Y52.229
X39.313 Y52.266 Z-2.993
X39.279 Y52.3 Z-2.973
X39.25 Y52.329 Z-2.941
X39.228 Y52.352 Z-2.9
X39.213 Y52.366 Z-2.852
X39.209 Y52.371 Z-2.8
X38.926 Y52.088
Z-3.8 F60
X38.931 Y52.083 Z-3.852
X38.945 Y52.069 Z-3.9
X38.967 Y52.047 Z-3.941
X38.996 Y52.017 Z-3.973
X39.031 Y51.983 Z-3.993
X39.067 Y51.947 Z-4
X39.209 Y51.805 F120
G3 X39.491 I0.141 J0.141
G1 X67 Y79.314 F240
Y97.686
X25.394 Y139.292
G2 X17 Y140.084 I-2.894 J14.208
G1 Y36.916
G2 X25.394 Y37.708 I5.5 J-13.416
G1 X39.491 Y51.805
G3 Y52.088 I-0.141 J0.141 F480
G1 X39.35 Y52.229
X39.313 Y52.266 Z-3.993
X39.279 Y52.3 Z-3.973
X39.25 Y52.329 Z-3.941
X39.228 Y52.352 Z-3.9
X39.213 Y52.366 Z-3.852
X39.209 Y52.371 Z-3.8
X38.926 Y52.088
Z-4.38 F60
X38.931 Y52.083 Z-4.432
X38.945 Y52.069 Z-4.48
X38.967 Y52.047 Z-4.521
X38.996 Y52.017 Z-4.553
X39.031 Y51.983 Z-4.573
X39.067 Y51.947 Z-4.58
X39.209 Y51.805 F120
G3 X39.491 I0.141 J0.141
G1 X67 Y79.314 F240
Y97.686
X25.394 Y139.292
G2 X17 Y140.084 I-2.894 J14.208
G1 Y36.916
G2 X25.394 Y37.708 I5.5 J-13.416
G1 X39.491 Y51.805
G3 Y52.088 I-0.141 J0.141 F480
G1 X39.35 Y52.229
X39.313 Y52.266 Z-4.573
X39.279 Y52.3 Z-4.553
X39.25 Y52.329 Z-4.521
X39.228 Y52.352 Z-4.48
X39.213 Y52.366 Z-4.432
X39.209 Y52.371 Z-4.38
G0 Z5
X135.792 Y52.37
Z2
G1 Z-0.8 F60
X135.787 Y52.366 Z-0.852
X135.773 Y52.351 Z-0.9
X135.75 Y52.329 Z-0.941
X135.721 Y52.3 Z-0.973
X135.687 Y52.266 Z-0.993
X135.65 Y52.229 Z-1
X135.509 Y52.088 F120
G3 Y51.805 I0.141 J-0.141
G1 X149.605 Y37.708 F240
G2 X158 Y36.916 I2.895 J-14.208
G1 Y140.084
G2 X149.605 Y139.292 I-5.5 J13.416
G1 X108 Y97.686
Y79.314
X135.509 Y51.805
G3 X135.792 I0.141 J0.141 F480
G1 X135.933 Y51.946
X135.97 Y51.983 Z-0.993
X136.004 Y52.017 Z-0.973
X136.033 Y52.046 Z-0.941
X136.056 Y52.069 Z-0.9
X136.07 Y52.083 Z-0.852
X136.075 Y52.088 Z-0.8
X135.792 Y52.37
Z-1.8 F60
X135.787 Y52.366 Z-1.852
X135.773 Y52.351 Z-1.9
X135.75 Y52.329 Z-1.941
X135.721 Y52.3 Z-1.973
X135.687 Y52.266 Z-1.993
X135.65 Y52.229 Z-2
X135.509 Y52.088 F120
G3 Y51.805 I0.141 J-0.141
G1 X149.605 Y37.708 F240
G2 X158 Y36.916 I2.895 J-14.208
G1 Y140.084
G2 X149.605 Y139.292 I-5.5 J13.416
G1 X108 Y97.686
Y79.314
X135.509 Y51.805
G3 X135.792 I0.141 J0.141 F480
G1 X135.933 Y51.946
X135.97 Y51.983 Z-1.993
X136.004 Y52.017 Z-1.973
X136.033 Y52.046 Z-1.941
X136.056 Y52.069 Z-1.9
X136.07 Y52.083 Z-1.852
X136.075 Y52.088 Z-1.8
X135.792 Y52.37
Z-2.8 F60
X135.787 Y52.366 Z-2.852
X135.773 Y52.351 Z-2.9
X135.75 Y52.329 Z-2.941
X135.721 Y52.3 Z-2.973
X135.687 Y52.266 Z-2.993
X135.65 Y52.229 Z-3
X135.509 Y52.088 F120
G3 Y51.805 I0.141 J-0.141
G1 X149.605 Y37.708 F240
G2 X158 Y36.916 I2.895 J-14.208
G1 Y140.084
G2 X149.605 Y139.292 I-5.5 J13.416
G1 X108 Y97.686
Y79.314
X135.509 Y51.805
G3 X135.792 I0.141 J0.141 F480
G1 X135.933 Y51.946
X135.97 Y51.983 Z-2.993
X136.004 Y52.017 Z-2.973
X136.033 Y52.046 Z-2.941
X136.056 Y52.069 Z-2.9
X136.07 Y52.083 Z-2.852
X136.075 Y52.088 Z-2.8
X135.792 Y52.37
Z-3.8 F60
X135.787 Y52.366 Z-3.852
X135.773 Y52.351 Z-3.9
X135.75 Y52.329 Z-3.941
X135.721 Y52.3 Z-3.973
X135.687 Y52.266 Z-3.993
X135.65 Y52.229 Z-4
X135.509 Y52.088 F120
G3 Y51.805 I0.141 J-0.141
G1 X149.605 Y37.708 F240
G2 X158 Y36.916 I2.895 J-14.208
G1 Y140.084
G2 X149.605 Y139.292 I-5.5 J13.416
G1 X108 Y97.686
Y79.314
X135.509 Y51.805
G3 X135.792 I0.141 J0.141 F480
G1 X135.933 Y51.946
X135.97 Y51.983 Z-3.993
X136.004 Y52.017 Z-3.973
X136.033 Y52.046 Z-3.941
X136.056 Y52.069 Z-3.9
X136.07 Y52.083 Z-3.852
X136.075 Y52.088 Z-3.8
X135.792 Y52.37
Z-4.38 F60
X135.787 Y52.366 Z-4.432
X135.773 Y52.351 Z-4.48
X135.75 Y52.329 Z-4.521
X135.721 Y52.3 Z-4.553
X135.687 Y52.266 Z-4.573
X135.65 Y52.229 Z-4.58
X135.509 Y52.088 F120
G3 Y51.805 I0.141 J-0.141
G1 X149.605 Y37.708 F240
G2 X158 Y36.916 I2.895 J-14.208
G1 Y140.084
G2 X149.605 Y139.292 I-5.5 J13.416
G1 X108 Y97.686
Y79.314
X135.509 Y51.805
G3 X135.792 I0.141 J0.141 F480
G1 X135.933 Y51.946
X135.97 Y51.983 Z-4.573
X136.004 Y52.017 Z-4.553
X136.033 Y52.046 Z-4.521
X136.056 Y52.069 Z-4.48
X136.07 Y52.083 Z-4.432
X136.075 Y52.088 Z-4.38
G0 Z5
X66.4 Y121.126
Z2
G1 Z-0.8 F60
X66.407 Z-0.852
X66.427 Z-0.9
X66.459 Z-0.941
X66.5 Z-0.973
X66.548 Z-0.993
X66.6 Z-1
X66.8 F120
G3 X67 Y121.326 I0 J0.2
G1 Y123.7 F240
G2 X72 Y128.7 I5 J0
G1 X94.45
Y130.5
G2 X95.45 Y131.5 I1 J0
G1 X112.2
G2 X113.2 Y130.5 I0 J-1
G1 Y125.514
X138.292 Y150.605
G2 X139.084 Y159 I14.208 J2.895
G1 X35.916
G2 X36.708 Y150.605 I-13.417 J-5.5
G1 X67 Y120.314
Y121.326
G3 X66.8 Y121.526 I-0.2 J0 F480
G1 X66.6
X66.548 Z-0.993
X66.5 Z-0.973
X66.459 Z-0.941
X66.427 Z-0.9
X66.407 Z-0.852
X66.4 Z-0.8
Y121.126
Z-1.8 F60
X66.407 Z-1.852
X66.427 Z-1.9
X66.459 Z-1.941
X66.5 Z-1.973
X66.548 Z-1.993
X66.6 Z-2
X66.8 F120
G3 X67 Y121.326 I0 J0.2
G1 Y123.7 F240
G2 X72 Y128.7 I5 J0
G1 X94.45
Y130.5
G2 X95.45 Y131.5 I1 J0
G1 X112.2
G2 X113.2 Y130.5 I0 J-1
G1 Y125.514
X138.292 Y150.605
G2 X139.084 Y159 I14.208 J2.895
G1 X35.916
G2 X36.708 Y150.605 I-13.417 J-5.5
G1 X67 Y120.314
Y121.326
G3 X66.8 Y121.526 I-0.2 J0 F480
G1 X66.6
X66.548 Z-1.993
X66.5 Z-1.973
X66.459 Z-1.941
X66.427 Z-1.9
X66.407 Z-1.852
X66.4 Z-1.8
Y121.126
Z-2.8 F60
X66.407 Z-2.852
X66.427 Z-2.9
X66.459 Z-2.941
X66.5 Z-2.973
X66.548 Z-2.993
X66.6 Z-3
X66.8 F120
G3 X67 Y121.326 I0 J0.2
G1 Y123.7 F240
G2 X72 Y128.7 I5 J0
G1 X94.45
Y130.5
G2 X95.45 Y131.5 I1 J0
G1 X112.2
G2 X113.2 Y130.5 I0 J-1
G1 Y125.514
X138.292 Y150.605
G2 X139.084 Y159 I14.208 J2.895
G1 X35.916
G2 X36.708 Y150.605 I-13.417 J-5.5
G1 X67 Y120.314
Y121.326
G3 X66.8 Y121.526 I-0.2 J0 F480
G1 X66.6
X66.548 Z-2.993
X66.5 Z-2.973
X66.459 Z-2.941
X66.427 Z-2.9
X66.407 Z-2.852
X66.4 Z-2.8
Y121.126
Z-3.8 F60
X66.407 Z-3.852
X66.427 Z-3.9
X66.459 Z-3.941
X66.5 Z-3.973
X66.548 Z-3.993
X66.6 Z-4
X66.8 F120
G3 X67 Y121.326 I0 J0.2
G1 Y123.7 F240
G2 X72 Y128.7 I5 J0
G1 X94.45
Y130.5
G2 X95.45 Y131.5 I1 J0
G1 X112.2
G2 X113.2 Y130.5 I0 J-1
G1 Y125.514
X138.292 Y150.605
G2 X139.084 Y159 I14.208 J2.895
G1 X35.916
G2 X36.708 Y150.605 I-13.417 J-5.5
G1 X67 Y120.314
Y121.326
G3 X66.8 Y121.526 I-0.2 J0 F480
G1 X66.6
X66.548 Z-3.993
X66.5 Z-3.973
X66.459 Z-3.941
X66.427 Z-3.9
X66.407 Z-3.852
X66.4 Z-3.8
Y121.126
Z-4.38 F60
X66.407 Z-4.432
X66.427 Z-4.48
X66.459 Z-4.521
X66.5 Z-4.553
X66.548 Z-4.573
X66.6 Z-4.58
X66.8 F120
G3 X67 Y121.326 I0 J0.2
G1 Y123.7 F240
G2 X72 Y128.7 I5 J0
G1 X94.45
Y130.5
G2 X95.45 Y131.5 I1 J0
G1 X112.2
G2 X113.2 Y130.5 I0 J-1
G1 Y125.514
X138.292 Y150.605
G2 X139.084 Y159 I14.208 J2.895
G1 X35.916
G2 X36.708 Y150.605 I-13.417 J-5.5
G1 X67 Y120.314
Y121.326
G3 X66.8 Y121.526 I-0.2 J0 F480
G1 X66.6
X66.548 Z-4.573
X66.5 Z-4.553
X66.459 Z-4.521
X66.427 Z-4.48
X66.407 Z-4.432
X66.4 Z-4.38
G0 Z15

(CENTER POCKET)
M8
G0 X87.01 Y100.332
Z15
Z5
G1 Z0.7 F120
G3 X87.035 Y100.336 Z0.602 I-0.128 J0.941 F60
X87.104 Y100.35 Z0.529 I-0.153 J0.938
X87.197 Y100.377 Z0.5 I-0.222 J0.924
X86.567 Y102.17 Z0.396 I-0.315 J0.896
X87.197 Y100.377 Z0.292 I0.315 J-0.896
X86.567 Y102.17 Z0.187 I-0.315 J0.896
X87.197 Y100.377 Z0.083 I0.315 J-0.896
X86.567 Y102.17 Z-0.021 I-0.315 J0.896
X87.197 Y100.377 Z-0.125 I0.315 J-0.896
X86.567 Y102.17 Z-0.23 I-0.315 J0.896
X87.197 Y100.377 Z-0.334 I0.315 J-0.896
X86.567 Y102.17 Z-0.438 I-0.315 J0.896
X87.197 Y100.377 Z-0.542 I0.315 J-0.896
X86.567 Y102.17 Z-0.646 I-0.315 J0.896
X87.197 Y100.377 Z-0.751 I0.315 J-0.896
X86.567 Y102.17 Z-0.855 I-0.315 J0.896
X87.197 Y100.377 Z-0.959 I0.315 J-0.896
X87.832 Y101.274 Z-1 I-0.315 J0.896
G1 Y101.28 F240
G3 X87.756 Y101.485 I-0.315 J0
G2 X87.401 Y101.921 I8.594 J7.365
G3 X87.168 Y101.842 I-0.103 J-0.08
G1 Y84.92
G3 X87.244 Y84.715 I0.315 J0
G1 X87.303 Y84.645
G3 X87.697 I0.197 J0.166
G1 X87.756 Y84.715
G3 X87.832 Y84.92 I-0.239 J0.205
G1 Y101.274
G2 X88.031 Y101.701 I0.558 J0
G3 X88.077 Y102.17 I-0.217 J0.258
G2 X86.664 Y104.463 I8.273 J6.68
G3 X86.483 Y104.424 I-0.086 J-0.039
G1 Y84.915
G3 X86.721 Y84.273 I0.987 J0
G2 X87.327 Y83.497 I-8.071 J-6.923
G3 X87.673 I0.173 J0.123
G2 X88.279 Y84.273 I8.677 J-6.147
G3 X88.517 Y84.915 I-0.749 J0.643
G1 Y101.285
G3 X88.279 Y101.927 I-0.987 J0
G2 X88.077 Y102.17 I8.071 J6.923
X87.999 Y103.209 I0.712 J0.575
G3 X88.014 Y104.25 I-0.909 J0.533
G2 X87.413 Y105.571 I8.304 J4.571
X86.782 Y109.139 I9.776 J3.568
X86.834 Y111.865 I71.482 J0
G3 X86.534 Y112.177 I-0.301 J0.012
G1 X86.466
G3 X86.166 Y111.865 I0 J-0.301
G2 X86.218 Y109.139 I-70.653 J-2.711
X86.012 Y107.281 I-8.519 J0
X85.449 Y105.498 I-10.594 J2.368
G3 X85.373 Y105.113 I0.931 J-0.385
G1 Y84.627
G3 X85.716 Y83.733 I1.333 J0
G2 X87.36 Y81.198 I-7.066 J-6.383
G3 X87.64 I0.14 J0.062
G2 X89.284 Y83.733 I8.71 J-3.848
G3 X89.627 Y84.627 I-0.989 J0.894
G1 Y101.573
G3 X89.284 Y102.467 I-1.333 J0
G2 X88.014 Y104.25 I7.034 J6.354
X88.074 Y104.872 I0.486 J0.267
G3 X88.169 Y105.49 I-0.466 J0.389
G2 X88.089 Y105.693 I8.142 J3.324
X87.458 Y109.139 I9.081 J3.446
G1 Y110.741
G2 X87.565 Y112.546 I15.264 J0
G3 X87.292 Y112.853 I-0.272 J0.032
G1 X85.708
G3 X85.435 Y112.546 I0 J-0.274
G2 X85.564 Y109.083 I-21.179 J-2.522
X84.803 Y105.703 I-9.81 J0.433
G3 X84.697 Y105.181 I1.239 J-0.522
G1 Y84.323
G3 X85.04 Y83.469 I1.235 J0
G2 X87.395 Y78.693 I-6.39 J-6.119
G3 X87.605 I0.105 J0.016
G2 X89.96 Y83.469 I8.745 J-1.343
G3 X90.303 Y84.323 I-0.892 J0.854
G1 Y101.877
G3 X89.96 Y102.731 I-1.235 J0
G2 X88.169 Y105.49 I6.352 J6.082
X88.384 Y106.475 I0.825 J0.337
G3 X88.694 Y107.434 I-0.717 J0.762
G2 X88.56 Y108.85 I7.392 J1.416
G1 Y111.184
G2 X88.913 Y113.661 I8.878 J0
G3 X88.692 Y113.955 I-0.221 J0.064
G1 X84.308
G3 X84.087 Y113.661 I0 J-0.23
G2 X84.424 Y111.412 I-8.155 J-2.369
X84.44 Y109.139 I-159.613 J-2.273
X84.263 Y107.598 I-6.8 J0
X83.784 Y106.124 I-8.824 J2.053
G3 X83.595 Y105.191 I2.206 J-0.932
G1 Y83.796
G3 X83.936 Y83.011 I1.074 J0
G2 X86.404 Y77.35 I-5.305 J-5.681
X86.399 Y77.207 I-2.288 J0
G3 X86.395 Y77.064 I2.284 J-0.143
X86.714 Y76.745 I0.319 J0
G1 X88.286
G3 X88.605 Y77.064 I0 J0.319
X88.601 Y77.207 I-2.288 J0
G2 X88.596 Y77.35 I2.284 J0.143
X91.064 Y83.011 I7.726 J0
G3 X91.405 Y83.796 I-0.733 J0.785
G1 Y102.404
G3 X91.064 Y103.189 I-1.074 J0
G2 X89.224 Y105.76 I5.477 J5.865
X88.694 Y107.434 I6.862 J3.09
X89.285 Y108.668 I1.131 J0.217
G3 X89.99 Y109.84 I-0.622 J1.172
G1 Y111.5
G2 X90.304 Y113.4 I5.905 J0
X91.175 Y115.118 I6.476 J-2.201
G3 X91.036 Y115.385 I-0.139 J0.097
G1 X82.28
G3 X81.965 Y115.07 I0 J-0.315
G1 Y115.001
G3 X82.012 Y114.835 I0.315 J0
G2 X82.744 Y113.237 I-5.907 J-3.673
X83.01 Y111.5 I-5.556 J-1.737
X82.968 Y108.964 I-78.029 J0
X82.385 Y106.495 I-6.389 J0.208
G3 X82.165 Y105.493 I2.175 J-1.003
G1 Y83.039
G3 X82.502 Y82.354 I0.866 J0
G2 X84.338 Y80.144 I-3.99 J-5.182
X85.01 Y77.35 I-5.475 J-2.794
X84.991 Y76.484 I-20.177 J0
X84.922 Y75.62 I-11.872 J0.51
G3 X85.194 Y75.315 I0.272 J-0.032
G1 X89.806
G3 X90.078 Y75.62 I0 J0.274
G2 X90.009 Y76.484 I11.803 J1.374
X89.99 Y77.35 I20.159 J0.866
X90.662 Y80.144 I6.147 J0
X92.498 Y82.354 I5.826 J-2.972
G3 X92.835 Y83.039 I-0.528 J0.686
G1 Y103.161
G3 X92.498 Y103.846 I-0.866 J0
G2 X90.662 Y106.056 I3.99 J5.182
X89.99 Y108.85 I5.475 J2.794
G1 Y109.84
G2 X90.623 Y110.812 I1.062 J0
G3 X91.281 Y111.766 I-0.449 J1.014
G2 X92.06 Y114.171 I4.924 J-0.266
X94.142 Y116.02 I4.356 J-2.808
G3 X94.319 Y116.304 I-0.138 J0.283
G1 Y116.35
G3 X94 Y116.669 I-0.319 J0
G1 X80.996
G3 X80.681 Y116.354 I0 J-0.315
G1 Y114.928
G3 X80.892 Y114.205 I1.345 J0
G2 X81.671 Y111.732 I-4.212 J-2.686
X81.726 Y109.139 I-60.941 J-2.593
X81.566 Y107.969 I-4.363 J0
X81.139 Y106.868 I-5.788 J1.611
G3 X80.881 Y105.786 I2.137 J-1.081
G1 Y82.262
G3 X81.213 Y81.679 I0.678 J0
G2 X83.043 Y79.847 I-2.653 J-4.48
X83.726 Y77.35 I-4.226 J-2.497
X83.647 Y75.807 I-15.098 J0
X83.25 Y74.313 I-4.909 J0.504
G3 X83.433 Y74.031 I0.184 J-0.081
G1 X91.567
G3 X91.75 Y74.313 I0 J0.201
G2 X91.353 Y75.807 I4.512 J1.998
X91.274 Y77.35 I15.019 J1.543
X91.957 Y79.847 I4.909 J0
X93.787 Y81.679 I4.483 J-2.649
G3 X94.119 Y82.262 I-0.346 J0.583
G1 Y103.938
G3 X93.787 Y104.521 I-0.678 J0
G2 X91.957 Y106.353 I2.653 J4.48
X91.274 Y108.85 I4.226 J2.497
G1 Y111.5
G2 X91.281 Y111.766 I4.931 J0
X92.16 Y112.821 I1.147 J-0.062
G3 X93.297 Y113.59 I-0.456 J1.899
G2 X93.399 Y113.726 I2.944 J-2.09
X95.355 Y115.037 I2.982 J-2.335
G3 X95.676 Y115.46 I-0.119 J0.424
G1 Y117.707
G3 X95.357 Y118.026 I-0.319 J0
G1 X79.643
G3 X79.324 Y117.707 I0 J-0.319
G1 Y114.609
G3 X79.635 Y113.642 I1.66 J0
G2 X80.355 Y111.448 I-3.122 J-2.24
X80.369 Y109.139 I-193.626 J-2.309
X80.209 Y108.142 I-3.196 J0
X79.786 Y107.226 I-4.169 J1.369
G3 X79.524 Y106.291 I1.532 J-0.935
G1 Y81.276
G3 X79.847 Y80.823 I0.479 J0
G2 X81.664 Y79.49 I-1.237 J-3.591
X82.369 Y77.35 I-2.895 J-2.14
G1 Y76.35
G2 X81.67 Y74.219 I-3.599 J0
X79.868 Y72.884 I-3.062 J2.249
G3 X79.904 Y72.674 I0.036 J-0.102
G1 X95.096
G3 X95.132 Y72.884 I0 J0.108
G2 X93.33 Y74.219 I1.26 J3.584
X92.631 Y76.35 I2.901 J2.131
G1 Y77.35
G2 X93.336 Y79.49 I3.601 J0
X95.153 Y80.823 I3.054 J-2.258
G3 X95.476 Y81.276 I-0.156 J0.453
G1 Y104.924
G3 X95.153 Y105.377 I-0.479 J0
G2 X93.336 Y106.71 I1.237 J3.591
X92.631 Y108.85 I2.895 J2.14
G1 Y111.5
G2 X93.297 Y113.59 I3.61 J0
X94.365 Y113.93 I0.76 J-0.539
G3 X95.486 Y113.928 I0.563 J1.611
G2 X96.35 Y114.073 I0.864 J-2.5
X96.406 Y114.071 I0 J-0.89
G3 X96.461 Y114.069 I0.056 J0.888
X96.781 Y114.389 I0 J0.319
G1 Y118.811
G3 X96.461 Y119.131 I-0.319 J0
G1 X78.539
G3 X78.219 Y118.811 I0 J-0.319
G1 Y114.036
G3 X78.528 Y113.254 I1.147 J0
G2 X79.287 Y111.266 I-2.064 J-1.927
G3 X79.264 Y109.139 I99.523 J-2.127
G2 X79.107 Y108.314 I-2.242 J0
X78.694 Y107.582 I-2.86 J1.132
G3 X78.419 Y106.768 I1.07 J-0.815
G1 Y80.24
G3 X78.731 Y79.918 I0.322 J0
G2 X80.518 Y79.147 I-0.084 J-2.649
X81.264 Y77.35 I-1.789 J-1.797
G1 Y76.35
G2 X80.49 Y74.522 I-2.545 J0
X78.65 Y73.777 I-1.84 J1.9
X78.592 Y73.779 I0 J0.922
G3 X78.535 Y73.781 I-0.058 J-0.92
X78.219 Y73.465 I0 J-0.315
G1 Y71.889
G3 X78.539 Y71.569 I0.319 J0
G1 X96.461
G3 X96.781 Y71.889 I0 J0.319
G1 Y73.461
G3 X96.461 Y73.781 I-0.319 J0
X96.406 Y73.779 I0 J-0.89
G2 X96.35 Y73.777 I-0.056 J0.888
X94.51 Y74.522 I0 J2.645
X93.736 Y76.35 I1.77 J1.828
G1 Y77.35
G2 X94.482 Y79.147 I2.536 J0
X96.269 Y79.918 I1.87 J-1.878
G3 X96.581 Y80.24 I-0.01 J0.322
G1 Y105.96
G3 X96.269 Y106.282 I-0.322 J0
G2 X94.482 Y107.053 I0.084 J2.649
X93.736 Y108.85 I1.789 J1.797
G1 Y111.5
G2 X94.51 Y113.328 I2.545 J0
X95.486 Y113.928 I1.84 J-1.9
X96.88 Y113.352 I0.372 J-1.076
G3 X98.35 Y113.692 I0.695 J0.34
G1 Y120.7
X76.65
Y116.5
Y112.5
G2 X77.65 Y111.5 I0 J-1
G1 Y109.139
G2 X76.557 Y108.143 I-1 J0
X76.85 Y107.436 I-0.707 J-0.707
G1 Y78.764
G2 X76.56 Y78.06 I-1 J0
X77.264 Y78.35 I0.704 J-0.71
G1 X78.65
G2 X79.65 Y77.35 I0 J-1
G1 Y76.35
G2 X78.65 Y75.35 I-1 J0
G1 X76.65
Y70
X98.35
Y75.35
X96.35
G2 X95.35 Y76.35 I0 J1
G1 Y77.35
G2 X96.35 Y78.35 I1 J0
G1 X97.736
G2 X98.44 Y78.06 I0 J-1
X98.15 Y78.764 I0.71 J0.704
G1 Y107.436
G2 X98.434 Y108.134 I1 J0
X97.736 Y107.85 I-0.698 J0.716
G1 X96.35
G2 X95.35 Y108.85 I0 J1
G1 Y111.5
G2 X96.35 Y112.5 I1 J0
G1 X98.35
Y113.692
G3 X98.285 Y113.786 I-0.1 J0
G1 X96.315 Y114.535
G3 X95.987 Y114.508 I-0.152 J-0.154
G1 X87.218 Y102.367
G3 X87.187 Y102.174 I0.175 J-0.127
X87.378 Y102.235 I0.095 J0.031
X87.221 Y102.283 I-0.095 J-0.031
G1 X87.161 Y102.182
G3 X86.603 Y100.366 Z-1.104 I-0.279 J-0.908 F60
X87.161 Y102.182 Z-1.208 I0.279 J0.908
X86.603 Y100.366 Z-1.313 I-0.279 J-0.908
X87.161 Y102.182 Z-1.417 I0.279 J0.908
X86.603 Y100.366 Z-1.521 I-0.279 J-0.908
X87.161 Y102.182 Z-1.625 I0.279 J0.908
X86.603 Y100.366 Z-1.73 I-0.279 J-0.908
X87.161 Y102.182 Z-1.834 I0.279 J0.908
X86.603 Y100.366 Z-1.938 I-0.279 J-0.908
X87.832 Y101.274 Z-2 I0.279 J0.908
G1 Y101.28 F240
G3 X87.756 Y101.485 I-0.315 J0
G2 X87.401 Y101.921 I8.594 J7.365
G3 X87.168 Y101.842 I-0.103 J-0.08
G1 Y84.92
G3 X87.244 Y84.715 I0.315 J0
G1 X87.303 Y84.645
G3 X87.697 I0.197 J0.166
G1 X87.756 Y84.715
G3 X87.832 Y84.92 I-0.239 J0.205
G1 Y101.274
G2 X88.031 Y101.701 I0.558 J0
G3 X88.077 Y102.17 I-0.217 J0.258
G2 X86.664 Y104.463 I8.273 J6.68
G3 X86.483 Y104.424 I-0.086 J-0.039
G1 Y84.915
G3 X86.721 Y84.273 I0.987 J0
G2 X87.327 Y83.497 I-8.071 J-6.923
G3 X87.673 I0.173 J0.123
G2 X88.279 Y84.273 I8.677 J-6.147
G3 X88.517 Y84.915 I-0.749 J0.643
G1 Y101.285
G3 X88.279 Y101.927 I-0.987 J0
G2 X88.077 Y102.17 I8.071 J6.923
X87.999 Y103.209 I0.712 J0.575
G3 X88.014 Y104.25 I-0.909 J0.533
G2 X87.413 Y105.571 I8.304 J4.571
X86.782 Y109.139 I9.776 J3.568
X86.834 Y111.865 I71.482 J0
G3 X86.534 Y112.177 I-0.301 J0.012
G1 X86.466
G3 X86.166 Y111.865 I0 J-0.301
G2 X86.218 Y109.139 I-70.653 J-2.711
X86.012 Y107.281 I-8.519 J0
X85.449 Y105.498 I-10.594 J2.368
G3 X85.373 Y105.113 I0.931 J-0.385
G1 Y84.627
G3 X85.716 Y83.733 I1.333 J0
G2 X87.36 Y81.198 I-7.066 J-6.383
G3 X87.64 I0.14 J0.062
G2 X89.284 Y83.733 I8.71 J-3.848
G3 X89.627 Y84.627 I-0.989 J0.894
G1 Y101.573
G3 X89.284 Y102.467 I-1.333 J0
G2 X88.014 Y104.25 I7.034 J6.354
X88.074 Y104.872 I0.486 J0.267
G3 X88.169 Y105.49 I-0.466 J0.389
G2 X88.089 Y105.693 I8.142 J3.324
X87.458 Y109.139 I9.081 J3.446
G1 Y110.741
G2 X87.565 Y112.546 I15.264 J0
G3 X87.292 Y112.853 I-0.272 J0.032
G1 X85.708
G3 X85.435 Y112.546 I0 J-0.274
G2 X85.564 Y109.083 I-21.179 J-2.522
X84.803 Y105.703 I-9.81 J0.433
G3 X84.697 Y105.181 I1.239 J-0.522
G1 Y84.323
G3 X85.04 Y83.469 I1.235 J0
G2 X87.395 Y78.693 I-6.39 J-6.119
G3 X87.605 I0.105 J0.016
G2 X89.96 Y83.469 I8.745 J-1.343
G3 X90.303 Y84.323 I-0.892 J0.854
G1 Y101.877
G3 X89.96 Y102.731 I-1.235 J0
G2 X88.169 Y105.49 I6.352 J6.082
X88.384 Y106.475 I0.825 J0.337
G3 X88.694 Y107.434 I-0.717 J0.762
G2 X88.56 Y108.85 I7.392 J1.416
G1 Y111.184
G2 X88.913 Y113.661 I8.878 J0
G3 X88.692 Y113.955 I-0.221 J0.064
G1 X84.308
G3 X84.087 Y113.661 I0 J-0.23
G2 X84.424 Y111.412 I-8.155 J-2.369
X84.44 Y109.139 I-159.613 J-2.273
X84.263 Y107.598 I-6.8 J0
X83.784 Y106.124 I-8.824 J2.053
G3 X83.595 Y105.191 I2.206 J-0.932
G1 Y83.796
G3 X83.936 Y83.011 I1.074 J0
G2 X86.404 Y77.35 I-5.305 J-5.681
X86.399 Y77.207 I-2.288 J0
G3 X86.395 Y77.064 I2.284 J-0.143
X86.714 Y76.745 I0.319 J0
G1 X88.286
G3 X88.605 Y77.064 I0 J0.319
X88.601 Y77.207 I-2.288 J0
G2 X88.596 Y77.35 I2.284 J0.143
X91.064 Y83.011 I7.726 J0
G3 X91.405 Y83.796 I-0.733 J0.785
G1 Y102.404
G3 X91.064 Y103.189 I-1.074 J0
G2 X89.224 Y105.76 I5.477 J5.865
X88.694 Y107.434 I6.862 J3.09
X89.285 Y108.668 I1.131 J0.217
G3 X89.99 Y109.84 I-0.622 J1.172
G1 Y111.5
G2 X90.304 Y113.4 I5.905 J0
X91.175 Y115.118 I6.476 J-2.201
G3 X91.036 Y115.385 I-0.139 J0.097
G1 X82.28
G3 X81.965 Y115.07 I0 J-0.315
G1 Y115.001
G3 X82.012 Y114.835 I0.315 J0
G2 X82.744 Y113.237 I-5.907 J-3.673
X83.01 Y111.5 I-5.556 J-1.737
X82.968 Y108.964 I-78.029 J0
X82.385 Y106.495 I-6.389 J0.208
G3 X82.165 Y105.493 I2.175 J-1.003
G1 Y83.039
G3 X82.502 Y82.354 I0.866 J0
G2 X84.338 Y80.144 I-3.99 J-5.182
X85.01 Y77.35 I-5.475 J-2.794
X84.991 Y76.484 I-20.177 J0
X84.922 Y75.62 I-11.872 J0.51
G3 X85.194 Y75.315 I0.272 J-0.032
G1 X89.806
G3 X90.078 Y75.62 I0 J0.274
G2 X90.009 Y76.484 I11.803 J1.374
X89.99 Y77.35 I20.159 J0.866
X90.662 Y80.144 I6.147 J0
X92.498 Y82.354 I5.826 J-2.972
G3 X92.835 Y83.039 I-0.528 J0.686
G1 Y103.161
G3 X92.498 Y103.846 I-0.866 J0
G2 X90.662 Y106.056 I3.99 J5.182
X89.99 Y108.85 I5.475 J2.794
G1 Y109.84
G2 X90.623 Y110.812 I1.062 J0
G3 X91.281 Y111.766 I-0.449 J1.014
G2 X92.06 Y114.171 I4.924 J-0.266
X94.142 Y116.02 I4.356 J-2.808
G3 X94.319 Y116.304 I-0.138 J0.283
G1 Y116.35
G3 X94 Y116.669 I-0.319 J0
G1 X80.996
G3 X80.681 Y116.354 I0 J-0.315
G1 Y114.928
G3 X80.892 Y114.205 I1.345 J0
G2 X81.671 Y111.732 I-4.212 J-2.686
X81.726 Y109.139 I-60.941 J-2.593
X81.566 Y107.969 I-4.363 J0
X81.139 Y106.868 I-5.788 J1.611
G3 X80.881 Y105.786 I2.137 J-1.081
G1 Y82.262
G3 X81.213 Y81.679 I0.678 J0
G2 X83.043 Y79.847 I-2.653 J-4.48
X83.726 Y77.35 I-4.226 J-2.497
X83.647 Y75.807 I-15.098 J0
X83.25 Y74.313 I-4.909 J0.504
G3 X83.433 Y74.031 I0.184 J-0.081
G1 X91.567
G3 X91.75 Y74.313 I0 J0.201
G2 X91.353 Y75.807 I4.512 J1.998
X91.274 Y77.35 I15.019 J1.543
X91.957 Y79.847 I4.909 J0
X93.787 Y81.679 I4.483 J-2.649
G3 X94.119 Y82.262 I-0.346 J0.583
G1 Y103.938
G3 X93.787 Y104.521 I-0.678 J0
G2 X91.957 Y106.353 I2.653 J4.48
X91.274 Y108.85 I4.226 J2.497
G1 Y111.5
G2 X91.281 Y111.766 I4.931 J0
X92.16 Y112.821 I1.147 J-0.062
G3 X93.297 Y113.59 I-0.456 J1.899
G2 X93.399 Y113.726 I2.944 J-2.09
X95.355 Y115.037 I2.982 J-2.335
G3 X95.676 Y115.46 I-0.119 J0.424
G1 Y117.707
G3 X95.357 Y118.026 I-0.319 J0
G1 X79.643
G3 X79.324 Y117.707 I0 J-0.319
G1 Y114.609
G3 X79.635 Y113.642 I1.66 J0
G2 X80.355 Y111.448 I-3.122 J-2.24
X80.369 Y109.139 I-193.626 J-2.309
X80.209 Y108.142 I-3.196 J0
X79.786 Y107.226 I-4.169 J1.369
G3 X79.524 Y106.291 I1.532 J-0.935
G1 Y81.276
G3 X79.847 Y80.823 I0.479 J0
G2 X81.664 Y79.49 I-1.237 J-3.591
X82.369 Y77.35 I-2.895 J-2.14
G1 Y76.35
G2 X81.67 Y74.219 I-3.599 J0
X79.868 Y72.884 I-3.062 J2.249
G3 X79.904 Y72.674 I0.036 J-0.102
G1 X95.096
G3 X95.132 Y72.884 I0 J0.108
G2 X93.33 Y74.219 I1.26 J3.584
X92.631 Y76.35 I2.901 J2.131
G1 Y77.35
G2 X93.336 Y79.49 I3.601 J0
X95.153 Y80.823 I3.054 J-2.258
G3 X95.476 Y81.276 I-0.156 J0.453
G1 Y104.924
G3 X95.153 Y105.377 I-0.479 J0
G2 X93.336 Y106.71 I1.237 J3.591
X92.631 Y108.85 I2.895 J2.14
G1 Y111.5
G2 X93.297 Y113.59 I3.61 J0
X94.365 Y113.93 I0.76 J-0.539
G3 X95.486 Y113.928 I0.563 J1.611
G2 X96.35 Y114.073 I0.864 J-2.5
X96.406 Y114.071 I0 J-0.89
G3 X96.461 Y114.069 I0.056 J0.888
X96.781 Y114.389 I0 J0.319
G1 Y118.811
G3 X96.461 Y119.131 I-0.319 J0
G1 X78.539
G3 X78.219 Y118.811 I0 J-0.319
G1 Y114.036
G3 X78.528 Y113.254 I1.147 J0
G2 X79.287 Y111.266 I-2.064 J-1.927
G3 X79.264 Y109.139 I99.523 J-2.127
G2 X79.107 Y108.314 I-2.242 J0
X78.694 Y107.582 I-2.86 J1.132
G3 X78.419 Y106.768 I1.07 J-0.815
G1 Y80.24
G3 X78.731 Y79.918 I0.322 J0
G2 X80.518 Y79.147 I-0.084 J-2.649
X81.264 Y77.35 I-1.789 J-1.797
G1 Y76.35
G2 X80.49 Y74.522 I-2.545 J0
X78.65 Y73.777 I-1.84 J1.9
X78.592 Y73.779 I0 J0.922
G3 X78.535 Y73.781 I-0.058 J-0.92
X78.219 Y73.465 I0 J-0.315
G1 Y71.889
G3 X78.539 Y71.569 I0.319 J0
G1 X96.461
G3 X96.781 Y71.889 I0 J0.319
G1 Y73.461
G3 X96.461 Y73.781 I-0.319 J0
X96.406 Y73.779 I0 J-0.89
G2 X96.35 Y73.777 I-0.056 J0.888
X94.51 Y74.522 I0 J2.645
X93.736 Y76.35 I1.77 J1.828
G1 Y77.35
G2 X94.482 Y79.147 I2.536 J0
X96.269 Y79.918 I1.87 J-1.878
G3 X96.581 Y80.24 I-0.01 J0.322
G1 Y105.96
G3 X96.269 Y106.282 I-0.322 J0
G2 X94.482 Y107.053 I0.084 J2.649
X93.736 Y108.85 I1.789 J1.797
G1 Y111.5
G2 X94.51 Y113.328 I2.545 J0
X95.486 Y113.928 I1.84 J-1.9
X96.88 Y113.352 I0.372 J-1.076
G3 X98.35 Y113.692 I0.695 J0.34
G1 Y120.7
X76.65
Y116.5
Y112.5
G2 X77.65 Y111.5 I0 J-1
G1 Y109.139
G2 X76.557 Y108.143 I-1 J0
X76.85 Y107.436 I-0.707 J-0.707
G1 Y78.764
G2 X76.56 Y78.06 I-1 J0
X77.264 Y78.35 I0.704 J-0.71
G1 X78.65
G2 X79.65 Y77.35 I0 J-1
G1 Y76.35
G2 X78.65 Y75.35 I-1 J0
G1 X76.65
Y70
X98.35
Y75.35
X96.35
G2 X95.35 Y76.35 I0 J1
G1 Y77.35
G2 X96.35 Y78.35 I1 J0
G1 X97.736
G2 X98.44 Y78.06 I0 J-1
X98.15 Y78.764 I0.71 J0.704
G1 Y107.436
G2 X98.434 Y108.134 I1 J0
X97.736 Y107.85 I-0.698 J0.716
G1 X96.35
G2 X95.35 Y108.85 I0 J1
G1 Y111.5
G2 X96.35 Y112.5 I1 J0
G1 X98.35
Y113.692
G3 X98.285 Y113.786 I-0.1 J0
G1 X96.315 Y114.535
G3 X95.987 Y114.508 I-0.152 J-0.154
G1 X87.218 Y102.367
G3 X87.187 Y102.174 I0.175 J-0.127
X87.378 Y102.235 I0.095 J0.031
X87.221 Y102.283 I-0.095 J-0.031
G1 X87.161 Y102.182
G3 X86.603 Y100.366 Z-2.104 I-0.279 J-0.908 F60
X87.161 Y102.182 Z-2.208 I0.279 J0.908
X86.603 Y100.366 Z-2.313 I-0.279 J-0.908
X87.161 Y102.182 Z-2.417 I0.279 J0.908
X86.603 Y100.366 Z-2.521 I-0.279 J-0.908
X87.161 Y102.182 Z-2.625 I0.279 J0.908
X86.603 Y100.366 Z-2.73 I-0.279 J-0.908
X87.161 Y102.182 Z-2.834 I0.279 J0.908
X86.603 Y100.366 Z-2.938 I-0.279 J-0.908
X87.832 Y101.274 Z-3 I0.279 J0.908
G1 Y101.28 F240
G3 X87.756 Y101.485 I-0.315 J0
G2 X87.401 Y101.921 I8.594 J7.365
G3 X87.168 Y101.842 I-0.103 J-0.08
G1 Y84.92
G3 X87.244 Y84.715 I0.315 J0
G1 X87.303 Y84.645
G3 X87.697 I0.197 J0.166
G1 X87.756 Y84.715
G3 X87.832 Y84.92 I-0.239 J0.205
G1 Y101.274
G2 X88.031 Y101.701 I0.558 J0
G3 X88.077 Y102.17 I-0.217 J0.258
G2 X86.664 Y104.463 I8.273 J6.68
G3 X86.483 Y104.424 I-0.086 J-0.039
G1 Y84.915
G3 X86.721 Y84.273 I0.987 J0
G2 X87.327 Y83.497 I-8.071 J-6.923
G3 X87.673 I0.173 J0.123
G2 X88.279 Y84.273 I8.677 J-6.147
G3 X88.517 Y84.915 I-0.749 J0.643
G1 Y101.285
G3 X88.279 Y101.927 I-0.987 J0
G2 X88.077 Y102.17 I8.071 J6.923
X87.999 Y103.209 I0.712 J0.575
G3 X88.014 Y104.25 I-0.909 J0.533
G2 X87.413 Y105.571 I8.304 J4.571
X86.782 Y109.139 I9.776 J3.568
X86.834 Y111.865 I71.482 J0
G3 X86.534 Y112.177 I-0.301 J0.012
G1 X86.466
G3 X86.166 Y111.865 I0 J-0.301
G2 X86.218 Y109.139 I-70.653 J-2.711
X86.012 Y107.281 I-8.519 J0
X85.449 Y105.498 I-10.594 J2.368
G3 X85.373 Y105.113 I0.931 J-0.385
G1 Y84.627
G3 X85.716 Y83.733 I1.333 J0
G2 X87.36 Y81.198 I-7.066 J-6.383
G3 X87.64 I0.14 J0.062
G2 X89.284 Y83.733 I8.71 J-3.848
G3 X89.627 Y84.627 I-0.989 J0.894
G1 Y101.573
G3 X89.284 Y102.467 I-1.333 J0
G2 X88.014 Y104.25 I7.034 J6.354
X88.074 Y104.872 I0.486 J0.267
G3 X88.169 Y105.49 I-0.466 J0.389
G2 X88.089 Y105.693 I8.142 J3.324
X87.458 Y109.139 I9.081 J3.446
G1 Y110.741
G2 X87.565 Y112.546 I15.264 J0
G3 X87.292 Y112.853 I-0.272 J0.032
G1 X85.708
G3 X85.435 Y112.546 I0 J-0.274
G2 X85.564 Y109.083 I-21.179 J-2.522
X84.803 Y105.703 I-9.81 J0.433
G3 X84.697 Y105.181 I1.239 J-0.522
G1 Y84.323
G3 X85.04 Y83.469 I1.235 J0
G2 X87.395 Y78.693 I-6.39 J-6.119
G3 X87.605 I0.105 J0.016
G2 X89.96 Y83.469 I8.745 J-1.343
G3 X90.303 Y84.323 I-0.892 J0.854
G1 Y101.877
G3 X89.96 Y102.731 I-1.235 J0
G2 X88.169 Y105.49 I6.352 J6.082
X88.384 Y106.475 I0.825 J0.337
G3 X88.694 Y107.434 I-0.717 J0.762
G2 X88.56 Y108.85 I7.392 J1.416
G1 Y111.184
G2 X88.913 Y113.661 I8.878 J0
G3 X88.692 Y113.955 I-0.221 J0.064
G1 X84.308
G3 X84.087 Y113.661 I0 J-0.23
G2 X84.424 Y111.412 I-8.155 J-2.369
X84.44 Y109.139 I-159.613 J-2.273
X84.263 Y107.598 I-6.8 J0
X83.784 Y106.124 I-8.824 J2.053
G3 X83.595 Y105.191 I2.206 J-0.932
G1 Y83.796
G3 X83.936 Y83.011 I1.074 J0
G2 X86.404 Y77.35 I-5.305 J-5.681
X86.399 Y77.207 I-2.288 J0
G3 X86.395 Y77.064 I2.284 J-0.143
X86.714 Y76.745 I0.319 J0
G1 X88.286
G3 X88.605 Y77.064 I0 J0.319
X88.601 Y77.207 I-2.288 J0
G2 X88.596 Y77.35 I2.284 J0.143
X91.064 Y83.011 I7.726 J0
G3 X91.405 Y83.796 I-0.733 J0.785
G1 Y102.404
G3 X91.064 Y103.189 I-1.074 J0
G2 X89.224 Y105.76 I5.477 J5.865
X88.694 Y107.434 I6.862 J3.09
X89.285 Y108.668 I1.131 J0.217
G3 X89.99 Y109.84 I-0.622 J1.172
G1 Y111.5
G2 X90.304 Y113.4 I5.905 J0
X91.175 Y115.118 I6.476 J-2.201
G3 X91.036 Y115.385 I-0.139 J0.097
G1 X82.28
G3 X81.965 Y115.07 I0 J-0.315
G1 Y115.001
G3 X82.012 Y114.835 I0.315 J0
G2 X82.744 Y113.237 I-5.907 J-3.673
X83.01 Y111.5 I-5.556 J-1.737
X82.968 Y108.964 I-78.029 J0
X82.385 Y106.495 I-6.389 J0.208
G3 X82.165 Y105.493 I2.175 J-1.003
G1 Y83.039
G3 X82.502 Y82.354 I0.866 J0
G2 X84.338 Y80.144 I-3.99 J-5.182
X85.01 Y77.35 I-5.475 J-2.794
X84.991 Y76.484 I-20.177 J0
X84.922 Y75.62 I-11.872 J0.51
G3 X85.194 Y75.315 I0.272 J-0.032
G1 X89.806
G3 X90.078 Y75.62 I0 J0.274
G2 X90.009 Y76.484 I11.803 J1.374
X89.99 Y77.35 I20.159 J0.866
X90.662 Y80.144 I6.147 J0
X92.498 Y82.354 I5.826 J-2.972
G3 X92.835 Y83.039 I-0.528 J0.686
G1 Y103.161
G3 X92.498 Y103.846 I-0.866 J0
G2 X90.662 Y106.056 I3.99 J5.182
X89.99 Y108.85 I5.475 J2.794
G1 Y109.84
G2 X90.623 Y110.812 I1.062 J0
G3 X91.281 Y111.766 I-0.449 J1.014
G2 X92.06 Y114.171 I4.924 J-0.266
X94.142 Y116.02 I4.356 J-2.808
G3 X94.319 Y116.304 I-0.138 J0.283
G1 Y116.35
G3 X94 Y116.669 I-0.319 J0
G1 X80.996
G3 X80.681 Y116.354 I0 J-0.315
G1 Y114.928
G3 X80.892 Y114.205 I1.345 J0
G2 X81.671 Y111.732 I-4.212 J-2.686
X81.726 Y109.139 I-60.941 J-2.593
X81.566 Y107.969 I-4.363 J0
X81.139 Y106.868 I-5.788 J1.611
G3 X80.881 Y105.786 I2.137 J-1.081
G1 Y82.262
G3 X81.213 Y81.679 I0.678 J0
G2 X83.043 Y79.847 I-2.653 J-4.48
X83.726 Y77.35 I-4.226 J-2.497
X83.647 Y75.807 I-15.098 J0
X83.25 Y74.313 I-4.909 J0.504
G3 X83.433 Y74.031 I0.184 J-0.081
G1 X91.567
G3 X91.75 Y74.313 I0 J0.201
G2 X91.353 Y75.807 I4.512 J1.998
X91.274 Y77.35 I15.019 J1.543
X91.957 Y79.847 I4.909 J0
X93.787 Y81.679 I4.483 J-2.649
G3 X94.119 Y82.262 I-0.346 J0.583
G1 Y103.938
G3 X93.787 Y104.521 I-0.678 J0
G2 X91.957 Y106.353 I2.653 J4.48
X91.274 Y108.85 I4.226 J2.497
G1 Y111.5
G2 X91.281 Y111.766 I4.931 J0
X92.16 Y112.821 I1.147 J-0.062
G3 X93.297 Y113.59 I-0.456 J1.899
G2 X93.399 Y113.726 I2.944 J-2.09
X95.355 Y115.037 I2.982 J-2.335
G3 X95.676 Y115.46 I-0.119 J0.424
G1 Y117.707
G3 X95.357 Y118.026 I-0.319 J0
G1 X79.643
G3 X79.324 Y117.707 I0 J-0.319
G1 Y114.609
G3 X79.635 Y113.642 I1.66 J0
G2 X80.355 Y111.448 I-3.122 J-2.24
X80.369 Y109.139 I-193.626 J-2.309
X80.209 Y108.142 I-3.196 J0
X79.786 Y107.226 I-4.169 J1.369
G3 X79.524 Y106.291 I1.532 J-0.935
G1 Y81.276
G3 X79.847 Y80.823 I0.479 J0
G2 X81.664 Y79.49 I-1.237 J-3.591
X82.369 Y77.35 I-2.895 J-2.14
G1 Y76.35
G2 X81.67 Y74.219 I-3.599 J0
X79.868 Y72.884 I-3.062 J2.249
G3 X79.904 Y72.674 I0.036 J-0.102
G1 X95.096
G3 X95.132 Y72.884 I0 J0.108
G2 X93.33 Y74.219 I1.26 J3.584
X92.631 Y76.35 I2.901 J2.131
G1 Y77.35
G2 X93.336 Y79.49 I3.601 J0
X95.153 Y80.823 I3.054 J-2.258
G3 X95.476 Y81.276 I-0.156 J0.453
G1 Y104.924
G3 X95.153 Y105.377 I-0.479 J0
G2 X93.336 Y106.71 I1.237 J3.591
X92.631 Y108.85 I2.895 J2.14
G1 Y111.5
G2 X93.297 Y113.59 I3.61 J0
X94.365 Y113.93 I0.76 J-0.539
G3 X95.486 Y113.928 I0.563 J1.611
G2 X96.35 Y114.073 I0.864 J-2.5
X96.406 Y114.071 I0 J-0.89
G3 X96.461 Y114.069 I0.056 J0.888
X96.781 Y114.389 I0 J0.319
G1 Y118.811
G3 X96.461 Y119.131 I-0.319 J0
G1 X78.539
G3 X78.219 Y118.811 I0 J-0.319
G1 Y114.036
G3 X78.528 Y113.254 I1.147 J0
G2 X79.287 Y111.266 I-2.064 J-1.927
G3 X79.264 Y109.139 I99.523 J-2.127
G2 X79.107 Y108.314 I-2.242 J0
X78.694 Y107.582 I-2.86 J1.132
G3 X78.419 Y106.768 I1.07 J-0.815
G1 Y80.24
G3 X78.731 Y79.918 I0.322 J0
G2 X80.518 Y79.147 I-0.084 J-2.649
X81.264 Y77.35 I-1.789 J-1.797
G1 Y76.35
G2 X80.49 Y74.522 I-2.545 J0
X78.65 Y73.777 I-1.84 J1.9
X78.592 Y73.779 I0 J0.922
G3 X78.535 Y73.781 I-0.058 J-0.92
X78.219 Y73.465 I0 J-0.315
G1 Y71.889
G3 X78.539 Y71.569 I0.319 J0
G1 X96.461
G3 X96.781 Y71.889 I0 J0.319
G1 Y73.461
G3 X96.461 Y73.781 I-0.319 J0
X96.406 Y73.779 I0 J-0.89
G2 X96.35 Y73.777 I-0.056 J0.888
X94.51 Y74.522 I0 J2.645
X93.736 Y76.35 I1.77 J1.828
G1 Y77.35
G2 X94.482 Y79.147 I2.536 J0
X96.269 Y79.918 I1.87 J-1.878
G3 X96.581 Y80.24 I-0.01 J0.322
G1 Y105.96
G3 X96.269 Y106.282 I-0.322 J0
G2 X94.482 Y107.053 I0.084 J2.649
X93.736 Y108.85 I1.789 J1.797
G1 Y111.5
G2 X94.51 Y113.328 I2.545 J0
X95.486 Y113.928 I1.84 J-1.9
X96.88 Y113.352 I0.372 J-1.076
G3 X98.35 Y113.692 I0.695 J0.34
G1 Y120.7
X76.65
Y116.5
Y112.5
G2 X77.65 Y111.5 I0 J-1
G1 Y109.139
G2 X76.557 Y108.143 I-1 J0
X76.85 Y107.436 I-0.707 J-0.707
G1 Y78.764
G2 X76.56 Y78.06 I-1 J0
X77.264 Y78.35 I0.704 J-0.71
G1 X78.65
G2 X79.65 Y77.35 I0 J-1
G1 Y76.35
G2 X78.65 Y75.35 I-1 J0
G1 X76.65
Y70
X98.35
Y75.35
X96.35
G2 X95.35 Y76.35 I0 J1
G1 Y77.35
G2 X96.35 Y78.35 I1 J0
G1 X97.736
G2 X98.44 Y78.06 I0 J-1
X98.15 Y78.764 I0.71 J0.704
G1 Y107.436
G2 X98.434 Y108.134 I1 J0
X97.736 Y107.85 I-0.698 J0.716
G1 X96.35
G2 X95.35 Y108.85 I0 J1
G1 Y111.5
G2 X96.35 Y112.5 I1 J0
G1 X98.35
Y113.692
G3 X98.326 Y113.788 Z-2.973 I-0.2 J0 F480
X98.28 Y113.845 Z-2.9 I-0.176 J-0.096
X98.258 Y113.861 Z-2.8 I-0.13 J-0.152
G0 Z5
X86.071 Y100.78
G1 Z-2.3 F120
G3 X86.084 Y100.758 Z-2.398 I0.812 J0.494 F60
X86.125 Y100.7 Z-2.471 I0.798 J0.516
X86.187 Y100.626 Z-2.5 I0.758 J0.573
X87.577 Y101.921 Z-2.604 I0.695 J0.648
X86.187 Y100.626 Z-2.708 I-0.695 J-0.648
X87.577 Y101.921 Z-2.813 I0.695 J0.648
X86.187 Y100.626 Z-2.917 I-0.695 J-0.648
X87.577 Y101.921 Z-3.021 I0.695 J0.648
X86.187 Y100.626 Z-3.125 I-0.695 J-0.648
X87.577 Y101.921 Z-3.23 I0.695 J0.648
X86.187 Y100.626 Z-3.334 I-0.695 J-0.648
X87.577 Y101.921 Z-3.438 I0.695 J0.648
X86.187 Y100.626 Z-3.542 I-0.695 J-0.648
X87.577 Y101.921 Z-3.646 I0.695 J0.648
X86.187 Y100.626 Z-3.751 I-0.695 J-0.648
X87.832 Y101.274 Z-3.83 I0.695 J0.648
G1 Y101.28 F240
G3 X87.756 Y101.485 I-0.315 J0
G2 X87.401 Y101.921 I8.594 J7.365
G3 X87.168 Y101.842 I-0.103 J-0.08
G1 Y84.92
G3 X87.244 Y84.715 I0.315 J0
G1 X87.303 Y84.645
G3 X87.697 I0.197 J0.166
G1 X87.756 Y84.715
G3 X87.832 Y84.92 I-0.239 J0.205
G1 Y101.274
G2 X88.031 Y101.701 I0.558 J0
G3 X88.077 Y102.17 I-0.217 J0.258
G2 X86.664 Y104.463 I8.273 J6.68
G3 X86.483 Y104.424 I-0.086 J-0.039
G1 Y84.915
G3 X86.721 Y84.273 I0.987 J0
G2 X87.327 Y83.497 I-8.071 J-6.923
G3 X87.673 I0.173 J0.123
G2 X88.279 Y84.273 I8.677 J-6.147
G3 X88.517 Y84.915 I-0.749 J0.643
G1 Y101.285
G3 X88.279 Y101.927 I-0.987 J0
G2 X88.077 Y102.17 I8.071 J6.923
X87.999 Y103.209 I0.712 J0.575
G3 X88.014 Y104.25 I-0.909 J0.533
G2 X87.413 Y105.571 I8.304 J4.571
X86.782 Y109.139 I9.776 J3.568
X86.834 Y111.865 I71.482 J0
G3 X86.534 Y112.177 I-0.301 J0.012
G1 X86.466
G3 X86.166 Y111.865 I0 J-0.301
G2 X86.218 Y109.139 I-70.653 J-2.711
X86.012 Y107.281 I-8.519 J0
X85.449 Y105.498 I-10.594 J2.368
G3 X85.373 Y105.113 I0.931 J-0.385
G1 Y84.627
G3 X85.716 Y83.733 I1.333 J0
G2 X87.36 Y81.198 I-7.066 J-6.383
G3 X87.64 I0.14 J0.062
G2 X89.284 Y83.733 I8.71 J-3.848
G3 X89.627 Y84.627 I-0.989 J0.894
G1 Y101.573
G3 X89.284 Y102.467 I-1.333 J0
G2 X88.014 Y104.25 I7.034 J6.354
X88.074 Y104.872 I0.486 J0.267
G3 X88.169 Y105.49 I-0.466 J0.389
G2 X88.089 Y105.693 I8.142 J3.324
X87.458 Y109.139 I9.081 J3.446
G1 Y110.741
G2 X87.565 Y112.546 I15.264 J0
G3 X87.292 Y112.853 I-0.272 J0.032
G1 X85.708
G3 X85.435 Y112.546 I0 J-0.274
G2 X85.564 Y109.083 I-21.179 J-2.522
X84.803 Y105.703 I-9.81 J0.433
G3 X84.697 Y105.181 I1.239 J-0.522
G1 Y84.323
G3 X85.04 Y83.469 I1.235 J0
G2 X87.395 Y78.693 I-6.39 J-6.119
G3 X87.605 I0.105 J0.016
G2 X89.96 Y83.469 I8.745 J-1.343
G3 X90.303 Y84.323 I-0.892 J0.854
G1 Y101.877
G3 X89.96 Y102.731 I-1.235 J0
G2 X88.169 Y105.49 I6.352 J6.082
X88.384 Y106.475 I0.825 J0.337
G3 X88.694 Y107.434 I-0.717 J0.762
G2 X88.56 Y108.85 I7.392 J1.416
G1 Y111.184
G2 X88.913 Y113.661 I8.878 J0
G3 X88.692 Y113.955 I-0.221 J0.064
G1 X84.308
G3 X84.087 Y113.661 I0 J-0.23
G2 X84.424 Y111.412 I-8.155 J-2.369
X84.44 Y109.139 I-159.613 J-2.273
X84.263 Y107.598 I-6.8 J0
X83.784 Y106.124 I-8.824 J2.053
G3 X83.595 Y105.191 I2.206 J-0.932
G1 Y83.796
G3 X83.936 Y83.011 I1.074 J0
G2 X86.404 Y77.35 I-5.305 J-5.681
X86.399 Y77.207 I-2.288 J0
G3 X86.395 Y77.064 I2.284 J-0.143
X86.714 Y76.745 I0.319 J0
G1 X88.286
G3 X88.605 Y77.064 I0 J0.319
X88.601 Y77.207 I-2.288 J0
G2 X88.596 Y77.35 I2.284 J0.143
X91.064 Y83.011 I7.726 J0
G3 X91.405 Y83.796 I-0.733 J0.785
G1 Y102.404
G3 X91.064 Y103.189 I-1.074 J0
G2 X89.224 Y105.76 I5.477 J5.865
X88.694 Y107.434 I6.862 J3.09
X89.285 Y108.668 I1.131 J0.217
G3 X89.99 Y109.84 I-0.622 J1.172
G1 Y111.5
G2 X90.304 Y113.4 I5.905 J0
X91.175 Y115.118 I6.476 J-2.201
G3 X91.036 Y115.385 I-0.139 J0.097
G1 X82.28
G3 X81.965 Y115.07 I0 J-0.315
G1 Y115.001
G3 X82.012 Y114.835 I0.315 J0
G2 X82.744 Y113.237 I-5.907 J-3.673
X83.01 Y111.5 I-5.556 J-1.737
X82.968 Y108.964 I-78.029 J0
X82.385 Y106.495 I-6.389 J0.208
G3 X82.165 Y105.493 I2.175 J-1.003
G1 Y83.039
G3 X82.502 Y82.354 I0.866 J0
G2 X84.338 Y80.144 I-3.99 J-5.182
X85.01 Y77.35 I-5.475 J-2.794
X84.991 Y76.484 I-20.177 J0
X84.922 Y75.62 I-11.872 J0.51
G3 X85.194 Y75.315 I0.272 J-0.032
G1 X89.806
G3 X90.078 Y75.62 I0 J0.274
G2 X90.009 Y76.484 I11.803 J1.374
X89.99 Y77.35 I20.159 J0.866
X90.662 Y80.144 I6.147 J0
X92.498 Y82.354 I5.826 J-2.972
G3 X92.835 Y83.039 I-0.528 J0.686
G1 Y103.161
G3 X92.498 Y103.846 I-0.866 J0
G2 X90.662 Y106.056 I3.99 J5.182
X89.99 Y108.85 I5.475 J2.794
G1 Y109.84
G2 X90.623 Y110.812 I1.062 J0
G3 X91.281 Y111.766 I-0.449 J1.014
G2 X92.06 Y114.171 I4.924 J-0.266
X94.142 Y116.02 I4.356 J-2.808
G3 X94.319 Y116.304 I-0.138 J0.283
G1 Y116.35
G3 X94 Y116.669 I-0.319 J0
G1 X80.996
G3 X80.681 Y116.354 I0 J-0.315
G1 Y114.928
G3 X80.892 Y114.205 I1.345 J0
G2 X81.671 Y111.732 I-4.212 J-2.686
X81.726 Y109.139 I-60.941 J-2.593
X81.566 Y107.969 I-4.363 J0
X81.139 Y106.868 I-5.788 J1.611
G3 X80.881 Y105.786 I2.137 J-1.081
G1 Y82.262
G3 X81.213 Y81.679 I0.678 J0
G2 X83.043 Y79.847 I-2.653 J-4.48
X83.726 Y77.35 I-4.226 J-2.497
X83.647 Y75.807 I-15.098 J0
X83.25 Y74.313 I-4.909 J0.504
G3 X83.433 Y74.031 I0.184 J-0.081
G1 X91.567
G3 X91.75 Y74.313 I0 J0.201
G2 X91.353 Y75.807 I4.512 J1.998
X91.274 Y77.35 I15.019 J1.543
X91.957 Y79.847 I4.909 J0
X93.787 Y81.679 I4.483 J-2.649
G3 X94.119 Y82.262 I-0.346 J0.583
G1 Y103.938
G3 X93.787 Y104.521 I-0.678 J0
G2 X91.957 Y106.353 I2.653 J4.48
X91.274 Y108.85 I4.226 J2.497
G1 Y111.5
G2 X91.281 Y111.766 I4.931 J0
X92.16 Y112.821 I1.147 J-0.062
G3 X93.297 Y113.59 I-0.456 J1.899
G2 X93.399 Y113.726 I2.944 J-2.09
X95.355 Y115.037 I2.982 J-2.335
G3 X95.676 Y115.46 I-0.119 J0.424
G1 Y117.707
G3 X95.357 Y118.026 I-0.319 J0
G1 X79.643
G3 X79.324 Y117.707 I0 J-0.319
G1 Y114.609
G3 X79.635 Y113.642 I1.66 J0
