(MOTOR-PROTECTORS)
(T11  D=2 CR=0 - ZMIN=-4.58 - FLAT END MILL)
G90 G94 G91.1 G40 G49 G17
G21

(NUT POCKETS)
M5
M9
T11 M6
(DIAMOND OR SPIRAL)
S16000 M3
G54
M8
G0 X43.322 Y14.329
G43 Z15 H1
Z2
G1 Z-0.8 F60
G3 X43.296 Y14.337 Z-0.9 I-0.07 J-0.187
X43.223 Y14.339 Z-0.973 I-0.044 J-0.195
X43.132 Y14.301 Z-1 I0.029 J-0.198
X43.527 Y13.774 I0.198 J-0.264 F240
X43.132 Y14.301 I-0.198 J0.264
G2 X42.533 Y14.248 I-0.343 J0.457
G3 X42.143 Y13.789 I-0.139 J-0.277
G2 X42.208 Y13.688 I-0.809 J-0.588
G1 X42.443 Y13.267
G2 X42.569 Y12.765 I-0.873 J-0.487
X43.071 Y12.891 I0.487 J-0.873
G1 X43.554 Y12.884
G2 X44.052 Y12.743 I-0.015 J-1
X44.193 Y13.241 I1 J-0.015
G1 X44.441 Y13.655
G2 X44.812 Y14.016 I0.858 J-0.513
X44.452 Y14.387 I0.513 J0.858
G1 X44.216 Y14.809
G2 X44.09 Y15.311 I0.873 J0.487
X43.588 Y15.184 I-0.487 J0.873
G1 X43.105 Y15.191
G2 X42.608 Y15.333 I0.015 J1
X42.466 Y14.835 I-1 J0.015
G1 X42.219 Y14.42
G2 X41.847 Y14.06 I-0.858 J0.513
X42.143 Y13.789 I-0.513 J-0.859
G3 X42.353 Y13.713 I0.162 J0.118
G1 X43.3 Y13.947
G3 X43.322 Y14.329 I-0.048 J0.194
G1 Z-1.8 F60
G3 X43.296 Y14.337 Z-1.9 I-0.07 J-0.187
X43.223 Y14.339 Z-1.973 I-0.044 J-0.195
X43.132 Y14.301 Z-2 I0.029 J-0.198
X43.527 Y13.774 I0.198 J-0.264 F240
X43.132 Y14.301 I-0.198 J0.264
G2 X42.533 Y14.248 I-0.343 J0.457
G3 X42.143 Y13.789 I-0.139 J-0.277
G2 X42.208 Y13.688 I-0.809 J-0.588
G1 X42.443 Y13.267
G2 X42.569 Y12.765 I-0.873 J-0.487
X43.071 Y12.891 I0.487 J-0.873
G1 X43.554 Y12.884
G2 X44.052 Y12.743 I-0.015 J-1
X44.193 Y13.241 I1 J-0.015
G1 X44.441 Y13.655
G2 X44.812 Y14.016 I0.858 J-0.513
X44.452 Y14.387 I0.513 J0.858
G1 X44.216 Y14.809
G2 X44.09 Y15.311 I0.873 J0.487
X43.588 Y15.184 I-0.487 J0.873
G1 X43.105 Y15.191
G2 X42.608 Y15.333 I0.015 J1
X42.466 Y14.835 I-1 J0.015
G1 X42.219 Y14.42
G2 X41.847 Y14.06 I-0.858 J0.513
X42.143 Y13.789 I-0.513 J-0.859
G3 X42.353 Y13.713 I0.162 J0.118
G1 X43.3 Y13.947
G3 X43.322 Y14.329 I-0.048 J0.194
G1 Z-2.7 F60
G3 X43.296 Y14.337 Z-2.8 I-0.07 J-0.187
X43.223 Y14.339 Z-2.873 I-0.044 J-0.195
X43.132 Y14.301 Z-2.9 I0.029 J-0.198
X43.527 Y13.774 I0.198 J-0.264 F240
X43.132 Y14.301 I-0.198 J0.264
G2 X42.533 Y14.248 I-0.343 J0.457
G3 X42.143 Y13.789 I-0.139 J-0.277
G2 X42.208 Y13.688 I-0.809 J-0.588
G1 X42.443 Y13.267
G2 X42.569 Y12.765 I-0.873 J-0.487
X43.071 Y12.891 I0.487 J-0.873
G1 X43.554 Y12.884
G2 X44.052 Y12.743 I-0.015 J-1
X44.193 Y13.241 I1 J-0.015
G1 X44.441 Y13.655
G2 X44.812 Y14.016 I0.858 J-0.513
X44.452 Y14.387 I0.513 J0.858
G1 X44.216 Y14.809
G2 X44.09 Y15.311 I0.873 J0.487
X43.588 Y15.184 I-0.487 J0.873
G1 X43.105 Y15.191
G2 X42.608 Y15.333 I0.015 J1
X42.466 Y14.835 I-1 J0.015
G1 X42.219 Y14.42
G2 X41.847 Y14.06 I-0.858 J0.513
X42.143 Y13.789 I-0.513 J-0.859
G3 X42.219 Y13.726 Z-2.873 I0.162 J0.118 F480
X42.29 Y13.708 Z-2.8 I0.086 J0.181
X42.316 Y13.707 Z-2.7 I0.015 J0.199
G0 Z5
X29.402 Y5.832
Z2
G1 Z-0.8 F60
G3 X29.424 Y5.848 Z-0.9 I-0.108 J0.168
X29.47 Y5.904 Z-0.973 I-0.13 J0.152
X29.494 Y6 Z-1 I-0.176 J0.096
X28.835 I-0.329 J0 F240
X29.494 I0.329 J0
G2 X29.712 Y6.587 I0.898 J0
G3 X29.442 Y7.151 I-0.259 J0.223
G2 X29.406 Y7.15 I-0.035 J0.999
G1 X28.924
G2 X28.424 Y7.284 I0 J1
X28.29 Y6.784 I-1 J0
G1 X28.048 Y6.366
G2 X27.682 Y6 I-0.866 J0.5
X28.048 Y5.634 I-0.5 J-0.866
G1 X28.29 Y5.216
G2 X28.424 Y4.716 I-0.866 J-0.5
X28.924 Y4.85 I0.5 J-0.866
G1 X29.406
G2 X29.906 Y4.716 I0 J-1
X30.04 Y5.216 I1 J0
G1 X30.281 Y5.634
G2 X30.647 Y6 I0.866 J-0.5
X30.281 Y6.366 I0.5 J0.866
G1 X30.04 Y6.784
G2 X29.906 Y7.284 I0.866 J0.5
X29.442 Y7.151 I-0.5 J0.866
G3 X29.251 Y6.983 I0.007 J-0.2
G1 X29.097 Y6.032
G3 X29.402 Y5.832 I0.197 J-0.032
G1 Z-1.8 F60
G3 X29.424 Y5.848 Z-1.9 I-0.108 J0.168
X29.47 Y5.904 Z-1.973 I-0.13 J0.152
X29.494 Y6 Z-2 I-0.176 J0.096
X28.835 I-0.329 J0 F240
X29.494 I0.329 J0
G2 X29.712 Y6.587 I0.898 J0
G3 X29.442 Y7.151 I-0.259 J0.223
G2 X29.406 Y7.15 I-0.035 J0.999
G1 X28.924
G2 X28.424 Y7.284 I0 J1
X28.29 Y6.784 I-1 J0
G1 X28.048 Y6.366
G2 X27.682 Y6 I-0.866 J0.5
X28.048 Y5.634 I-0.5 J-0.866
G1 X28.29 Y5.216
G2 X28.424 Y4.716 I-0.866 J-0.5
X28.924 Y4.85 I0.5 J-0.866
G1 X29.406
G2 X29.906 Y4.716 I0 J-1
X30.04 Y5.216 I1 J0
G1 X30.281 Y5.634
G2 X30.647 Y6 I0.866 J-0.5
X30.281 Y6.366 I0.5 J0.866
G1 X30.04 Y6.784
G2 X29.906 Y7.284 I0.866 J0.5
X29.442 Y7.151 I-0.5 J0.866
G3 X29.251 Y6.983 I0.007 J-0.2
G1 X29.097 Y6.032
G3 X29.402 Y5.832 I0.197 J-0.032
G1 Z-2.7 F60
G3 X29.424 Y5.848 Z-2.8 I-0.108 J0.168
X29.47 Y5.904 Z-2.873 I-0.13 J0.152
X29.494 Y6 Z-2.9 I-0.176 J0.096
X28.835 I-0.329 J0 F240
X29.494 I0.329 J0
G2 X29.712 Y6.587 I0.898 J0
G3 X29.442 Y7.151 I-0.259 J0.223
G2 X29.406 Y7.15 I-0.035 J0.999
G1 X28.924
G2 X28.424 Y7.284 I0 J1
X28.29 Y6.784 I-1 J0
G1 X28.048 Y6.366
G2 X27.682 Y6 I-0.866 J0.5
X28.048 Y5.634 I-0.5 J-0.866
G1 X28.29 Y5.216
G2 X28.424 Y4.716 I-0.866 J-0.5
X28.924 Y4.85 I0.5 J-0.866
G1 X29.406
G2 X29.906 Y4.716 I0 J-1
X30.04 Y5.216 I1 J0
G1 X30.281 Y5.634
G2 X30.647 Y6 I0.866 J-0.5
X30.281 Y6.366 I0.5 J0.866
G1 X30.04 Y6.784
G2 X29.906 Y7.284 I0.866 J0.5
X29.442 Y7.151 I-0.5 J0.866
G3 X29.347 Y7.123 Z-2.873 I0.007 J-0.2 F480
X29.292 Y7.075 Z-2.8 I0.102 J-0.172
X29.277 Y7.053 Z-2.7 I0.157 J-0.124
G0 Z5
X14.992 Y14.329
Z2
G1 Z-0.8 F60
G3 X14.966 Y14.336 Z-0.9 I-0.07 J-0.187
X14.894 Y14.339 Z-0.973 I-0.044 J-0.195
X14.802 Y14.301 Z-1 I0.029 J-0.198
X15.198 Y13.774 I0.198 J-0.264 F240
X14.802 Y14.301 I-0.198 J0.264
G2 X14.198 Y14.23 I-0.364 J0.485
G3 X13.824 Y13.751 I-0.125 J-0.288
G2 X13.889 Y13.655 I-0.794 J-0.608
G1 X14.136 Y13.241
G2 X14.278 Y12.743 I-0.858 J-0.513
X14.776 Y12.884 I0.513 J-0.859
G1 X15.258 Y12.891
G2 X15.76 Y12.765 I0.015 J-1
X15.887 Y13.267 I1 J0.015
G1 X16.122 Y13.688
G2 X16.482 Y14.06 I0.873 J-0.487
X16.111 Y14.42 I0.487 J0.873
G1 X15.864 Y14.835
G2 X15.722 Y15.333 I0.858 J0.513
X15.224 Y15.191 I-0.513 J0.859
G1 X14.742 Y15.184
G2 X14.24 Y15.311 I-0.015 J1
X14.113 Y14.809 I-1 J-0.015
G1 X13.878 Y14.387
G2 X13.518 Y14.016 I-0.873 J0.487
X13.824 Y13.751 I-0.487 J-0.873
G3 X14.038 Y13.68 I0.159 J0.122
G1 X14.977 Y13.949
G3 X14.992 Y14.329 I-0.055 J0.192
G1 Z-1.8 F60
G3 X14.966 Y14.336 Z-1.9 I-0.07 J-0.187
X14.894 Y14.339 Z-1.973 I-0.044 J-0.195
X14.802 Y14.301 Z-2 I0.029 J-0.198
X15.198 Y13.774 I0.198 J-0.264 F240
X14.802 Y14.301 I-0.198 J0.264
G2 X14.198 Y14.23 I-0.364 J0.485
G3 X13.824 Y13.751 I-0.125 J-0.288
G2 X13.889 Y13.655 I-0.794 J-0.608
G1 X14.136 Y13.241
G2 X14.278 Y12.743 I-0.858 J-0.513
X14.776 Y12.884 I0.513 J-0.859
G1 X15.258 Y12.891
G2 X15.76 Y12.765 I0.015 J-1
X15.887 Y13.267 I1 J0.015
G1 X16.122 Y13.688
G2 X16.482 Y14.06 I0.873 J-0.487
X16.111 Y14.42 I0.487 J0.873
G1 X15.864 Y14.835
G2 X15.722 Y15.333 I0.858 J0.513
X15.224 Y15.191 I-0.513 J0.859
G1 X14.742 Y15.184
G2 X14.24 Y15.311 I-0.015 J1
X14.113 Y14.809 I-1 J-0.015
G1 X13.878 Y14.387
G2 X13.518 Y14.016 I-0.873 J0.487
X13.824 Y13.751 I-0.487 J-0.873
G3 X14.038 Y13.68 I0.159 J0.122
G1 X14.977 Y13.949
G3 X14.992 Y14.329 I-0.055 J0.192
G1 Z-2.7 F60
G3 X14.966 Y14.336 Z-2.8 I-0.07 J-0.187
X14.894 Y14.339 Z-2.873 I-0.044 J-0.195
X14.802 Y14.301 Z-2.9 I0.029 J-0.198
X15.198 Y13.774 I0.198 J-0.264 F240
X14.802 Y14.301 I-0.198 J0.264
G2 X14.198 Y14.23 I-0.364 J0.485
G3 X13.824 Y13.751 I-0.125 J-0.288
G2 X13.889 Y13.655 I-0.794 J-0.608
G1 X14.136 Y13.241
G2 X14.278 Y12.743 I-0.858 J-0.513
X14.776 Y12.884 I0.513 J-0.859
G1 X15.258 Y12.891
G2 X15.76 Y12.765 I0.015 J-1
X15.887 Y13.267 I1 J0.015
G1 X16.122 Y13.688
G2 X16.482 Y14.06 I0.873 J-0.487
X16.111 Y14.42 I0.487 J0.873
G1 X15.864 Y14.835
G2 X15.722 Y15.333 I0.858 J0.513
X15.224 Y15.191 I-0.513 J0.859
G1 X14.742 Y15.184
G2 X14.24 Y15.311 I-0.015 J1
X14.113 Y14.809 I-1 J-0.015
G1 X13.878 Y14.387
G2 X13.518 Y14.016 I-0.873 J0.487
X13.824 Y13.751 I-0.487 J-0.873
G3 X13.902 Y13.689 Z-2.873 I0.159 J0.122 F480
X13.973 Y13.672 Z-2.8 I0.081 J0.183
X14 Y13.673 Z-2.7 I0.01 J0.2
G0 Z5
X63.322 Y19.253
Z2
G1 Z-0.8 F60
G3 X63.296 Y19.261 Z-0.9 I-0.07 J-0.187
X63.223 Y19.264 Z-0.973 I-0.044 J-0.195
X63.132 Y19.226 Z-1 I0.029 J-0.198
X63.527 Y18.699 I0.198 J-0.264 F240
X63.132 Y19.226 I-0.198 J0.264
G2 X62.528 Y19.154 I-0.363 J0.485
G3 X62.154 Y18.675 I-0.125 J-0.288
G2 X62.219 Y18.58 I-0.794 J-0.608
G1 X62.466 Y18.165
G2 X62.607 Y17.667 I-0.858 J-0.513
X63.105 Y17.809 I0.513 J-0.859
G1 X63.588 Y17.816
G2 X64.09 Y17.689 I0.015 J-1
X64.216 Y18.191 I1 J0.015
G1 X64.452 Y18.613
G2 X64.812 Y18.984 I0.873 J-0.487
X64.441 Y19.345 I0.487 J0.873
G1 X64.193 Y19.759
G2 X64.052 Y20.257 I0.858 J0.513
X63.554 Y20.116 I-0.513 J0.859
G1 X63.071 Y20.109
G2 X62.569 Y20.235 I-0.015 J1
X62.443 Y19.733 I-1 J-0.015
G1 X62.208 Y19.312
G2 X61.847 Y18.94 I-0.873 J0.487
X62.154 Y18.675 I-0.487 J-0.873
G3 X62.368 Y18.604 I0.159 J0.122
G1 X63.307 Y18.874
G3 X63.322 Y19.253 I-0.055 J0.192
G1 Z-1.8 F60
G3 X63.296 Y19.261 Z-1.9 I-0.07 J-0.187
X63.223 Y19.264 Z-1.973 I-0.044 J-0.195
X63.132 Y19.226 Z-2 I0.029 J-0.198
X63.527 Y18.699 I0.198 J-0.264 F240
X63.132 Y19.226 I-0.198 J0.264
G2 X62.528 Y19.154 I-0.363 J0.485
G3 X62.154 Y18.675 I-0.125 J-0.288
G2 X62.219 Y18.58 I-0.794 J-0.608
G1 X62.466 Y18.165
G2 X62.607 Y17.667 I-0.858 J-0.513
X63.105 Y17.809 I0.513 J-0.859
G1 X63.588 Y17.816
G2 X64.09 Y17.689 I0.015 J-1
X64.216 Y18.191 I1 J0.015
G1 X64.452 Y18.613
G2 X64.812 Y18.984 I0.873 J-0.487
X64.441 Y19.345 I0.487 J0.873
G1 X64.193 Y19.759
G2 X64.052 Y20.257 I0.858 J0.513
X63.554 Y20.116 I-0.513 J0.859
G1 X63.071 Y20.109
G2 X62.569 Y20.235 I-0.015 J1
X62.443 Y19.733 I-1 J-0.015
G1 X62.208 Y19.312
G2 X61.847 Y18.94 I-0.873 J0.487
X62.154 Y18.675 I-0.487 J-0.873
G3 X62.368 Y18.604 I0.159 J0.122
G1 X63.307 Y18.874
G3 X63.322 Y19.253 I-0.055 J0.192
G1 Z-2.7 F60
G3 X63.296 Y19.261 Z-2.8 I-0.07 J-0.187
X63.223 Y19.264 Z-2.873 I-0.044 J-0.195
X63.132 Y19.226 Z-2.9 I0.029 J-0.198
X63.527 Y18.699 I0.198 J-0.264 F240
X63.132 Y19.226 I-0.198 J0.264
G2 X62.528 Y19.154 I-0.363 J0.485
G3 X62.154 Y18.675 I-0.125 J-0.288
G2 X62.219 Y18.58 I-0.794 J-0.608
G1 X62.466 Y18.165
G2 X62.607 Y17.667 I-0.858 J-0.513
X63.105 Y17.809 I0.513 J-0.859
G1 X63.588 Y17.816
G2 X64.09 Y17.689 I0.015 J-1
X64.216 Y18.191 I1 J0.015
G1 X64.452 Y18.613
G2 X64.812 Y18.984 I0.873 J-0.487
X64.441 Y19.345 I0.487 J0.873
G1 X64.193 Y19.759
G2 X64.052 Y20.257 I0.858 J0.513
X63.554 Y20.116 I-0.513 J0.859
G1 X63.071 Y20.109
G2 X62.569 Y20.235 I-0.015 J1
X62.443 Y19.733 I-1 J-0.015
G1 X62.208 Y19.312
G2 X61.847 Y18.94 I-0.873 J0.487
X62.154 Y18.675 I-0.487 J-0.873
G3 X62.232 Y18.614 Z-2.873 I0.159 J0.122 F480
X62.302 Y18.597 Z-2.8 I0.081 J0.183
X62.329 Z-2.7 I0.01 J0.2
G0 Z5
X49.402 Y26.832
Z2
G1 Z-0.8 F60
G3 X49.424 Y26.848 Z-0.9 I-0.108 J0.168
X49.47 Y26.904 Z-0.973 I-0.13 J0.152
X49.494 Y27 Z-1 I-0.176 J0.096
X48.835 I-0.329 J0 F240
X49.494 I0.329 J0
G2 X49.712 Y27.587 I0.898 J0
G3 X49.442 Y28.151 I-0.259 J0.223
G2 X49.406 Y28.15 I-0.036 J0.999
G1 X48.924
G2 X48.424 Y28.284 I0 J1
X48.29 Y27.784 I-1 J0
G1 X48.048 Y27.366
G2 X47.682 Y27 I-0.866 J0.5
X48.048 Y26.634 I-0.5 J-0.866
G1 X48.29 Y26.216
G2 X48.424 Y25.716 I-0.866 J-0.5
X48.924 Y25.85 I0.5 J-0.866
G1 X49.406
G2 X49.906 Y25.716 I0 J-1
X50.04 Y26.216 I1 J0
G1 X50.281 Y26.634
G2 X50.647 Y27 I0.866 J-0.5
X50.281 Y27.366 I0.5 J0.866
G1 X50.04 Y27.784
G2 X49.906 Y28.284 I0.866 J0.5
X49.442 Y28.151 I-0.5 J0.866
G3 X49.251 Y27.983 I0.007 J-0.2
G1 X49.097 Y27.032
G3 X49.402 Y26.832 I0.197 J-0.032
G1 Z-1.8 F60
G3 X49.424 Y26.848 Z-1.9 I-0.108 J0.168
X49.47 Y26.904 Z-1.973 I-0.13 J0.152
X49.494 Y27 Z-2 I-0.176 J0.096
X48.835 I-0.329 J0 F240
X49.494 I0.329 J0
G2 X49.712 Y27.587 I0.898 J0
G3 X49.442 Y28.151 I-0.259 J0.223
G2 X49.406 Y28.15 I-0.036 J0.999
G1 X48.924
G2 X48.424 Y28.284 I0 J1
X48.29 Y27.784 I-1 J0
G1 X48.048 Y27.366
G2 X47.682 Y27 I-0.866 J0.5
X48.048 Y26.634 I-0.5 J-0.866
G1 X48.29 Y26.216
G2 X48.424 Y25.716 I-0.866 J-0.5
X48.924 Y25.85 I0.5 J-0.866
G1 X49.406
G2 X49.906 Y25.716 I0 J-1
X50.04 Y26.216 I1 J0
G1 X50.281 Y26.634
G2 X50.647 Y27 I0.866 J-0.5
X50.281 Y27.366 I0.5 J0.866
G1 X50.04 Y27.784
G2 X49.906 Y28.284 I0.866 J0.5
X49.442 Y28.151 I-0.5 J0.866
G3 X49.251 Y27.983 I0.007 J-0.2
G1 X49.097 Y27.032
G3 X49.402 Y26.832 I0.197 J-0.032
G1 Z-2.7 F60
G3 X49.424 Y26.848 Z-2.8 I-0.108 J0.168
X49.47 Y26.904 Z-2.873 I-0.13 J0.152
X49.494 Y27 Z-2.9 I-0.176 J0.096
X48.835 I-0.329 J0 F240
X49.494 I0.329 J0
G2 X49.712 Y27.587 I0.898 J0
G3 X49.442 Y28.151 I-0.259 J0.223
G2 X49.406 Y28.15 I-0.036 J0.999
G1 X48.924
G2 X48.424 Y28.284 I0 J1
X48.29 Y27.784 I-1 J0
G1 X48.048 Y27.366
G2 X47.682 Y27 I-0.866 J0.5
X48.048 Y26.634 I-0.5 J-0.866
G1 X48.29 Y26.216
G2 X48.424 Y25.716 I-0.866 J-0.5
X48.924 Y25.85 I0.5 J-0.866
G1 X49.406
G2 X49.906 Y25.716 I0 J-1
X50.04 Y26.216 I1 J0
G1 X50.281 Y26.634
G2 X50.647 Y27 I0.866 J-0.5
X50.281 Y27.366 I0.5 J0.866
G1 X50.04 Y27.784
G2 X49.906 Y28.284 I0.866 J0.5
X49.442 Y28.151 I-0.5 J0.866
G3 X49.347 Y28.123 Z-2.873 I0.007 J-0.2 F480
X49.292 Y28.075 Z-2.8 I0.102 J-0.172
X49.277 Y28.053 Z-2.7 I0.157 J-0.124
G0 Z5
X35.238 Y18.794
Z2
G1 Z-0.8 F60
G3 X35.259 Y18.81 Z-0.9 I-0.108 J0.168
X35.305 Y18.866 Z-0.973 I-0.13 J0.152
X35.33 Y18.962 Z-1 I-0.176 J0.096
X34.67 I-0.33 J0 F240
X35.33 I0.33 J0
G2 X35.566 Y19.539 I0.82 J0
G3 X35.314 Y20.109 I-0.238 J0.236
G2 X35.258 I-0.041 J0.999
G1 X34.776 Y20.116
G2 X34.278 Y20.257 I0.015 J1
X34.136 Y19.759 I-1 J0.015
G1 X33.889 Y19.345
G2 X33.518 Y18.984 I-0.858 J0.513
X33.878 Y18.613 I-0.513 J-0.858
G1 X34.113 Y18.191
G2 X34.24 Y17.689 I-0.873 J-0.487
X34.742 Y17.816 I0.487 J-0.873
G1 X35.224 Y17.809
G2 X35.722 Y17.667 I-0.015 J-1
X35.864 Y18.165 I1 J-0.015
G1 X36.111 Y18.58
G2 X36.482 Y18.94 I0.858 J-0.513
X36.122 Y19.312 I0.513 J0.858
G1 X35.887 Y19.733
G2 X35.76 Y20.235 I0.873 J0.487
X35.314 Y20.109 I-0.487 J0.873
G3 X35.127 Y19.949 I0.008 J-0.2
G1 X34.934 Y19.002
G3 X35.238 Y18.794 I0.196 J-0.04
G1 Z-1.8 F60
G3 X35.259 Y18.81 Z-1.9 I-0.108 J0.168
X35.305 Y18.866 Z-1.973 I-0.13 J0.152
X35.33 Y18.962 Z-2 I-0.176 J0.096
X34.67 I-0.33 J0 F240
X35.33 I0.33 J0
G2 X35.566 Y19.539 I0.82 J0
G3 X35.314 Y20.109 I-0.238 J0.236
G2 X35.258 I-0.041 J0.999
G1 X34.776 Y20.116
G2 X34.278 Y20.257 I0.015 J1
X34.136 Y19.759 I-1 J0.015
G1 X33.889 Y19.345
G2 X33.518 Y18.984 I-0.858 J0.513
X33.878 Y18.613 I-0.513 J-0.858
G1 X34.113 Y18.191
G2 X34.24 Y17.689 I-0.873 J-0.487
X34.742 Y17.816 I0.487 J-0.873
G1 X35.224 Y17.809
G2 X35.722 Y17.667 I-0.015 J-1
X35.864 Y18.165 I1 J-0.015
G1 X36.111 Y18.58
G2 X36.482 Y18.94 I0.858 J-0.513
X36.122 Y19.312 I0.513 J0.858
G1 X35.887 Y19.733
G2 X35.76 Y20.235 I0.873 J0.487
X35.314 Y20.109 I-0.487 J0.873
G3 X35.127 Y19.949 I0.008 J-0.2
G1 X34.934 Y19.002
G3 X35.238 Y18.794 I0.196 J-0.04
G1 Z-2.7 F60
G3 X35.259 Y18.81 Z-2.8 I-0.108 J0.168
X35.305 Y18.866 Z-2.873 I-0.13 J0.152
X35.33 Y18.962 Z-2.9 I-0.176 J0.096
X34.67 I-0.33 J0 F240
X35.33 I0.33 J0
G2 X35.566 Y19.539 I0.82 J0
G3 X35.314 Y20.109 I-0.238 J0.236
G2 X35.258 I-0.041 J0.999
G1 X34.776 Y20.116
G2 X34.278 Y20.257 I0.015 J1
X34.136 Y19.759 I-1 J0.015
G1 X33.889 Y19.345
G2 X33.518 Y18.984 I-0.858 J0.513
X33.878 Y18.613 I-0.513 J-0.858
G1 X34.113 Y18.191
G2 X34.24 Y17.689 I-0.873 J-0.487
X34.742 Y17.816 I0.487 J-0.873
G1 X35.224 Y17.809
G2 X35.722 Y17.667 I-0.015 J-1
X35.864 Y18.165 I1 J-0.015
G1 X36.111 Y18.58
G2 X36.482 Y18.94 I0.858 J-0.513
X36.122 Y19.312 I0.513 J0.858
G1 X35.887 Y19.733
G2 X35.76 Y20.235 I0.873 J0.487
X35.314 Y20.109 I-0.487 J0.873
G3 X35.22 Y20.081 Z-2.873 I0.008 J-0.2 F480
X35.165 Y20.033 Z-2.8 I0.103 J-0.171
X35.15 Y20.01 Z-2.7 I0.158 J-0.123
G0 Z15

(SCREW HOLES)
M8
G0 X42.993 Y13.939
Z15
Z2
G1 Z-0.9 F60
Z-3.7
G3 X42.989 Y13.913 Z-3.8 I0.195 J-0.043
X42.996 Y13.84 Z-3.873 I0.199 J-0.016
X43.047 Y13.755 Z-3.9 I0.192 J0.056
X43.612 Y14.321 I0.283 J0.283 F240
X43.047 Y13.755 I-0.283 J-0.283
X43.127 Y13.802 I0.034 J0.034
G1 X43.086 Y13.942
G3 X42.993 Y13.939 I-0.046 J-0.013
G1 Z-4.38 F60
G3 X42.989 Y13.913 Z-4.48 I0.195 J-0.043
X42.996 Y13.84 Z-4.553 I0.199 J-0.016
X43.047 Y13.755 Z-4.58 I0.192 J0.056
X43.612 Y14.321 I0.283 J0.283 F240
X43.047 Y13.755 I-0.283 J-0.283
X43.132 Y13.704 Z-4.553 I0.141 J0.141 F480
X43.204 Y13.697 Z-4.48 I0.056 J0.192
X43.231 Y13.701 Z-4.38 I-0.016 J0.199
G0 Z5
X29.288 Y6.329
Z2
G1 Z-0.9 F60
Z-3.7
G3 X29.269 Y6.348 Z-3.8 I-0.151 J-0.131
X29.207 Y6.385 Z-3.873 I-0.132 J-0.15
X29.108 Y6.396 Z-3.9 I-0.07 J-0.187
X29.221 Y5.604 I0.057 J-0.396 F240
X29.108 Y6.396 I-0.057 J0.396
X29.098 Y6.304 I0.007 J-0.047
G1 X29.235 Y6.253
G3 X29.288 Y6.329 I0.017 J0.045
G1 Z-4.38 F60
G3 X29.269 Y6.348 Z-4.48 I-0.151 J-0.131
X29.207 Y6.385 Z-4.553 I-0.132 J-0.15
X29.108 Y6.396 Z-4.58 I-0.07 J-0.187
X29.221 Y5.604 I0.057 J-0.396 F240
X29.108 Y6.396 I-0.057 J0.396
X29.017 Y6.358 Z-4.553 I0.028 J-0.198 F480
X28.967 Y6.305 Z-4.48 I0.12 J-0.16
X28.955 Y6.281 Z-4.38 I0.169 J-0.107
G0 Z5
X15.281 Y13.828
Z2
G1 Z-0.9 F60
Z-3.7
G3 X15.305 Y13.84 Z-3.8 I-0.083 J0.182
X15.358 Y13.89 Z-3.873 I-0.107 J0.169
X15.396 Y13.981 Z-3.9 I-0.16 J0.12
X14.604 Y14.094 I-0.396 J0.057 F240
X15.396 Y13.981 I0.396 J-0.057
X15.31 Y14.017 I-0.047 J0.007
G1 X15.223 Y13.9
G3 X15.281 Y13.828 I0.038 J-0.029
G1 Z-4.38 F60
G3 X15.305 Y13.84 Z-4.48 I-0.083 J0.182
X15.358 Y13.89 Z-4.553 I-0.107 J0.169
X15.396 Y13.981 Z-4.58 I-0.16 J0.12
X14.604 Y14.094 I-0.396 J0.057 F240
X15.396 Y13.981 I0.396 J-0.057
X15.385 Y14.08 Z-4.553 I-0.198 J0.028 F480
X15.348 Y14.142 Z-4.48 I-0.187 J-0.07
X15.329 Y14.161 Z-4.38 I-0.15 J-0.132
G0 Z5
X63.666 Y19.061
Z2
G1 Z-0.9 F60
Z-3.7
G3 X63.67 Y19.087 Z-3.8 I-0.195 J0.043
X63.663 Y19.16 Z-3.873 I-0.199 J0.016
X63.612 Y19.245 Z-3.9 I-0.192 J-0.056
X63.047 Y18.679 I-0.283 J-0.283 F240
X63.612 Y19.245 I0.283 J0.283
X63.532 Y19.198 I-0.034 J-0.034
G1 X63.574 Y19.058
G3 X63.666 Y19.061 I0.046 J0.013
G1 Z-4.38 F60
G3 X63.67 Y19.087 Z-4.48 I-0.195 J0.043
X63.663 Y19.16 Z-4.553 I-0.199 J0.016
X63.612 Y19.245 Z-4.58 I-0.192 J-0.056
X63.047 Y18.679 I-0.283 J-0.283 F240
X63.612 Y19.245 I0.283 J0.283
X63.527 Y19.295 Z-4.553 I-0.141 J-0.141 F480
X63.455 Y19.303 Z-4.48 I-0.056 J-0.192
X63.428 Y19.299 Z-4.38 I0.016 J-0.199
G0 Z5
X49.502 Y27.099
Z2
G1 Z-0.9 F60
Z-3.7
G3 X49.506 Y27.125 Z-3.8 I-0.195 J0.043
X49.498 Y27.198 Z-3.873 I-0.199 J0.016
X49.448 Y27.283 Z-3.9 I-0.192 J-0.056
X48.882 Y26.717 I-0.283 J-0.283 F240
X49.448 Y27.283 I0.283 J0.283
X49.368 Y27.235 I-0.034 J-0.034
G1 X49.409 Y27.095
G3 X49.502 Y27.099 I0.046 J0.013
G1 Z-4.38 F60
G3 X49.506 Y27.125 Z-4.48 I-0.195 J0.043
X49.498 Y27.198 Z-4.553 I-0.199 J0.016
X49.448 Y27.283 Z-4.58 I-0.192 J-0.056
X48.882 Y26.717 I-0.283 J-0.283 F240
X49.448 Y27.283 I0.283 J0.283
X49.362 Y27.333 Z-4.553 I-0.141 J-0.141 F480
X49.29 Y27.341 Z-4.48 I-0.056 J-0.192
X49.264 Y27.337 Z-4.38 I0.016 J-0.199
G0 Z5
X35.337 Y19.061
Z2
G1 Z-0.9 F60
Z-3.7
G3 X35.341 Y19.087 Z-3.8 I-0.195 J0.043
X35.333 Y19.16 Z-3.873 I-0.199 J0.016
X35.283 Y19.245 Z-3.9 I-0.192 J-0.056
X34.717 Y18.679 I-0.283 J-0.283 F240
X35.283 Y19.245 I0.283 J0.283
X35.203 Y19.198 I-0.034 J-0.034
G1 X35.244 Y19.058
G3 X35.337 Y19.061 I0.046 J0.013
G1 Z-4.38 F60
G3 X35.341 Y19.087 Z-4.48 I-0.195 J0.043
X35.333 Y19.16 Z-4.553 I-0.199 J0.016
X35.283 Y19.245 Z-4.58 I-0.192 J-0.056
X34.717 Y18.679 I-0.283 J-0.283 F240
X35.283 Y19.245 I0.283 J0.283
X35.198 Y19.295 Z-4.553 I-0.141 J-0.141 F480
X35.125 Y19.303 Z-4.48 I-0.056 J-0.192
X35.099 Y19.299 Z-4.38 I0.016 J-0.199
G0 Z15

(CUTOUTS)
M8
G0 X18.234 Y17.284
Z15
Z2
G1 Z-0.8 F60
X18.228 Y17.281 Z-0.852
X18.21 Y17.271 Z-0.9
X18.182 Y17.256 Z-0.941
X18.146 Y17.235 Z-0.973
X18.104 Y17.212 Z-0.993
X18.059 Y17.187 Z-1
X17.884 Y17.09 F120
G3 X17.806 Y16.818 I0.097 J-0.175
G2 X17.824 Y16.784 I-0.875 J-0.484 F240
G3 X40.506 I11.341 J5.716
G2 X40.755 Y17.099 I0.893 J-0.45
X46.763 Y11.986 I2.575 J-3.061
X11.566 I-17.599 J10.514
X11.8 Y16.438 I3.434 J2.052
X17.575 Y17.099 I3.2 J-2.4
X17.806 Y16.818 I-0.644 J-0.765
G3 X18.078 Y16.74 I0.175 J0.097 F480
G1 X18.253 Y16.837
X18.298 Y16.862 Z-0.993
X18.34 Y16.886 Z-0.973
X18.376 Y16.906 Z-0.941
X18.404 Y16.921 Z-0.9
X18.422 Y16.931 Z-0.852
X18.427 Y16.934 Z-0.8
X18.234 Y17.284
Z-1.8 F60
X18.228 Y17.281 Z-1.852
X18.21 Y17.271 Z-1.9
X18.182 Y17.256 Z-1.941
X18.146 Y17.235 Z-1.973
X18.104 Y17.212 Z-1.993
X18.059 Y17.187 Z-2
X17.884 Y17.09 F120
G3 X17.806 Y16.818 I0.097 J-0.175
G2 X17.824 Y16.784 I-0.875 J-0.484 F240
G3 X40.506 I11.341 J5.716
G2 X40.755 Y17.099 I0.893 J-0.45
X46.763 Y11.986 I2.575 J-3.061
X11.566 I-17.599 J10.514
X11.8 Y16.438 I3.434 J2.052
X17.575 Y17.099 I3.2 J-2.4
X17.806 Y16.818 I-0.644 J-0.765
G3 X18.078 Y16.74 I0.175 J0.097 F480
G1 X18.253 Y16.837
X18.298 Y16.862 Z-1.993
X18.34 Y16.886 Z-1.973
X18.376 Y16.906 Z-1.941
X18.404 Y16.921 Z-1.9
X18.422 Y16.931 Z-1.852
X18.427 Y16.934 Z-1.8
X18.234 Y17.284
Z-2.8 F60
X18.228 Y17.281 Z-2.852
X18.21 Y17.271 Z-2.9
X18.182 Y17.256 Z-2.941
X18.146 Y17.235 Z-2.973
X18.104 Y17.212 Z-2.993
X18.059 Y17.187 Z-3
X17.884 Y17.09 F120
G3 X17.806 Y16.818 I0.097 J-0.175
G2 X17.824 Y16.784 I-0.875 J-0.484 F240
G3 X40.506 I11.341 J5.716
G2 X40.755 Y17.099 I0.893 J-0.45
X46.763 Y11.986 I2.575 J-3.061
X11.566 I-17.599 J10.514
X11.8 Y16.438 I3.434 J2.052
X17.575 Y17.099 I3.2 J-2.4
X17.806 Y16.818 I-0.644 J-0.765
G3 X18.078 Y16.74 I0.175 J0.097 F480
G1 X18.253 Y16.837
X18.298 Y16.862 Z-2.993
X18.34 Y16.886 Z-2.973
X18.376 Y16.906 Z-2.941
X18.404 Y16.921 Z-2.9
X18.422 Y16.931 Z-2.852
X18.427 Y16.934 Z-2.8
X18.234 Y17.284
Z-3.8 F60
X18.228 Y17.281 Z-3.852
X18.21 Y17.271 Z-3.9
X18.182 Y17.256 Z-3.941
X18.146 Y17.235 Z-3.973
X18.104 Y17.212 Z-3.993
X18.059 Y17.187 Z-4
X17.884 Y17.09 F120
G3 X17.806 Y16.818 I0.097 J-0.175
G2 X17.824 Y16.784 I-0.875 J-0.484 F240
G3 X40.506 I11.341 J5.716
G2 X40.755 Y17.099 I0.893 J-0.45
X46.763 Y11.986 I2.575 J-3.061
X11.566 I-17.599 J10.514
X11.8 Y16.438 I3.434 J2.052
X17.575 Y17.099 I3.2 J-2.4
X17.806 Y16.818 I-0.644 J-0.765
G3 X18.078 Y16.74 I0.175 J0.097 F480
G1 X18.253 Y16.837
X18.298 Y16.862 Z-3.993
X18.34 Y16.886 Z-3.973
X18.376 Y16.906 Z-3.941
X18.404 Y16.921 Z-3.9
X18.422 Y16.931 Z-3.852
X18.427 Y16.934 Z-3.8
X18.234 Y17.284
Z-4.38 F60
X18.228 Y17.281 Z-4.432
X18.21 Y17.271 Z-4.48
X18.182 Y17.256 Z-4.521
X18.146 Y17.235 Z-4.553
X18.104 Y17.212 Z-4.573
X18.059 Y17.187 Z-4.58
X17.884 Y17.09 F120
G3 X17.806 Y16.818 I0.097 J-0.175
G2 X17.824 Y16.784 I-0.875 J-0.484 F240
G3 X40.506 I11.341 J5.716
G2 X40.755 Y17.099 I0.893 J-0.45
X46.763 Y11.986 I2.575 J-3.061
X11.566 I-17.599 J10.514
X11.8 Y16.438 I3.434 J2.052
X17.575 Y17.099 I3.2 J-2.4
X17.806 Y16.818 I-0.644 J-0.765
G3 X18.078 Y16.74 I0.175 J0.097 F480
G1 X18.253 Y16.837
X18.298 Y16.862 Z-4.573
X18.34 Y16.886 Z-4.553
X18.376 Y16.906 Z-4.521
X18.404 Y16.921 Z-4.48
X18.422 Y16.931 Z-4.432
X18.427 Y16.934 Z-4.38
G0 Z5
X38.45 Y16.125
Z2
G1 Z-0.8 F60
X38.444 Y16.128 Z-0.852
X38.426 Y16.137 Z-0.9
X38.397 Y16.151 Z-0.941
X38.36 Y16.17 Z-0.973
X38.317 Y16.191 Z-0.993
X38.271 Y16.215 Z-1
X38.092 Y16.305 F120
G3 X37.824 Y16.216 I-0.09 J-0.179
G2 X37.575 Y15.901 I-0.893 J0.45 F240
X31.566 Y21.014 I-2.575 J3.061
X66.346 Y21.683 I17.599 J-10.514
X66.763 Y21.014 I-17.182 J-11.181
X60.755 Y15.901 I-3.434 J-2.051
X60.506 Y16.216 I0.644 J0.765
G3 X37.824 I-11.341 J-5.716
X37.912 Y15.947 I0.179 J-0.09 F480
G1 X38.091 Y15.857
X38.137 Y15.834 Z-0.993
X38.18 Y15.812 Z-0.973
X38.217 Y15.794 Z-0.941
X38.246 Y15.78 Z-0.9
X38.264 Y15.771 Z-0.852
X38.27 Y15.767 Z-0.8
X38.45 Y16.125
Z-1.8 F60
X38.444 Y16.128 Z-1.852
X38.426 Y16.137 Z-1.9
X38.397 Y16.151 Z-1.941
X38.36 Y16.17 Z-1.973
X38.317 Y16.191 Z-1.993
X38.271 Y16.215 Z-2
X38.092 Y16.305 F120
G3 X37.824 Y16.216 I-0.09 J-0.179
G2 X37.575 Y15.901 I-0.893 J0.45 F240
X31.566 Y21.014 I-2.575 J3.061
X66.346 Y21.683 I17.599 J-10.514
X66.763 Y21.014 I-17.182 J-11.181
X60.755 Y15.901 I-3.434 J-2.051
X60.506 Y16.216 I0.644 J0.765
G3 X37.824 I-11.341 J-5.716
X37.912 Y15.947 I0.179 J-0.09 F480
G1 X38.091 Y15.857
X38.137 Y15.834 Z-1.993
X38.18 Y15.812 Z-1.973
X38.217 Y15.794 Z-1.941
X38.246 Y15.78 Z-1.9
X38.264 Y15.771 Z-1.852
X38.27 Y15.767 Z-1.8
X38.45 Y16.125
Z-2.8 F60
X38.444 Y16.128 Z-2.852
X38.426 Y16.137 Z-2.9
X38.397 Y16.151 Z-2.941
X38.36 Y16.17 Z-2.973
X38.317 Y16.191 Z-2.993
X38.271 Y16.215 Z-3
X38.092 Y16.305 F120
G3 X37.824 Y16.216 I-0.09 J-0.179
G2 X37.575 Y15.901 I-0.893 J0.45 F240
X31.566 Y21.014 I-2.575 J3.061
X66.346 Y21.683 I17.599 J-10.514
X66.763 Y21.014 I-17.182 J-11.181
X60.755 Y15.901 I-3.434 J-2.051
X60.506 Y16.216 I0.644 J0.765
G3 X37.824 I-11.341 J-5.716
X37.912 Y15.947 I0.179 J-0.09 F480
G1 X38.091 Y15.857
X38.137 Y15.834 Z-2.993
X38.18 Y15.812 Z-2.973
X38.217 Y15.794 Z-2.941
X38.246 Y15.78 Z-2.9
X38.264 Y15.771 Z-2.852
X38.27 Y15.767 Z-2.8
X38.45 Y16.125
Z-3.8 F60
X38.444 Y16.128 Z-3.852
X38.426 Y16.137 Z-3.9
X38.397 Y16.151 Z-3.941
X38.36 Y16.17 Z-3.973
X38.317 Y16.191 Z-3.993
X38.271 Y16.215 Z-4
X38.092 Y16.305 F120
G3 X37.824 Y16.216 I-0.09 J-0.179
G2 X37.575 Y15.901 I-0.893 J0.45 F240
X31.566 Y21.014 I-2.575 J3.061
X66.346 Y21.683 I17.599 J-10.514
X66.763 Y21.014 I-17.182 J-11.181
X60.755 Y15.901 I-3.434 J-2.051
X60.506 Y16.216 I0.644 J0.765
G3 X37.824 I-11.341 J-5.716
X37.912 Y15.947 I0.179 J-0.09 F480
G1 X38.091 Y15.857
X38.137 Y15.834 Z-3.993
X38.18 Y15.812 Z-3.973
X38.217 Y15.794 Z-3.941
X38.246 Y15.78 Z-3.9
X38.264 Y15.771 Z-3.852
X38.27 Y15.767 Z-3.8
X38.45 Y16.125
Z-4.38 F60
X38.444 Y16.128 Z-4.432
X38.426 Y16.137 Z-4.48
X38.397 Y16.151 Z-4.521
X38.36 Y16.17 Z-4.553
X38.317 Y16.191 Z-4.573
X38.271 Y16.215 Z-4.58
X38.092 Y16.305 F120
G3 X37.824 Y16.216 I-0.09 J-0.179
G2 X37.575 Y15.901 I-0.893 J0.45 F240
X31.566 Y21.014 I-2.575 J3.061
X66.346 Y21.683 I17.599 J-10.514
X66.763 Y21.014 I-17.182 J-11.181
X60.755 Y15.901 I-3.434 J-2.051
X60.506 Y16.216 I0.644 J0.765
G3 X37.824 I-11.341 J-5.716
X37.912 Y15.947 I0.179 J-0.09 F480
G1 X38.091 Y15.857
X38.137 Y15.834 Z-4.573
X38.18 Y15.812 Z-4.553
X38.217 Y15.794 Z-4.521
X38.246 Y15.78 Z-4.48
X38.264 Y15.771 Z-4.432
X38.27 Y15.767 Z-4.38
G0 Z15

M9
M30
