(SOFTMOUNT)
(T5  D=2 CR=0 - ZMIN=-4.25 - FLAT END MILL)
G90 G94 G91.1 G40 G49 G17
G21

(2D POCKET1)
M5
M9
T5
(SPIRAL)
S15000 M3
G54
M8
G0 X13.65 Y13.3
G43 Z15 H1
Z5
G1 Z2 F180
Z-0.8
Y13.307 Z-0.852
Y13.327 Z-0.9
Y13.359 Z-0.941
Y13.4 Z-0.973
Y13.448 Z-0.993
Y13.5 Z-1
G3 X13.35 I-0.15 J0 F360
X15.55 I1.1 J0
X11.45 I-2.05 J0
X15.75 I2.15 J0
X11.25 I-2.25 J0
X15.75 I2.25 J0
X15.726 Y13.596 Z-0.973 I-0.2 J0
X15.68 Y13.652 Z-0.9 I-0.176 J-0.096
X15.658 Y13.668 Z-0.8 I-0.13 J-0.152
G1 Z-0.2
G3 X15.637 Y13.68 Z-0.104 I-0.108 J-0.168
X15.573 Y13.699 Z-0.032 I-0.087 J-0.18
X15.481 Y13.688 Z-0.001 I-0.023 J-0.199
G1 X15.467 Y13.682 Z0
X13.933 Y13.118
X13.919 Y13.112 Z-0.001
G2 X13.827 Y13.101 Z-0.032 I-0.069 J0.188
X13.763 Y13.12 Z-0.104 I0.023 J0.199
X13.742 Y13.132 Z-0.2 I0.087 J0.18
G1 Z-0.8
G2 X13.72 Y13.148 Z-0.9 I0.108 J0.168
X13.674 Y13.204 Z-0.973 I0.13 J0.152
X13.65 Y13.3 Z-1 I0.176 J0.096
G1 Z-1.8 F180
Y13.307 Z-1.852
Y13.327 Z-1.9
Y13.359 Z-1.941
Y13.4 Z-1.973
Y13.448 Z-1.993
Y13.5 Z-2
G3 X13.35 I-0.15 J0 F360
X15.55 I1.1 J0
X11.45 I-2.05 J0
X15.75 I2.15 J0
X11.25 I-2.25 J0
X15.75 I2.25 J0
X15.726 Y13.596 Z-1.973 I-0.2 J0
X15.68 Y13.652 Z-1.9 I-0.176 J-0.096
X15.658 Y13.668 Z-1.8 I-0.13 J-0.152
G1 Z-1.2
G3 X15.637 Y13.68 Z-1.104 I-0.108 J-0.168
X15.573 Y13.699 Z-1.032 I-0.087 J-0.18
X15.481 Y13.688 Z-1.001 I-0.023 J-0.199
G1 X15.467 Y13.682 Z-1
X13.933 Y13.118
X13.919 Y13.112 Z-1.001
G2 X13.827 Y13.101 Z-1.032 I-0.069 J0.188
X13.763 Y13.12 Z-1.104 I0.023 J0.199
X13.742 Y13.132 Z-1.2 I0.087 J0.18
G1 Z-1.8
G2 X13.72 Y13.148 Z-1.9 I0.108 J0.168
X13.674 Y13.204 Z-1.973 I0.13 J0.152
X13.65 Y13.3 Z-2 I0.176 J0.096
G1 Z-2.8 F180
Y13.307 Z-2.852
Y13.327 Z-2.9
Y13.359 Z-2.941
Y13.4 Z-2.973
Y13.448 Z-2.993
Y13.5 Z-3
G3 X13.35 I-0.15 J0 F360
X15.55 I1.1 J0
X11.45 I-2.05 J0
X15.75 I2.15 J0
X11.25 I-2.25 J0
X15.75 I2.25 J0
X15.726 Y13.596 Z-2.973 I-0.2 J0
X15.68 Y13.652 Z-2.9 I-0.176 J-0.096
X15.658 Y13.668 Z-2.8 I-0.13 J-0.152
G1 Z-2.2
G3 X15.637 Y13.68 Z-2.104 I-0.108 J-0.168
X15.573 Y13.699 Z-2.032 I-0.087 J-0.18
X15.481 Y13.688 Z-2.001 I-0.023 J-0.199
G1 X15.467 Y13.682 Z-2
X13.933 Y13.118
X13.919 Y13.112 Z-2.001
G2 X13.827 Y13.101 Z-2.032 I-0.069 J0.188
X13.763 Y13.12 Z-2.104 I0.023 J0.199
X13.742 Y13.132 Z-2.2 I0.087 J0.18
G1 Z-2.8
G2 X13.72 Y13.148 Z-2.9 I0.108 J0.168
X13.674 Y13.204 Z-2.973 I0.13 J0.152
X13.65 Y13.3 Z-3 I0.176 J0.096
G1 Z-3.8 F180
Y13.307 Z-3.852
Y13.327 Z-3.9
Y13.359 Z-3.941
Y13.4 Z-3.973
Y13.448 Z-3.993
Y13.5 Z-4
G3 X13.35 I-0.15 J0 F360
X15.55 I1.1 J0
X11.45 I-2.05 J0
X15.75 I2.15 J0
X11.25 I-2.25 J0
X15.75 I2.25 J0
X15.726 Y13.596 Z-3.973 I-0.2 J0
X15.68 Y13.652 Z-3.9 I-0.176 J-0.096
X15.658 Y13.668 Z-3.8 I-0.13 J-0.152
G1 Z-3.2
G3 X15.637 Y13.68 Z-3.104 I-0.108 J-0.168
X15.573 Y13.699 Z-3.032 I-0.087 J-0.18
X15.481 Y13.688 Z-3.001 I-0.023 J-0.199
G1 X15.467 Y13.682 Z-3
X13.933 Y13.118
X13.919 Y13.112 Z-3.001
G2 X13.827 Y13.101 Z-3.032 I-0.069 J0.188
X13.763 Y13.12 Z-3.104 I0.023 J0.199
X13.742 Y13.132 Z-3.2 I0.087 J0.18
G1 Z-3.8
G2 X13.72 Y13.148 Z-3.9 I0.108 J0.168
X13.674 Y13.204 Z-3.973 I0.13 J0.152
X13.65 Y13.3 Z-4 I0.176 J0.096
G1 Z-4.05 F180
Y13.307 Z-4.102
Y13.327 Z-4.15
Y13.359 Z-4.191
Y13.4 Z-4.223
Y13.448 Z-4.243
Y13.5 Z-4.25
G3 X13.35 I-0.15 J0 F360
X15.55 I1.1 J0
X11.45 I-2.05 J0
X15.75 I2.15 J0
X11.25 I-2.25 J0
X15.75 I2.25 J0
X15.726 Y13.596 Z-4.223 I-0.2 J0 F720
X15.68 Y13.652 Z-4.15 I-0.176 J-0.096
X15.658 Y13.668 Z-4.05 I-0.13 J-0.152
G0 Z5
X23.125 Y13.972
G1 Z2 F180
Z-0.8
G3 X23.107 Y13.992 Z-0.9 I-0.158 J-0.123
X23.047 Y14.032 Z-0.973 I-0.14 J-0.143
X22.949 Y14.048 Z-1 I-0.079 J-0.184
G2 X22.706 Y14.05 I-0.11 J1.195 F360
G1 X21.5
G3 Y12.95 I0 J-0.55
G1 X22.837
G2 X22.949 Y12.945 I0 J-1.2
G3 X23.554 Y13.496 I0.051 J0.551
X22.949 Y14.048 I-0.554 J0
G2 X22.788 Y14.145 I-0.015 J0.158
G3 X22.631 Y14.25 I-0.157 J-0.065
G1 X21.5
G3 Y12.75 I0 J-0.75
G1 X22.837
G2 X22.93 Y12.746 I0 J-1
G3 X23.754 Y13.496 I0.07 J0.751
X22.931 Y14.247 I-0.754 J0
G2 X22.717 Y14.25 I-0.092 J0.996
G1 X22.631
G3 X22.547 Y14.204 Z-0.973 I0 J-0.1
X22.532 Y14.134 Z-0.9 I0.084 J-0.055
X22.539 Y14.109 Z-0.8 I0.099 J0.015
G1 Z-0.2
G3 X22.547 Y14.094 Z-0.121 I0.092 J0.041
G1 X22.56 Y14.075 Z-0.081
X22.577 Y14.048 Z-0.047
X22.599 Y14.016 Z-0.021
X22.623 Y13.979 Z-0.005
X22.648 Y13.941 Z0
X22.663 Y13.918
X22.689 Y13.878 Z-0.006
X22.715 Y13.839 Z-0.024
G3 X22.776 Y13.796 Z-0.097 I0.084 J0.055
X22.804 Y13.794 Z-0.2 I0.022 J0.098
G1 Z-0.8
G3 X22.831 Y13.799 Z-0.9 I-0.006 J0.1
X22.886 Y13.845 Z-0.973 I-0.032 J0.095
X22.888 Y13.941 Z-1 I-0.087 J0.05
G1 Z-1.8 F180
G3 X22.874 Y13.964 Z-1.9 I-0.178 J-0.092
X22.822 Y14.014 Z-1.973 I-0.164 J-0.115
X22.729 Y14.048 Z-2 I-0.112 J-0.166
G2 X22.706 Y14.05 I0.11 J1.195 F360
G1 X21.5
G3 Y12.95 I0 J-0.55
G1 X22.837
G2 X22.949 Y12.945 I0 J-1.2
G3 X23.554 Y13.496 I0.051 J0.551
X22.949 Y14.048 I-0.554 J0
G2 X22.729 I-0.11 J1.195
X22.59 Y14.152 I0.015 J0.164
G3 X22.447 Y14.25 I-0.143 J-0.056
G1 X21.5
G3 Y12.75 I0 J-0.75
G1 X22.837
G2 X22.93 Y12.746 I0 J-1
G3 X23.754 Y13.496 I0.07 J0.751
X22.931 Y14.247 I-0.754 J0
G2 X22.717 Y14.25 I-0.092 J0.996
G1 X22.447
G3 X22.356 Y14.215 Z-1.973 I0 J-0.135
X22.318 Y14.153 Z-1.9 I0.091 J-0.099
X22.313 Y14.127 Z-1.8 I0.129 J-0.038
G1 Z-1.2
G3 X22.315 Y14.089 Z-1.083 I0.134 J-0.011
X22.367 Y14.007 Z-1.01 I0.132 J0.026
G1 X22.392 Y13.989 Z-1.003
X22.418 Y13.97 Z-1
X22.657 Y13.793
X22.688 Y13.77 Z-1.004
G3 X22.766 Y13.744 Z-1.041 I0.08 J0.108
X22.822 Y13.755 Z-1.111 I0.003 J0.135
X22.84 Y13.765 Z-1.2 I-0.054 J0.123
G1 Z-1.8
G3 X22.861 Y13.781 Z-1.9 I-0.072 J0.114
X22.898 Y13.844 Z-1.973 I-0.093 J0.097
X22.888 Y13.941 Z-2 I-0.13 J0.035
G1 Z-2.8 F180
G3 X22.874 Y13.964 Z-2.9 I-0.178 J-0.092
X22.822 Y14.014 Z-2.973 I-0.164 J-0.115
X22.729 Y14.048 Z-3 I-0.112 J-0.166
G2 X22.706 Y14.05 I0.11 J1.195 F360
G1 X21.5
G3 Y12.95 I0 J-0.55
G1 X22.837
G2 X22.949 Y12.945 I0 J-1.2
G3 X23.554 Y13.496 I0.051 J0.551
X22.949 Y14.048 I-0.554 J0
G2 X22.729 I-0.11 J1.195
X22.59 Y14.152 I0.015 J0.164
G3 X22.447 Y14.25 I-0.143 J-0.056
G1 X21.5
G3 Y12.75 I0 J-0.75
G1 X22.837
G2 X22.93 Y12.746 I0 J-1
G3 X23.754 Y13.496 I0.07 J0.751
X22.931 Y14.247 I-0.754 J0
G2 X22.717 Y14.25 I-0.092 J0.996
G1 X22.447
G3 X22.356 Y14.215 Z-2.973 I0 J-0.135
X22.318 Y14.153 Z-2.9 I0.091 J-0.099
X22.313 Y14.127 Z-2.8 I0.129 J-0.038
G1 Z-2.2
G3 X22.315 Y14.089 Z-2.083 I0.134 J-0.011
X22.367 Y14.007 Z-2.01 I0.132 J0.026
G1 X22.392 Y13.989 Z-2.003
X22.418 Y13.97 Z-2
X22.657 Y13.793
X22.688 Y13.77 Z-2.004
G3 X22.766 Y13.744 Z-2.041 I0.08 J0.108
X22.822 Y13.755 Z-2.111 I0.003 J0.135
X22.84 Y13.765 Z-2.2 I-0.054 J0.123
G1 Z-2.8
G3 X22.861 Y13.781 Z-2.9 I-0.072 J0.114
X22.898 Y13.844 Z-2.973 I-0.093 J0.097
X22.888 Y13.941 Z-3 I-0.13 J0.035
G1 Z-3.8 F180
G3 X22.874 Y13.964 Z-3.9 I-0.178 J-0.092
X22.822 Y14.014 Z-3.973 I-0.164 J-0.115
X22.729 Y14.048 Z-4 I-0.112 J-0.166
G2 X22.706 Y14.05 I0.11 J1.195 F360
G1 X21.5
G3 Y12.95 I0 J-0.55
G1 X22.837
G2 X22.949 Y12.945 I0 J-1.2
G3 X23.554 Y13.496 I0.051 J0.551
X22.949 Y14.048 I-0.554 J0
G2 X22.729 I-0.11 J1.195
X22.59 Y14.152 I0.015 J0.164
G3 X22.447 Y14.25 I-0.143 J-0.056
G1 X21.5
G3 Y12.75 I0 J-0.75
G1 X22.837
G2 X22.93 Y12.746 I0 J-1
G3 X23.754 Y13.496 I0.07 J0.751
X22.931 Y14.247 I-0.754 J0
G2 X22.717 Y14.25 I-0.092 J0.996
G1 X22.447
G3 X22.356 Y14.215 Z-3.973 I0 J-0.135
X22.318 Y14.153 Z-3.9 I0.091 J-0.099
X22.313 Y14.127 Z-3.8 I0.129 J-0.038
G1 Z-3.2
G3 X22.315 Y14.089 Z-3.083 I0.134 J-0.011
X22.367 Y14.007 Z-3.01 I0.132 J0.026
G1 X22.392 Y13.989 Z-3.003
X22.418 Y13.97 Z-3
X22.657 Y13.793
X22.688 Y13.77 Z-3.004
G3 X22.766 Y13.744 Z-3.041 I0.08 J0.108
X22.822 Y13.755 Z-3.111 I0.003 J0.135
X22.84 Y13.765 Z-3.2 I-0.054 J0.123
G1 Z-3.8
G3 X22.861 Y13.781 Z-3.9 I-0.072 J0.114
X22.898 Y13.844 Z-3.973 I-0.093 J0.097
X22.888 Y13.941 Z-4 I-0.13 J0.035
G1 Z-4.05 F180
G3 X22.874 Y13.964 Z-4.15 I-0.178 J-0.092
X22.822 Y14.014 Z-4.223 I-0.164 J-0.115
X22.729 Y14.048 Z-4.25 I-0.112 J-0.166
G2 X22.706 Y14.05 I0.11 J1.195 F360
G1 X21.5
G3 Y12.95 I0 J-0.55
G1 X22.837
G2 X22.949 Y12.945 I0 J-1.2
G3 X23.554 Y13.496 I0.051 J0.551
X22.949 Y14.048 I-0.554 J0
G2 X22.729 I-0.11 J1.195
X22.59 Y14.152 I0.015 J0.164
G3 X22.447 Y14.25 I-0.143 J-0.056
G1 X21.5
G3 Y12.75 I0 J-0.75
G1 X22.837
G2 X22.93 Y12.746 I0 J-1
G3 X23.754 Y13.496 I0.07 J0.751
X22.931 Y14.247 I-0.754 J0
G2 X22.717 Y14.25 I-0.092 J0.996
G1 X22.447
G3 X22.351 Y14.226 Z-4.223 I0 J-0.2 F720
X22.295 Y14.18 Z-4.15 I0.096 J-0.176
X22.279 Y14.158 Z-4.05 I0.152 J-0.13
G0 Z5
X13.028 Y23.125
G1 Z2 F180
Z-0.8
G3 X13.008 Y23.107 Z-0.9 I0.123 J-0.158
X12.968 Y23.047 Z-0.973 I0.143 J-0.14
X12.952 Y22.949 Z-1 I0.184 J-0.079
G2 X12.957 Y22.832 I-1.195 J-0.11 F360
G1 X12.95 Y21.497
G3 X13.5 Y20.95 I0.55 J0.003
X14.05 Y21.5 I0 J0.55
G1 Y22.837
G2 X14.055 Y22.949 I1.2 J0
G3 X13.504 Y23.554 I-0.551 J0.051
X12.952 Y22.949 I0 J-0.554
G2 X12.858 Y22.788 I-0.16 J-0.015
G3 X12.756 Y22.631 I0.071 J-0.158
G1 X12.75 Y21.497
G3 X13.5 Y20.75 I0.75 J0.003
X14.25 Y21.5 I0 J0.75
G1 Y22.837
G2 X14.254 Y22.93 I1 J0
G3 X13.504 Y23.754 I-0.751 J0.07
X12.753 Y22.931 I0 J-0.754
G2 X12.757 Y22.833 I-0.996 J-0.092
G1 X12.756 Y22.631
G3 X12.79 Y22.539 Z-0.973 I0.141 J-0.001
X12.849 Y22.498 Z-0.9 I0.108 J0.091
X12.875 Y22.491 Z-0.8 I0.048 J0.133
G1 Z-0.2
G3 X12.897 Y22.489 Z-0.108 I0.022 J0.139
X12.957 Y22.502 Z-0.037 I0 J0.141
X13.02 Y22.56 Z-0.002 I-0.059 J0.128
G1 X13.034 Y22.586 Z0
X13.232 Y22.934
X13.238 Y22.944
G3 X13.255 Y23.036 Z-0.031 I-0.123 J0.07
X13.228 Y23.098 Z-0.104 I-0.139 J-0.022
X13.212 Y23.117 Z-0.2 I-0.113 J-0.084
G1 Z-0.8
G3 X13.191 Y23.133 Z-0.9 I-0.097 J-0.103
X13.122 Y23.155 Z-0.973 I-0.076 J-0.119
X13.028 Y23.125 Z-1 I-0.006 J-0.141
G1 Z-1.8 F180
G3 X13.008 Y23.107 Z-1.9 I0.123 J-0.158
X12.968 Y23.047 Z-1.973 I0.143 J-0.14
X12.952 Y22.949 Z-2 I0.184 J-0.079
G2 X12.957 Y22.832 I-1.195 J-0.11 F360
G1 X12.95 Y21.497
G3 X13.5 Y20.95 I0.55 J0.003
X14.05 Y21.5 I0 J0.55
G1 Y22.837
G2 X14.055 Y22.949 I1.2 J0
G3 X13.504 Y23.554 I-0.551 J0.051
X12.952 Y22.949 I0 J-0.554
G2 X12.858 Y22.788 I-0.16 J-0.015
G3 X12.756 Y22.631 I0.071 J-0.158
G1 X12.75 Y21.497
G3 X13.5 Y20.75 I0.75 J0.003
X14.25 Y21.5 I0 J0.75
G1 Y22.837
G2 X14.254 Y22.93 I1 J0
G3 X13.504 Y23.754 I-0.751 J0.07
X12.753 Y22.931 I0 J-0.754
G2 X12.757 Y22.833 I-0.996 J-0.092
G1 X12.756 Y22.631
G3 X12.79 Y22.539 Z-1.973 I0.141 J-0.001
X12.849 Y22.498 Z-1.9 I0.108 J0.091
X12.875 Y22.491 Z-1.8 I0.048 J0.133
G1 Z-1.2
G3 X12.897 Y22.489 Z-1.108 I0.022 J0.139
X12.957 Y22.502 Z-1.037 I0 J0.141
X13.02 Y22.56 Z-1.002 I-0.059 J0.128
G1 X13.034 Y22.586 Z-1
X13.232 Y22.934
X13.238 Y22.944
G3 X13.255 Y23.036 Z-1.031 I-0.123 J0.07
X13.228 Y23.098 Z-1.104 I-0.139 J-0.022
X13.212 Y23.117 Z-1.2 I-0.113 J-0.084
G1 Z-1.8
G3 X13.191 Y23.133 Z-1.9 I-0.097 J-0.103
X13.122 Y23.155 Z-1.973 I-0.076 J-0.119
X13.028 Y23.125 Z-2 I-0.006 J-0.141
G1 Z-2.8 F180
G3 X13.008 Y23.107 Z-2.9 I0.123 J-0.158
X12.968 Y23.047 Z-2.973 I0.143 J-0.14
X12.952 Y22.949 Z-3 I0.184 J-0.079
G2 X12.957 Y22.832 I-1.195 J-0.11 F360
G1 X12.95 Y21.497
G3 X13.5 Y20.95 I0.55 J0.003
X14.05 Y21.5 I0 J0.55
G1 Y22.837
G2 X14.055 Y22.949 I1.2 J0
G3 X13.504 Y23.554 I-0.551 J0.051
X12.952 Y22.949 I0 J-0.554
G2 X12.858 Y22.788 I-0.16 J-0.015
G3 X12.756 Y22.631 I0.071 J-0.158
G1 X12.75 Y21.497
G3 X13.5 Y20.75 I0.75 J0.003
X14.25 Y21.5 I0 J0.75
G1 Y22.837
G2 X14.254 Y22.93 I1 J0
G3 X13.504 Y23.754 I-0.751 J0.07
X12.753 Y22.931 I0 J-0.754
G2 X12.757 Y22.833 I-0.996 J-0.092
G1 X12.756 Y22.631
G3 X12.79 Y22.539 Z-2.973 I0.141 J-0.001
X12.849 Y22.498 Z-2.9 I0.108 J0.091
X12.875 Y22.491 Z-2.8 I0.048 J0.133
G1 Z-2.2
G3 X12.897 Y22.489 Z-2.108 I0.022 J0.139
X12.957 Y22.502 Z-2.037 I0 J0.141
X13.02 Y22.56 Z-2.002 I-0.059 J0.128
G1 X13.034 Y22.586 Z-2
X13.232 Y22.934
X13.238 Y22.944
G3 X13.255 Y23.036 Z-2.031 I-0.123 J0.07
X13.228 Y23.098 Z-2.104 I-0.139 J-0.022
X13.212 Y23.117 Z-2.2 I-0.113 J-0.084
G1 Z-2.8
G3 X13.191 Y23.133 Z-2.9 I-0.097 J-0.103
X13.122 Y23.155 Z-2.973 I-0.076 J-0.119
X13.028 Y23.125 Z-3 I-0.006 J-0.141
G1 Z-3.8 F180
G3 X13.008 Y23.107 Z-3.9 I0.123 J-0.158
X12.968 Y23.047 Z-3.973 I0.143 J-0.14
X12.952 Y22.949 Z-4 I0.184 J-0.079
G2 X12.957 Y22.832 I-1.195 J-0.11 F360
G1 X12.95 Y21.497
G3 X13.5 Y20.95 I0.55 J0.003
X14.05 Y21.5 I0 J0.55
G1 Y22.837
G2 X14.055 Y22.949 I1.2 J0
G3 X13.504 Y23.554 I-0.551 J0.051
X12.952 Y22.949 I0 J-0.554
G2 X12.858 Y22.788 I-0.16 J-0.015
G3 X12.756 Y22.631 I0.071 J-0.158
G1 X12.75 Y21.497
G3 X13.5 Y20.75 I0.75 J0.003
X14.25 Y21.5 I0 J0.75
G1 Y22.837
G2 X14.254 Y22.93 I1 J0
G3 X13.504 Y23.754 I-0.751 J0.07
X12.753 Y22.931 I0 J-0.754
G2 X12.757 Y22.833 I-0.996 J-0.092
G1 X12.756 Y22.631
G3 X12.79 Y22.539 Z-3.973 I0.141 J-0.001
X12.849 Y22.498 Z-3.9 I0.108 J0.091
X12.875 Y22.491 Z-3.8 I0.048 J0.133
G1 Z-3.2
G3 X12.897 Y22.489 Z-3.108 I0.022 J0.139
X12.957 Y22.502 Z-3.037 I0 J0.141
X13.02 Y22.56 Z-3.002 I-0.059 J0.128
G1 X13.034 Y22.586 Z-3
X13.232 Y22.934
X13.238 Y22.944
G3 X13.255 Y23.036 Z-3.031 I-0.123 J0.07
X13.228 Y23.098 Z-3.104 I-0.139 J-0.022
X13.212 Y23.117 Z-3.2 I-0.113 J-0.084
G1 Z-3.8
G3 X13.191 Y23.133 Z-3.9 I-0.097 J-0.103
X13.122 Y23.155 Z-3.973 I-0.076 J-0.119
X13.028 Y23.125 Z-4 I-0.006 J-0.141
G1 Z-4.05 F180
G3 X13.008 Y23.107 Z-4.15 I0.123 J-0.158
X12.968 Y23.047 Z-4.223 I0.143 J-0.14
X12.952 Y22.949 Z-4.25 I0.184 J-0.079
G2 X12.957 Y22.832 I-1.195 J-0.11 F360
G1 X12.95 Y21.497
G3 X13.5 Y20.95 I0.55 J0.003
X14.05 Y21.5 I0 J0.55
G1 Y22.837
G2 X14.055 Y22.949 I1.2 J0
G3 X13.504 Y23.554 I-0.551 J0.051
X12.952 Y22.949 I0 J-0.554
G2 X12.858 Y22.788 I-0.16 J-0.015
G3 X12.756 Y22.631 I0.071 J-0.158
G1 X12.75 Y21.497
G3 X13.5 Y20.75 I0.75 J0.003
X14.25 Y21.5 I0 J0.75
G1 Y22.837
G2 X14.254 Y22.93 I1 J0
G3 X13.504 Y23.754 I-0.751 J0.07
X12.753 Y22.931 I0 J-0.754
G2 X12.757 Y22.833 I-0.996 J-0.092
G1 X12.756 Y22.631
G3 X12.78 Y22.535 Z-4.223 I0.2 J-0.001 F720
X12.826 Y22.478 Z-4.15 I0.176 J0.095
X12.847 Y22.462 Z-4.05 I0.13 J0.152
G0 Z5
X4.21 Y13.948
G1 Z2 F180
Z-0.8
G3 X4.196 Y13.971 Z-0.9 I-0.178 J-0.092
X4.145 Y14.022 Z-0.973 I-0.164 J-0.115
X4.051 Y14.055 Z-1 I-0.112 J-0.166
X3.446 Y13.504 I-0.051 J-0.551 F360
X4.051 Y12.952 I0.554 J0
G2 X4.168 Y12.957 I0.11 J-1.195
G1 X5.503 Y12.95
G3 X5.5 Y14.05 I-0.003 J0.55
G1 X4.163
G2 X4.051 Y14.055 I0 J1.2
X3.921 Y14.153 I0.014 J0.155
G3 X3.774 Y14.223 I-0.111 J-0.044
X4.069 Y12.753 I0.226 J-0.719
G2 X4.167 Y12.757 I0.092 J-0.996
G1 X5.503 Y12.75
G3 X5.5 Y14.25 I-0.003 J0.75
G1 X4.163
G2 X4.07 Y14.254 I0 J1
G3 X3.774 Y14.223 I-0.07 J-0.751
X3.698 Y14.16 Z-0.973 I0.039 J-0.123
X3.684 Y14.09 Z-0.9 I0.114 J-0.061
X3.688 Y14.063 Z-0.8 I0.129 J0.01
G1 Z-0.2
G3 X3.696 Y14.043 Z-0.109 I0.124 J0.036
X3.735 Y13.996 Z-0.038 I0.116 J0.057
G1 X3.764 Y13.975 Z-0.017
X3.796 Y13.951 Z-0.004
X3.829 Y13.927 Z0
X3.976 Y13.817
X4.019 Y13.785 Z-0.007
G3 X4.089 Y13.76 Z-0.047 I0.077 J0.103
X4.141 Y13.768 Z-0.116 I0.006 J0.129
X4.157 Y13.775 Z-0.2 I-0.045 J0.121
G1 Z-0.8
G3 X4.18 Y13.791 Z-0.9 I-0.062 J0.113
X4.219 Y13.851 Z-0.973 I-0.084 J0.098
X4.21 Y13.948 Z-1 I-0.123 J0.038
G1 Z-1.8 F180
G3 X4.196 Y13.971 Z-1.9 I-0.178 J-0.092
X4.145 Y14.022 Z-1.973 I-0.164 J-0.115
X4.051 Y14.055 Z-2 I-0.112 J-0.166
X3.446 Y13.504 I-0.051 J-0.551 F360
X4.051 Y12.952 I0.554 J0
G2 X4.168 Y12.957 I0.11 J-1.195
G1 X5.503 Y12.95
G3 X5.5 Y14.05 I-0.003 J0.55
G1 X4.163
G2 X4.051 Y14.055 I0 J1.2
X3.921 Y14.153 I0.014 J0.155
G3 X3.774 Y14.223 I-0.111 J-0.044
X4.069 Y12.753 I0.226 J-0.719
G2 X4.167 Y12.757 I0.092 J-0.996
G1 X5.503 Y12.75
G3 X5.5 Y14.25 I-0.003 J0.75
G1 X4.163
G2 X4.07 Y14.254 I0 J1
G3 X3.774 Y14.223 I-0.07 J-0.751
X3.698 Y14.16 Z-1.973 I0.039 J-0.123
X3.684 Y14.09 Z-1.9 I0.114 J-0.061
X3.688 Y14.063 Z-1.8 I0.129 J0.01
G1 Z-1.2
G3 X3.696 Y14.043 Z-1.109 I0.124 J0.036
X3.735 Y13.996 Z-1.038 I0.116 J0.057
G1 X3.764 Y13.975 Z-1.017
X3.796 Y13.951 Z-1.004
X3.829 Y13.927 Z-1
X3.976 Y13.817
X4.019 Y13.785 Z-1.007
G3 X4.089 Y13.76 Z-1.047 I0.077 J0.103
X4.141 Y13.768 Z-1.116 I0.006 J0.129
X4.157 Y13.775 Z-1.2 I-0.045 J0.121
G1 Z-1.8
G3 X4.18 Y13.791 Z-1.9 I-0.062 J0.113
X4.219 Y13.851 Z-1.973 I-0.084 J0.098
X4.21 Y13.948 Z-2 I-0.123 J0.038
G1 Z-2.8 F180
G3 X4.196 Y13.971 Z-2.9 I-0.178 J-0.092
X4.145 Y14.022 Z-2.973 I-0.164 J-0.115
X4.051 Y14.055 Z-3 I-0.112 J-0.166
X3.446 Y13.504 I-0.051 J-0.551 F360
X4.051 Y12.952 I0.554 J0
G2 X4.168 Y12.957 I0.11 J-1.195
G1 X5.503 Y12.95
G3 X5.5 Y14.05 I-0.003 J0.55
G1 X4.163
G2 X4.051 Y14.055 I0 J1.2
X3.921 Y14.153 I0.014 J0.155
G3 X3.774 Y14.223 I-0.111 J-0.044
X4.069 Y12.753 I0.226 J-0.719
G2 X4.167 Y12.757 I0.092 J-0.996
G1 X5.503 Y12.75
G3 X5.5 Y14.25 I-0.003 J0.75
G1 X4.163
G2 X4.07 Y14.254 I0 J1
G3 X3.774 Y14.223 I-0.07 J-0.751
X3.698 Y14.16 Z-2.973 I0.039 J-0.123
X3.684 Y14.09 Z-2.9 I0.114 J-0.061
X3.688 Y14.063 Z-2.8 I0.129 J0.01
G1 Z-2.2
G3 X3.696 Y14.043 Z-2.109 I0.124 J0.036
X3.735 Y13.996 Z-2.038 I0.116 J0.057
G1 X3.764 Y13.975 Z-2.017
X3.796 Y13.951 Z-2.004
X3.829 Y13.927 Z-2
X3.976 Y13.817
X4.019 Y13.785 Z-2.007
G3 X4.089 Y13.76 Z-2.047 I0.077 J0.103
X4.141 Y13.768 Z-2.116 I0.006 J0.129
X4.157 Y13.775 Z-2.2 I-0.045 J0.121
G1 Z-2.8
G3 X4.18 Y13.791 Z-2.9 I-0.062 J0.113
X4.219 Y13.851 Z-2.973 I-0.084 J0.098
X4.21 Y13.948 Z-3 I-0.123 J0.038
G1 Z-3.8 F180
G3 X4.196 Y13.971 Z-3.9 I-0.178 J-0.092
X4.145 Y14.022 Z-3.973 I-0.164 J-0.115
X4.051 Y14.055 Z-4 I-0.112 J-0.166
X3.446 Y13.504 I-0.051 J-0.551 F360
X4.051 Y12.952 I0.554 J0
G2 X4.168 Y12.957 I0.11 J-1.195
G1 X5.503 Y12.95
G3 X5.5 Y14.05 I-0.003 J0.55
G1 X4.163
G2 X4.051 Y14.055 I0 J1.2
X3.921 Y14.153 I0.014 J0.155
G3 X3.774 Y14.223 I-0.111 J-0.044
X4.069 Y12.753 I0.226 J-0.719
G2 X4.167 Y12.757 I0.092 J-0.996
G1 X5.503 Y12.75
G3 X5.5 Y14.25 I-0.003 J0.75
G1 X4.163
G2 X4.07 Y14.254 I0 J1
G3 X3.774 Y14.223 I-0.07 J-0.751
X3.698 Y14.16 Z-3.973 I0.039 J-0.123
X3.684 Y14.09 Z-3.9 I0.114 J-0.061
X3.688 Y14.063 Z-3.8 I0.129 J0.01
G1 Z-3.2
G3 X3.696 Y14.043 Z-3.109 I0.124 J0.036
X3.735 Y13.996 Z-3.038 I0.116 J0.057
G1 X3.764 Y13.975 Z-3.017
X3.796 Y13.951 Z-3.004
X3.829 Y13.927 Z-3
X3.976 Y13.817
X4.019 Y13.785 Z-3.007
G3 X4.089 Y13.76 Z-3.047 I0.077 J0.103
X4.141 Y13.768 Z-3.116 I0.006 J0.129
X4.157 Y13.775 Z-3.2 I-0.045 J0.121
G1 Z-3.8
G3 X4.18 Y13.791 Z-3.9 I-0.062 J0.113
X4.219 Y13.851 Z-3.973 I-0.084 J0.098
X4.21 Y13.948 Z-4 I-0.123 J0.038
G1 Z-4.05 F180
G3 X4.196 Y13.971 Z-4.15 I-0.178 J-0.092
X4.145 Y14.022 Z-4.223 I-0.164 J-0.115
X4.051 Y14.055 Z-4.25 I-0.112 J-0.166
X3.446 Y13.504 I-0.051 J-0.551 F360
X4.051 Y12.952 I0.554 J0
G2 X4.168 Y12.957 I0.11 J-1.195
G1 X5.503 Y12.95
G3 X5.5 Y14.05 I-0.003 J0.55
G1 X4.163
G2 X4.051 Y14.055 I0 J1.2
X3.921 Y14.153 I0.014 J0.155
G3 X3.774 Y14.223 I-0.111 J-0.044
X4.069 Y12.753 I0.226 J-0.719
G2 X4.167 Y12.757 I0.092 J-0.996
G1 X5.503 Y12.75
G3 X5.5 Y14.25 I-0.003 J0.75
G1 X4.163
G2 X4.07 Y14.254 I0 J1
G3 X3.774 Y14.223 I-0.07 J-0.751
X3.689 Y14.171 Z-4.223 I0.06 J-0.191 F720
X3.649 Y14.11 Z-4.15 I0.144 J-0.139
X3.641 Y14.084 Z-4.05 I0.184 J-0.078
G0 Z5
X13.059 Y4.21
G1 Z2 F180
Z-0.8
G3 X13.036 Y4.196 Z-0.9 I0.092 J-0.178
X12.986 Y4.144 Z-0.973 I0.115 J-0.164
X12.952 Y4.051 Z-1 I0.166 J-0.112
X13.504 Y3.446 I0.551 J-0.051 F360
X14.055 Y4.051 I0 J0.554
G2 X14.05 Y4.163 I1.195 J0.111
G1 Y5.5
G3 X12.95 I-0.55 J0
G1 Y4.294
G2 X12.952 Y4.051 I-1.193 J-0.133
X12.855 Y3.92 I-0.155 J0.014
G3 X12.785 Y3.773 I0.044 J-0.111
X14.254 Y4.07 I0.719 J0.227
G2 X14.25 Y4.163 I0.996 J0.093
G1 Y5.5
G3 X12.75 I-0.75 J0
G1 Y4.283
G2 X12.753 Y4.069 I-0.993 J-0.121
G3 X12.785 Y3.773 I0.751 J-0.069
X12.847 Y3.698 Z-0.973 I0.123 J0.039
X12.918 Y3.683 Z-0.9 I0.061 J0.114
X12.944 Y3.688 Z-0.8 I-0.01 J0.129
G1 Z-0.2
G3 X12.965 Y3.696 Z-0.109 I-0.036 J0.124
X13.012 Y3.735 Z-0.038 I-0.057 J0.116
G1 X13.033 Y3.764 Z-0.017
X13.057 Y3.795 Z-0.004
X13.081 Y3.828 Z0
X13.191 Y3.976
X13.222 Y4.019 Z-0.007
G3 X13.248 Y4.089 Z-0.047 I-0.104 J0.077
X13.24 Y4.14 Z-0.116 I-0.129 J0.006
X13.232 Y4.157 Z-0.2 I-0.121 J-0.045
G1 Z-0.8
G3 X13.217 Y4.179 Z-0.9 I-0.113 J-0.062
X13.156 Y4.219 Z-0.973 I-0.098 J-0.084
X13.059 Y4.21 Z-1 I-0.038 J-0.123
G1 Z-1.8 F180
G3 X13.036 Y4.196 Z-1.9 I0.092 J-0.178
X12.986 Y4.144 Z-1.973 I0.115 J-0.164
X12.952 Y4.051 Z-2 I0.166 J-0.112
X13.504 Y3.446 I0.551 J-0.051 F360
X14.055 Y4.051 I0 J0.554
G2 X14.05 Y4.163 I1.195 J0.111
G1 Y5.5
G3 X12.95 I-0.55 J0
G1 Y4.294
G2 X12.952 Y4.051 I-1.193 J-0.133
X12.855 Y3.92 I-0.155 J0.014
G3 X12.785 Y3.773 I0.044 J-0.111
X14.254 Y4.07 I0.719 J0.227
G2 X14.25 Y4.163 I0.996 J0.093
G1 Y5.5
G3 X12.75 I-0.75 J0
G1 Y4.283
G2 X12.753 Y4.069 I-0.993 J-0.121
G3 X12.785 Y3.773 I0.751 J-0.069
X12.847 Y3.698 Z-1.973 I0.123 J0.039
X12.918 Y3.683 Z-1.9 I0.061 J0.114
X12.944 Y3.688 Z-1.8 I-0.01 J0.129
G1 Z-1.2
G3 X12.965 Y3.696 Z-1.109 I-0.036 J0.124
X13.012 Y3.735 Z-1.038 I-0.057 J0.116
G1 X13.033 Y3.764 Z-1.017
X13.057 Y3.795 Z-1.004
X13.081 Y3.828 Z-1
X13.191 Y3.976
X13.222 Y4.019 Z-1.007
G3 X13.248 Y4.089 Z-1.047 I-0.104 J0.077
X13.24 Y4.14 Z-1.116 I-0.129 J0.006
X13.232 Y4.157 Z-1.2 I-0.121 J-0.045
G1 Z-1.8
G3 X13.217 Y4.179 Z-1.9 I-0.113 J-0.062
X13.156 Y4.219 Z-1.973 I-0.098 J-0.084
X13.059 Y4.21 Z-2 I-0.038 J-0.123
G1 Z-2.8 F180
G3 X13.036 Y4.196 Z-2.9 I0.092 J-0.178
X12.986 Y4.144 Z-2.973 I0.115 J-0.164
X12.952 Y4.051 Z-3 I0.166 J-0.112
X13.504 Y3.446 I0.551 J-0.051 F360
X14.055 Y4.051 I0 J0.554
G2 X14.05 Y4.163 I1.195 J0.111
G1 Y5.5
G3 X12.95 I-0.55 J0
G1 Y4.294
G2 X12.952 Y4.051 I-1.193 J-0.133
X12.855 Y3.92 I-0.155 J0.014
G3 X12.785 Y3.773 I0.044 J-0.111
X14.254 Y4.07 I0.719 J0.227
G2 X14.25 Y4.163 I0.996 J0.093
G1 Y5.5
G3 X12.75 I-0.75 J0
G1 Y4.283
G2 X12.753 Y4.069 I-0.993 J-0.121
G3 X12.785 Y3.773 I0.751 J-0.069
X12.847 Y3.698 Z-2.973 I0.123 J0.039
X12.918 Y3.683 Z-2.9 I0.061 J0.114
X12.944 Y3.688 Z-2.8 I-0.01 J0.129
G1 Z-2.2
G3 X12.965 Y3.696 Z-2.109 I-0.036 J0.124
X13.012 Y3.735 Z-2.038 I-0.057 J0.116
G1 X13.033 Y3.764 Z-2.017
X13.057 Y3.795 Z-2.004
X13.081 Y3.828 Z-2
X13.191 Y3.976
X13.222 Y4.019 Z-2.007
G3 X13.248 Y4.089 Z-2.047 I-0.104 J0.077
X13.24 Y4.14 Z-2.116 I-0.129 J0.006
X13.232 Y4.157 Z-2.2 I-0.121 J-0.045
G1 Z-2.8
G3 X13.217 Y4.179 Z-2.9 I-0.113 J-0.062
X13.156 Y4.219 Z-2.973 I-0.098 J-0.084
X13.059 Y4.21 Z-3 I-0.038 J-0.123
G1 Z-3.8 F180
G3 X13.036 Y4.196 Z-3.9 I0.092 J-0.178
X12.986 Y4.144 Z-3.973 I0.115 J-0.164
X12.952 Y4.051 Z-4 I0.166 J-0.112
X13.504 Y3.446 I0.551 J-0.051 F360
X14.055 Y4.051 I0 J0.554
G2 X14.05 Y4.163 I1.195 J0.111
G1 Y5.5
G3 X12.95 I-0.55 J0
G1 Y4.294
G2 X12.952 Y4.051 I-1.193 J-0.133
X12.855 Y3.92 I-0.155 J0.014
G3 X12.785 Y3.773 I0.044 J-0.111
X14.254 Y4.07 I0.719 J0.227
G2 X14.25 Y4.163 I0.996 J0.093
G1 Y5.5
G3 X12.75 I-0.75 J0
G1 Y4.283
G2 X12.753 Y4.069 I-0.993 J-0.121
G3 X12.785 Y3.773 I0.751 J-0.069
X12.847 Y3.698 Z-3.973 I0.123 J0.039
X12.918 Y3.683 Z-3.9 I0.061 J0.114
X12.944 Y3.688 Z-3.8 I-0.01 J0.129
G1 Z-3.2
G3 X12.965 Y3.696 Z-3.109 I-0.036 J0.124
X13.012 Y3.735 Z-3.038 I-0.057 J0.116
G1 X13.033 Y3.764 Z-3.017
X13.057 Y3.795 Z-3.004
X13.081 Y3.828 Z-3
X13.191 Y3.976
X13.222 Y4.019 Z-3.007
G3 X13.248 Y4.089 Z-3.047 I-0.104 J0.077
X13.24 Y4.14 Z-3.116 I-0.129 J0.006
X13.232 Y4.157 Z-3.2 I-0.121 J-0.045
G1 Z-3.8
G3 X13.217 Y4.179 Z-3.9 I-0.113 J-0.062
X13.156 Y4.219 Z-3.973 I-0.098 J-0.084
X13.059 Y4.21 Z-4 I-0.038 J-0.123
G1 Z-4.05 F180
G3 X13.036 Y4.196 Z-4.15 I0.092 J-0.178
X12.986 Y4.144 Z-4.223 I0.115 J-0.164
X12.952 Y4.051 Z-4.25 I0.166 J-0.112
X13.504 Y3.446 I0.551 J-0.051 F360
X14.055 Y4.051 I0 J0.554
G2 X14.05 Y4.163 I1.195 J0.111
G1 Y5.5
G3 X12.95 I-0.55 J0
G1 Y4.294
G2 X12.952 Y4.051 I-1.193 J-0.133
X12.855 Y3.92 I-0.155 J0.014
G3 X12.785 Y3.773 I0.044 J-0.111
X14.254 Y4.07 I0.719 J0.227
G2 X14.25 Y4.163 I0.996 J0.093
G1 Y5.5
G3 X12.75 I-0.75 J0
G1 Y4.283
G2 X12.753 Y4.069 I-0.993 J-0.121
G3 X12.785 Y3.773 I0.751 J-0.069
X12.837 Y3.689 Z-4.223 I0.191 J0.06 F720
X12.898 Y3.649 Z-4.15 I0.138 J0.144
X12.923 Y3.64 Z-4.05 I0.078 J0.184
G0 Z15

M9
M30
