(SOFTMOUNT)
(T5  D=2 CR=0 - ZMIN=-4.25 - FLAT END MILL)
G90 G94 G91.1 G40 G49 G17
G21

(2D CONTOUR1)
M5
M9
T5
(SPIRAL)
S15000 M3
G54
M8
G0 X13.7 Y-1.6
G43 Z15 H1
Z5
G1 Z2 F180
Z-0.8
Y-1.593 Z-0.852
Y-1.573 Z-0.9
Y-1.541 Z-0.941
Y-1.5 Z-0.973
Y-1.452 Z-0.993
Y-1.4 Z-1
Y-1.2
G3 X13.5 Y-1 I-0.2 J0
G2 Y28 I0 J14.5 F360
Y-1 I0 J-14.5
G3 X13.3 Y-1.2 I0 J-0.2 F720
G1 Y-1.4
Y-1.452 Z-0.993
Y-1.5 Z-0.973
Y-1.541 Z-0.941
Y-1.573 Z-0.9
Y-1.593 Z-0.852
Y-1.6 Z-0.8
X13.7
Z-1.8 F180
Y-1.593 Z-1.852
Y-1.573 Z-1.9
Y-1.541 Z-1.941
Y-1.5 Z-1.973
Y-1.452 Z-1.993
Y-1.4 Z-2
Y-1.2
G3 X13.5 Y-1 I-0.2 J0
G2 Y28 I0 J14.5 F360
Y-1 I0 J-14.5
G3 X13.3 Y-1.2 I0 J-0.2 F720
G1 Y-1.4
Y-1.452 Z-1.993
Y-1.5 Z-1.973
Y-1.541 Z-1.941
Y-1.573 Z-1.9
Y-1.593 Z-1.852
Y-1.6 Z-1.8
X13.7
Z-2.8 F180
Y-1.593 Z-2.852
Y-1.573 Z-2.9
Y-1.541 Z-2.941
Y-1.5 Z-2.973
Y-1.452 Z-2.993
Y-1.4 Z-3
Y-1.2
G3 X13.5 Y-1 I-0.2 J0
G2 Y28 I0 J14.5 F360
Y-1 I0 J-14.5
G3 X13.3 Y-1.2 I0 J-0.2 F720
G1 Y-1.4
Y-1.452 Z-2.993
Y-1.5 Z-2.973
Y-1.541 Z-2.941
Y-1.573 Z-2.9
Y-1.593 Z-2.852
Y-1.6 Z-2.8
X13.7
Z-3.8 F180
Y-1.593 Z-3.852
Y-1.573 Z-3.9
Y-1.541 Z-3.941
Y-1.5 Z-3.973
Y-1.452 Z-3.993
Y-1.4 Z-4
Y-1.2
G3 X13.5 Y-1 I-0.2 J0
G2 Y28 I0 J14.5 F360
Y-1 I0 J-14.5
G3 X13.3 Y-1.2 I0 J-0.2 F720
G1 Y-1.4
Y-1.452 Z-3.993
Y-1.5 Z-3.973
Y-1.541 Z-3.941
Y-1.573 Z-3.9
Y-1.593 Z-3.852
Y-1.6 Z-3.8
X13.7
Z-4.05 F180
Y-1.593 Z-4.102
Y-1.573 Z-4.15
Y-1.541 Z-4.191
Y-1.5 Z-4.223
Y-1.452 Z-4.243
Y-1.4 Z-4.25
Y-1.2
G3 X13.5 Y-1 I-0.2 J0
G2 Y28 I0 J14.5 F360
Y-1 I0 J-14.5
G3 X13.3 Y-1.2 I0 J-0.2 F720
G1 Y-1.4
Y-1.452 Z-4.243
Y-1.5 Z-4.223
Y-1.541 Z-4.191
Y-1.573 Z-4.15
Y-1.593 Z-4.102
Y-1.6 Z-4.05
G0 Z15

M9
M30
