(FRAME)
(T11  D=2 CR=0 - ZMIN=-4.58 - FLAT END MILL)
G90 G94 G91.1 G40 G49 G17
G21

(INNER OUTLINES REMAINING)
M5
M9
T11
(DIAMOND OR SPIRAL)
S16000 M3
G54
M8
G0 X135.792 Y52.37
G43 Z15 H1
Z2
G1 Z-0.8 F60
X135.787 Y52.366 Z-0.852
X135.773 Y52.351 Z-0.9
X135.75 Y52.329 Z-0.941
X135.721 Y52.3 Z-0.973
X135.687 Y52.266 Z-0.993
X135.65 Y52.229 Z-1
X135.509 Y52.088 F120
G3 Y51.805 I0.141 J-0.141
G1 X149.605 Y37.708 F240
G2 X158 Y36.916 I2.895 J-14.208
G1 Y140.084
G2 X149.605 Y139.292 I-5.5 J13.416
G1 X108 Y97.686
Y79.314
X135.509 Y51.805
G3 X135.792 I0.141 J0.141 F480
G1 X135.933 Y51.946
X135.97 Y51.983 Z-0.993
X136.004 Y52.017 Z-0.973
X136.033 Y52.046 Z-0.941
X136.056 Y52.069 Z-0.9
X136.07 Y52.083 Z-0.852
X136.075 Y52.088 Z-0.8
X135.792 Y52.37
Z-1.8 F60
X135.787 Y52.366 Z-1.852
X135.773 Y52.351 Z-1.9
X135.75 Y52.329 Z-1.941
X135.721 Y52.3 Z-1.973
X135.687 Y52.266 Z-1.993
X135.65 Y52.229 Z-2
X135.509 Y52.088 F120
G3 Y51.805 I0.141 J-0.141
G1 X149.605 Y37.708 F240
G2 X158 Y36.916 I2.895 J-14.208
G1 Y140.084
G2 X149.605 Y139.292 I-5.5 J13.416
G1 X108 Y97.686
Y79.314
X135.509 Y51.805
G3 X135.792 I0.141 J0.141 F480
G1 X135.933 Y51.946
X135.97 Y51.983 Z-1.993
X136.004 Y52.017 Z-1.973
X136.033 Y52.046 Z-1.941
X136.056 Y52.069 Z-1.9
X136.07 Y52.083 Z-1.852
X136.075 Y52.088 Z-1.8
X135.792 Y52.37
Z-2.8 F60
X135.787 Y52.366 Z-2.852
X135.773 Y52.351 Z-2.9
X135.75 Y52.329 Z-2.941
X135.721 Y52.3 Z-2.973
X135.687 Y52.266 Z-2.993
X135.65 Y52.229 Z-3
X135.509 Y52.088 F120
G3 Y51.805 I0.141 J-0.141
G1 X149.605 Y37.708 F240
G2 X158 Y36.916 I2.895 J-14.208
G1 Y140.084
G2 X149.605 Y139.292 I-5.5 J13.416
G1 X108 Y97.686
Y79.314
X135.509 Y51.805
G3 X135.792 I0.141 J0.141 F480
G1 X135.933 Y51.946
X135.97 Y51.983 Z-2.993
X136.004 Y52.017 Z-2.973
X136.033 Y52.046 Z-2.941
X136.056 Y52.069 Z-2.9
X136.07 Y52.083 Z-2.852
X136.075 Y52.088 Z-2.8
X135.792 Y52.37
Z-3.8 F60
X135.787 Y52.366 Z-3.852
X135.773 Y52.351 Z-3.9
X135.75 Y52.329 Z-3.941
X135.721 Y52.3 Z-3.973
X135.687 Y52.266 Z-3.993
X135.65 Y52.229 Z-4
X135.509 Y52.088 F120
G3 Y51.805 I0.141 J-0.141
G1 X149.605 Y37.708 F240
G2 X158 Y36.916 I2.895 J-14.208
G1 Y140.084
G2 X149.605 Y139.292 I-5.5 J13.416
G1 X108 Y97.686
Y79.314
X135.509 Y51.805
G3 X135.792 I0.141 J0.141 F480
G1 X135.933 Y51.946
X135.97 Y51.983 Z-3.993
X136.004 Y52.017 Z-3.973
X136.033 Y52.046 Z-3.941
X136.056 Y52.069 Z-3.9
X136.07 Y52.083 Z-3.852
X136.075 Y52.088 Z-3.8
X135.792 Y52.37
Z-4.38 F60
X135.787 Y52.366 Z-4.432
X135.773 Y52.351 Z-4.48
X135.75 Y52.329 Z-4.521
X135.721 Y52.3 Z-4.553
X135.687 Y52.266 Z-4.573
X135.65 Y52.229 Z-4.58
X135.509 Y52.088 F120
G3 Y51.805 I0.141 J-0.141
G1 X149.605 Y37.708 F240
G2 X158 Y36.916 I2.895 J-14.208
G1 Y140.084
G2 X149.605 Y139.292 I-5.5 J13.416
G1 X108 Y97.686
Y79.314
X135.509 Y51.805
G3 X135.792 I0.141 J0.141 F480
G1 X135.933 Y51.946
X135.97 Y51.983 Z-4.573
X136.004 Y52.017 Z-4.553
X136.033 Y52.046 Z-4.521
X136.056 Y52.069 Z-4.48
X136.07 Y52.083 Z-4.432
X136.075 Y52.088 Z-4.38
G0 Z5
X66.4 Y121.126
Z2
G1 Z-0.8 F60
X66.407 Z-0.852
X66.427 Z-0.9
X66.459 Z-0.941
X66.5 Z-0.973
X66.548 Z-0.993
X66.6 Z-1
X66.8 F120
G3 X67 Y121.326 I0 J0.2
G1 Y123.7 F240
G2 X72 Y128.7 I5 J0
G1 X94.45
Y130.5
G2 X95.45 Y131.5 I1 J0
G1 X112.2
G2 X113.2 Y130.5 I0 J-1
G1 Y125.514
X138.292 Y150.605
G2 X139.084 Y159 I14.208 J2.895
G1 X35.916
G2 X36.708 Y150.605 I-13.417 J-5.5
G1 X67 Y120.314
Y121.326
G3 X66.8 Y121.526 I-0.2 J0 F480
G1 X66.6
X66.548 Z-0.993
X66.5 Z-0.973
X66.459 Z-0.941
X66.427 Z-0.9
X66.407 Z-0.852
X66.4 Z-0.8
Y121.126
Z-1.8 F60
X66.407 Z-1.852
X66.427 Z-1.9
X66.459 Z-1.941
X66.5 Z-1.973
X66.548 Z-1.993
X66.6 Z-2
X66.8 F120
G3 X67 Y121.326 I0 J0.2
G1 Y123.7 F240
G2 X72 Y128.7 I5 J0
G1 X94.45
Y130.5
G2 X95.45 Y131.5 I1 J0
G1 X112.2
G2 X113.2 Y130.5 I0 J-1
G1 Y125.514
X138.292 Y150.605
G2 X139.084 Y159 I14.208 J2.895
G1 X35.916
G2 X36.708 Y150.605 I-13.417 J-5.5
G1 X67 Y120.314
Y121.326
G3 X66.8 Y121.526 I-0.2 J0 F480
G1 X66.6
X66.548 Z-1.993
X66.5 Z-1.973
X66.459 Z-1.941
X66.427 Z-1.9
X66.407 Z-1.852
X66.4 Z-1.8
Y121.126
Z-2.8 F60
X66.407 Z-2.852
X66.427 Z-2.9
X66.459 Z-2.941
X66.5 Z-2.973
X66.548 Z-2.993
X66.6 Z-3
X66.8 F120
G3 X67 Y121.326 I0 J0.2
G1 Y123.7 F240
G2 X72 Y128.7 I5 J0
G1 X94.45
Y130.5
G2 X95.45 Y131.5 I1 J0
G1 X112.2
G2 X113.2 Y130.5 I0 J-1
G1 Y125.514
X138.292 Y150.605
G2 X139.084 Y159 I14.208 J2.895
G1 X35.916
G2 X36.708 Y150.605 I-13.417 J-5.5
G1 X67 Y120.314
Y121.326
G3 X66.8 Y121.526 I-0.2 J0 F480
G1 X66.6
X66.548 Z-2.993
X66.5 Z-2.973
X66.459 Z-2.941
X66.427 Z-2.9
X66.407 Z-2.852
X66.4 Z-2.8
Y121.126
Z-3.8 F60
X66.407 Z-3.852
X66.427 Z-3.9
X66.459 Z-3.941
X66.5 Z-3.973
X66.548 Z-3.993
X66.6 Z-4
X66.8 F120
G3 X67 Y121.326 I0 J0.2
G1 Y123.7 F240
G2 X72 Y128.7 I5 J0
G1 X94.45
Y130.5
G2 X95.45 Y131.5 I1 J0
G1 X112.2
G2 X113.2 Y130.5 I0 J-1
G1 Y125.514
X138.292 Y150.605
G2 X139.084 Y159 I14.208 J2.895
G1 X35.916
G2 X36.708 Y150.605 I-13.417 J-5.5
G1 X67 Y120.314
Y121.326
G3 X66.8 Y121.526 I-0.2 J0 F480
G1 X66.6
X66.548 Z-3.993
X66.5 Z-3.973
X66.459 Z-3.941
X66.427 Z-3.9
X66.407 Z-3.852
X66.4 Z-3.8
Y121.126
Z-4.38 F60
X66.407 Z-4.432
X66.427 Z-4.48
X66.459 Z-4.521
X66.5 Z-4.553
X66.548 Z-4.573
X66.6 Z-4.58
X66.8 F120
G3 X67 Y121.326 I0 J0.2
G1 Y123.7 F240
G2 X72 Y128.7 I5 J0
G1 X94.45
Y130.5
G2 X95.45 Y131.5 I1 J0
G1 X112.2
G2 X113.2 Y130.5 I0 J-1
G1 Y125.514
X138.292 Y150.605
G2 X139.084 Y159 I14.208 J2.895
G1 X35.916
G2 X36.708 Y150.605 I-13.417 J-5.5
G1 X67 Y120.314
Y121.326
G3 X66.8 Y121.526 I-0.2 J0 F480
G1 X66.6
X66.548 Z-4.573
X66.5 Z-4.553
X66.459 Z-4.521
X66.427 Z-4.48
X66.407 Z-4.432
X66.4 Z-4.38
G0 Z15

(OUTER OUTLINE)
M8
G0 X82.95 Y1.4
Z15
Z2
G1 Z-0.8 F60
Y1.407 Z-0.852
Y1.427 Z-0.9
Y1.459 Z-0.941
Y1.5 Z-0.973
Y1.548 Z-0.993
Y1.6 Z-1
Y1.8 F120
G3 X82.75 Y2 I-0.2 J0
G2 X79.25 Y5.5 I0 J3.5 F240
G1 Y9
X42.571
G2 X41.571 Y8 I-1 J0
G1 X39.571
G2 X38.571 Y9 I0 J1
G1 X36.991
G2 X8 Y37.991 I-14.491 J14.5
G1 Y139.009
G2 X8.009 Y168 I14.5 J14.491
X36.991 I14.491 J-14.5
G1 X138.009
G2 X167 Y139.009 I14.491 J-14.5
G1 Y37.992
G2 X138.009 Y9 I-14.5 J-14.492
G1 X136.429
G2 X135.429 Y8 I-1 J0
G1 X133.429
G2 X132.429 Y9 I0 J1
G1 X95.75
Y5.5
G2 X92.25 Y2 I-3.5 J0
G1 X82.75
G3 X82.55 Y1.8 I0 J-0.2 F480
G1 Y1.6
Y1.548 Z-0.993
Y1.5 Z-0.973
Y1.459 Z-0.941
Y1.427 Z-0.9
Y1.407 Z-0.852
Y1.4 Z-0.8
X82.95
Z-1.8 F60
Y1.407 Z-1.852
Y1.427 Z-1.9
Y1.459 Z-1.941
Y1.5 Z-1.973
Y1.548 Z-1.993
Y1.6 Z-2
Y1.8 F120
G3 X82.75 Y2 I-0.2 J0
G2 X79.25 Y5.5 I0 J3.5 F240
G1 Y9
X42.571
G2 X41.571 Y8 I-1 J0
G1 X39.571
G2 X38.571 Y9 I0 J1
G1 X36.991
G2 X8 Y37.991 I-14.491 J14.5
G1 Y139.009
G2 X8.009 Y168 I14.5 J14.491
X36.991 I14.491 J-14.5
G1 X138.009
G2 X167 Y139.009 I14.491 J-14.5
G1 Y37.992
G2 X138.009 Y9 I-14.5 J-14.492
G1 X136.429
G2 X135.429 Y8 I-1 J0
G1 X133.429
G2 X132.429 Y9 I0 J1
G1 X95.75
Y5.5
G2 X92.25 Y2 I-3.5 J0
G1 X82.75
G3 X82.55 Y1.8 I0 J-0.2 F480
G1 Y1.6
Y1.548 Z-1.993
Y1.5 Z-1.973
Y1.459 Z-1.941
Y1.427 Z-1.9
Y1.407 Z-1.852
Y1.4 Z-1.8
X82.95
Z-2.8 F60
Y1.407 Z-2.852
Y1.427 Z-2.9
Y1.459 Z-2.941
Y1.5 Z-2.973
Y1.548 Z-2.993
Y1.6 Z-3
Y1.8 F120
G3 X82.75 Y2 I-0.2 J0
G2 X79.25 Y5.5 I0 J3.5 F240
G1 Y9
X42.571
G2 X41.571 Y8 I-1 J0
G1 X39.571
G2 X38.571 Y9 I0 J1
G1 X36.991
G2 X8 Y37.991 I-14.491 J14.5
G1 Y139.009
G2 X8.009 Y168 I14.5 J14.491
X36.991 I14.491 J-14.5
G1 X138.009
G2 X167 Y139.009 I14.491 J-14.5
G1 Y37.992
G2 X138.009 Y9 I-14.5 J-14.492
G1 X136.429
G2 X135.429 Y8 I-1 J0
G1 X133.429
G2 X132.429 Y9 I0 J1
G1 X95.75
Y5.5
G2 X92.25 Y2 I-3.5 J0
G1 X82.75
G3 X82.55 Y1.8 I0 J-0.2 F480
G1 Y1.6
Y1.548 Z-2.993
Y1.5 Z-2.973
Y1.459 Z-2.941
Y1.427 Z-2.9
Y1.407 Z-2.852
Y1.4 Z-2.8
X82.95
Z-3.8 F60
Y1.407 Z-3.852
Y1.427 Z-3.9
Y1.459 Z-3.941
Y1.5 Z-3.973
Y1.548 Z-3.993
Y1.6 Z-4
Y1.8 F120
G3 X82.75 Y2 I-0.2 J0
G2 X79.25 Y5.5 I0 J3.5 F240
G1 Y9
X42.571
G2 X41.571 Y8 I-1 J0
G1 X39.571
G2 X38.571 Y9 I0 J1
G1 X36.991
G2 X8 Y37.991 I-14.491 J14.5
G1 Y139.009
G2 X8.009 Y168 I14.5 J14.491
X36.991 I14.491 J-14.5
G1 X138.009
G2 X167 Y139.009 I14.491 J-14.5
G1 Y37.992
G2 X138.009 Y9 I-14.5 J-14.492
G1 X136.429
G2 X135.429 Y8 I-1 J0
G1 X133.429
G2 X132.429 Y9 I0 J1
G1 X95.75
Y5.5
G2 X92.25 Y2 I-3.5 J0
G1 X82.75
G3 X82.55 Y1.8 I0 J-0.2 F480
G1 Y1.6
Y1.548 Z-3.993
Y1.5 Z-3.973
Y1.459 Z-3.941
Y1.427 Z-3.9
Y1.407 Z-3.852
Y1.4 Z-3.8
X82.95
Z-4.38 F60
Y1.407 Z-4.432
Y1.427 Z-4.48
Y1.459 Z-4.521
Y1.5 Z-4.553
Y1.548 Z-4.573
Y1.6 Z-4.58
Y1.8 F120
G3 X82.75 Y2 I-0.2 J0
G2 X79.25 Y5.5 I0 J3.5 F240
G1 Y9
X42.571
G2 X41.571 Y8 I-1 J0
G1 X39.571
G2 X38.571 Y9 I0 J1
G1 X36.991
G2 X8 Y37.991 I-14.491 J14.5
G1 Y139.009
G2 X8.009 Y168 I14.5 J14.491
X36.991 I14.491 J-14.5
G1 X138.009
G2 X167 Y139.009 I14.491 J-14.5
G1 Y37.992
G2 X138.009 Y9 I-14.5 J-14.492
G1 X136.429
G2 X135.429 Y8 I-1 J0
G1 X133.429
G2 X132.429 Y9 I0 J1
G1 X95.75
Y5.5
G2 X92.25 Y2 I-3.5 J0
G1 X82.75
G3 X82.55 Y1.8 I0 J-0.2 F480
G1 Y1.6
Y1.548 Z-4.573
Y1.5 Z-4.553
Y1.459 Z-4.521
Y1.427 Z-4.48
Y1.407 Z-4.432
Y1.4 Z-4.38
G0 Z15

M9
M30
