(FRAME)
(T11  D=2 CR=0 - ZMIN=-4.58 - FLAT END MILL)
G90 G94 G91.1 G40 G49 G17
G21

(OUTER OUTLINE)
M5
M9
T11
(DIAMOND OR SPIRAL)
S16000 M3
G54
M8
G0 X82.95 Y1.4
G43 Z15 H1
Z2
G1 Z-0.8 F60
Y1.407 Z-0.852
Y1.427 Z-0.9
Y1.459 Z-0.941
Y1.5 Z-0.973
Y1.548 Z-0.993
Y1.6 Z-1
Y1.8 F120
G3 X82.75 Y2 I-0.2 J0
G2 X79.25 Y5.5 I0 J3.5 F240
G1 Y9
X42.571
G2 X41.571 Y8 I-1 J0
G1 X39.571
G2 X38.571 Y9 I0 J1
G1 X36.991
G2 X8 Y37.991 I-14.491 J14.5
G1 Y139.009
G2 X8.009 Y168 I14.5 J14.491
X36.991 I14.491 J-14.5
G1 X138.009
G2 X167 Y139.009 I14.491 J-14.5
G1 Y37.992
G2 X138.009 Y9 I-14.5 J-14.492
G1 X136.429
G2 X135.429 Y8 I-1 J0
G1 X133.429
G2 X132.429 Y9 I0 J1
G1 X95.75
Y5.5
G2 X92.25 Y2 I-3.5 J0
G1 X82.75
G3 X82.55 Y1.8 I0 J-0.2 F480
G1 Y1.6
Y1.548 Z-0.993
Y1.5 Z-0.973
Y1.459 Z-0.941
Y1.427 Z-0.9
Y1.407 Z-0.852
Y1.4 Z-0.8
X82.95
Z-1.8 F60
Y1.407 Z-1.852
Y1.427 Z-1.9
Y1.459 Z-1.941
Y1.5 Z-1.973
Y1.548 Z-1.993
Y1.6 Z-2
Y1.8 F120
G3 X82.75 Y2 I-0.2 J0
G2 X79.25 Y5.5 I0 J3.5 F240
G1 Y9
X42.571
G2 X41.571 Y8 I-1 J0
G1 X39.571
G2 X38.571 Y9 I0 J1
G1 X36.991
G2 X8 Y37.991 I-14.491 J14.5
G1 Y139.009
G2 X8.009 Y168 I14.5 J14.491
X36.991 I14.491 J-14.5
G1 X138.009
G2 X167 Y139.009 I14.491 J-14.5
G1 Y37.992
G2 X138.009 Y9 I-14.5 J-14.492
G1 X136.429
G2 X135.429 Y8 I-1 J0
G1 X133.429
G2 X132.429 Y9 I0 J1
G1 X95.75
Y5.5
G2 X92.25 Y2 I-3.5 J0
G1 X82.75
G3 X82.55 Y1.8 I0 J-0.2 F480
G1 Y1.6
Y1.548 Z-1.993
Y1.5 Z-1.973
Y1.459 Z-1.941
Y1.427 Z-1.9
Y1.407 Z-1.852
Y1.4 Z-1.8
X82.95
Z-2.8 F60
Y1.407 Z-2.852
Y1.427 Z-2.9
Y1.459 Z-2.941
Y1.5 Z-2.973
Y1.548 Z-2.993
Y1.6 Z-3
Y1.8 F120
G3 X82.75 Y2 I-0.2 J0
G2 X79.25 Y5.5 I0 J3.5 F240
G1 Y9
X42.571
G2 X41.571 Y8 I-1 J0
G1 X39.571
G2 X38.571 Y9 I0 J1
G1 X36.991
G2 X8 Y37.991 I-14.491 J14.5
G1 Y139.009
G2 X8.009 Y168 I14.5 J14.491
X36.991 I14.491 J-14.5
G1 X138.009
G2 X167 Y139.009 I14.491 J-14.5
G1 Y37.992
G2 X138.009 Y9 I-14.5 J-14.492
G1 X136.429
G2 X135.429 Y8 I-1 J0
G1 X133.429
G2 X132.429 Y9 I0 J1
G1 X95.75
Y5.5
G2 X92.25 Y2 I-3.5 J0
G1 X82.75
G3 X82.55 Y1.8 I0 J-0.2 F480
G1 Y1.6
Y1.548 Z-2.993
Y1.5 Z-2.973
Y1.459 Z-2.941
Y1.427 Z-2.9
Y1.407 Z-2.852
Y1.4 Z-2.8
X82.95
Z-3.8 F60
Y1.407 Z-3.852
Y1.427 Z-3.9
Y1.459 Z-3.941
Y1.5 Z-3.973
Y1.548 Z-3.993
Y1.6 Z-4
Y1.8 F120
G3 X82.75 Y2 I-0.2 J0
G2 X79.25 Y5.5 I0 J3.5 F240
G1 Y9
X42.571
G2 X41.571 Y8 I-1 J0
G1 X39.571
G2 X38.571 Y9 I0 J1
G1 X36.991
G2 X8 Y37.991 I-14.491 J14.5
G1 Y139.009
G2 X8.009 Y168 I14.5 J14.491
X36.991 I14.491 J-14.5
G1 X138.009
G2 X167 Y139.009 I14.491 J-14.5
G1 Y37.992
G2 X138.009 Y9 I-14.5 J-14.492
G1 X136.429
G2 X135.429 Y8 I-1 J0
G1 X133.429
G2 X132.429 Y9 I0 J1
G1 X95.75
Y5.5
G2 X92.25 Y2 I-3.5 J0
G1 X82.75
G3 X82.55 Y1.8 I0 J-0.2 F480
G1 Y1.6
Y1.548 Z-3.993
Y1.5 Z-3.973
Y1.459 Z-3.941
Y1.427 Z-3.9
Y1.407 Z-3.852
Y1.4 Z-3.8
X82.95
Z-4.38 F60
Y1.407 Z-4.432
Y1.427 Z-4.48
Y1.459 Z-4.521
Y1.5 Z-4.553
Y1.548 Z-4.573
Y1.6 Z-4.58
Y1.8 F120
G3 X82.75 Y2 I-0.2 J0
G2 X79.25 Y5.5 I0 J3.5 F240
G1 Y9
X42.571
G2 X41.571 Y8 I-1 J0
G1 X39.571
G2 X38.571 Y9 I0 J1
G1 X36.991
G2 X8 Y37.991 I-14.491 J14.5
G1 Y139.009
G2 X8.009 Y168 I14.5 J14.491
X36.991 I14.491 J-14.5
G1 X138.009
G2 X167 Y139.009 I14.491 J-14.5
G1 Y37.992
G2 X138.009 Y9 I-14.5 J-14.492
G1 X136.429
G2 X135.429 Y8 I-1 J0
G1 X133.429
G2 X132.429 Y9 I0 J1
G1 X95.75
Y5.5
G2 X92.25 Y2 I-3.5 J0
G1 X82.75
G3 X82.55 Y1.8 I0 J-0.2 F480
G1 Y1.6
Y1.548 Z-4.573
Y1.5 Z-4.553
Y1.459 Z-4.521
Y1.427 Z-4.48
Y1.407 Z-4.432
Y1.4 Z-4.38
G0 Z15

M9
M30
