(FRAME)
(T11  D=2 CR=0 - ZMIN=-4.58 - FLAT END MILL)
G90 G94 G91.1 G40 G49 G17
G21

(HOLES)
M5
M9
T11
(DIAMOND OR SPIRAL)
S16000 M3
G54
M8
G0 X23.158 Y15.332
G43 Z15 H1
Z2
G1 Z-0.8 F60
G3 X23.18 Y15.348 Z-0.9 I-0.108 J0.168
X23.226 Y15.404 Z-0.973 I-0.13 J0.152
X23.25 Y15.5 Z-1 I-0.176 J0.096
X21.75 I-0.75 J0 F240
G1 Y14
G3 X23.25 I0.75 J0
G1 Y15.5
G3 X23.16 Y15.523 I-0.048 J0
G1 X23.09 Y15.395
G3 X23.158 Y15.332 I0.042 J-0.023
G1 Z-1.8 F60
G3 X23.18 Y15.348 Z-1.9 I-0.108 J0.168
X23.226 Y15.404 Z-1.973 I-0.13 J0.152
X23.25 Y15.5 Z-2 I-0.176 J0.096
X21.75 I-0.75 J0 F240
G1 Y14
G3 X23.25 I0.75 J0
G1 Y15.5
G3 X23.16 Y15.523 I-0.048 J0
G1 X23.09 Y15.395
G3 X23.158 Y15.332 I0.042 J-0.023
G1 Z-2.8 F60
G3 X23.18 Y15.348 Z-2.9 I-0.108 J0.168
X23.226 Y15.404 Z-2.973 I-0.13 J0.152
X23.25 Y15.5 Z-3 I-0.176 J0.096
X21.75 I-0.75 J0 F240
G1 Y14
G3 X23.25 I0.75 J0
G1 Y15.5
G3 X23.16 Y15.523 I-0.048 J0
G1 X23.09 Y15.395
G3 X23.158 Y15.332 I0.042 J-0.023
G1 Z-3.8 F60
G3 X23.18 Y15.348 Z-3.9 I-0.108 J0.168
X23.226 Y15.404 Z-3.973 I-0.13 J0.152
X23.25 Y15.5 Z-4 I-0.176 J0.096
X21.75 I-0.75 J0 F240
G1 Y14
G3 X23.25 I0.75 J0
G1 Y15.5
G3 X23.16 Y15.523 I-0.048 J0
G1 X23.09 Y15.395
G3 X23.158 Y15.332 I0.042 J-0.023
G1 Z-4.38 F60
G3 X23.18 Y15.348 Z-4.48 I-0.108 J0.168
X23.226 Y15.404 Z-4.553 I-0.13 J0.152
X23.25 Y15.5 Z-4.58 I-0.176 J0.096
X21.75 I-0.75 J0 F240
G1 Y14
G3 X23.25 I0.75 J0
G1 Y15.5
G3 X23.226 Y15.596 Z-4.553 I-0.2 J0 F480
X23.18 Y15.652 Z-4.48 I-0.176 J-0.096
X23.158 Y15.668 Z-4.38 I-0.13 J-0.152
G0 Z5
X13.168 Y24.158
Z2
G1 Z-0.8 F60
G3 X13.152 Y24.18 Z-0.9 I-0.168 J-0.108
X13.096 Y24.226 Z-0.973 I-0.152 J-0.13
X13 Y24.25 Z-1 I-0.096 J-0.176
Y22.75 I0 J-0.75 F240
G1 X14.5
G3 Y24.25 I0 J0.75
G1 X13
G3 X12.977 Y24.16 I0 J-0.048
G1 X13.105 Y24.09
G3 X13.168 Y24.158 I0.023 J0.042
G1 Z-1.8 F60
G3 X13.152 Y24.18 Z-1.9 I-0.168 J-0.108
X13.096 Y24.226 Z-1.973 I-0.152 J-0.13
X13 Y24.25 Z-2 I-0.096 J-0.176
Y22.75 I0 J-0.75 F240
G1 X14.5
G3 Y24.25 I0 J0.75
G1 X13
G3 X12.977 Y24.16 I0 J-0.048
G1 X13.105 Y24.09
G3 X13.168 Y24.158 I0.023 J0.042
G1 Z-2.8 F60
G3 X13.152 Y24.18 Z-2.9 I-0.168 J-0.108
X13.096 Y24.226 Z-2.973 I-0.152 J-0.13
X13 Y24.25 Z-3 I-0.096 J-0.176
Y22.75 I0 J-0.75 F240
G1 X14.5
G3 Y24.25 I0 J0.75
G1 X13
G3 X12.977 Y24.16 I0 J-0.048
G1 X13.105 Y24.09
G3 X13.168 Y24.158 I0.023 J0.042
G1 Z-3.8 F60
G3 X13.152 Y24.18 Z-3.9 I-0.168 J-0.108
X13.096 Y24.226 Z-3.973 I-0.152 J-0.13
X13 Y24.25 Z-4 I-0.096 J-0.176
Y22.75 I0 J-0.75 F240
G1 X14.5
G3 Y24.25 I0 J0.75
G1 X13
G3 X12.977 Y24.16 I0 J-0.048
G1 X13.105 Y24.09
G3 X13.168 Y24.158 I0.023 J0.042
G1 Z-4.38 F60
G3 X13.152 Y24.18 Z-4.48 I-0.168 J-0.108
X13.096 Y24.226 Z-4.553 I-0.152 J-0.13
X13 Y24.25 Z-4.58 I-0.096 J-0.176
Y22.75 I0 J-0.75 F240
G1 X14.5
G3 Y24.25 I0 J0.75
G1 X13
G3 X12.904 Y24.226 Z-4.553 I0 J-0.2 F480
X12.848 Y24.18 Z-4.48 I0.096 J-0.176
X12.832 Y24.158 Z-4.38 I0.152 J-0.13
G0 Z5
X23.158 Y31.332
Z2
G1 Z-0.8 F60
G3 X23.18 Y31.348 Z-0.9 I-0.108 J0.168
X23.226 Y31.404 Z-0.973 I-0.13 J0.152
X23.25 Y31.5 Z-1 I-0.176 J0.096
G1 Y33 F240
G3 X21.75 I-0.75 J0
G1 Y31.5
G3 X23.25 I0.75 J0
X23.16 Y31.523 I-0.048 J0
G1 X23.09 Y31.395
G3 X23.158 Y31.332 I0.042 J-0.023
G1 Z-1.8 F60
G3 X23.18 Y31.348 Z-1.9 I-0.108 J0.168
X23.226 Y31.404 Z-1.973 I-0.13 J0.152
X23.25 Y31.5 Z-2 I-0.176 J0.096
G1 Y33 F240
G3 X21.75 I-0.75 J0
G1 Y31.5
G3 X23.25 I0.75 J0
X23.16 Y31.523 I-0.048 J0
G1 X23.09 Y31.395
G3 X23.158 Y31.332 I0.042 J-0.023
G1 Z-2.8 F60
G3 X23.18 Y31.348 Z-2.9 I-0.108 J0.168
X23.226 Y31.404 Z-2.973 I-0.13 J0.152
X23.25 Y31.5 Z-3 I-0.176 J0.096
G1 Y33 F240
G3 X21.75 I-0.75 J0
G1 Y31.5
G3 X23.25 I0.75 J0
X23.16 Y31.523 I-0.048 J0
G1 X23.09 Y31.395
G3 X23.158 Y31.332 I0.042 J-0.023
G1 Z-3.8 F60
G3 X23.18 Y31.348 Z-3.9 I-0.108 J0.168
X23.226 Y31.404 Z-3.973 I-0.13 J0.152
X23.25 Y31.5 Z-4 I-0.176 J0.096
G1 Y33 F240
G3 X21.75 I-0.75 J0
G1 Y31.5
G3 X23.25 I0.75 J0
X23.16 Y31.523 I-0.048 J0
G1 X23.09 Y31.395
G3 X23.158 Y31.332 I0.042 J-0.023
G1 Z-4.38 F60
G3 X23.18 Y31.348 Z-4.48 I-0.108 J0.168
X23.226 Y31.404 Z-4.553 I-0.13 J0.152
X23.25 Y31.5 Z-4.58 I-0.176 J0.096
G1 Y33 F240
G3 X21.75 I-0.75 J0
G1 Y31.5
G3 X23.25 I0.75 J0
X23.226 Y31.596 Z-4.553 I-0.2 J0 F480
X23.18 Y31.652 Z-4.48 I-0.176 J-0.096
X23.158 Y31.668 Z-4.38 I-0.13 J-0.152
G0 Z5
X32.168 Y24.158
Z2
G1 Z-0.8 F60
G3 X32.152 Y24.18 Z-0.9 I-0.168 J-0.108
X32.096 Y24.226 Z-0.973 I-0.152 J-0.13
X32 Y24.25 Z-1 I-0.096 J-0.176
G1 X30.5 F240
G3 Y22.75 I0 J-0.75
G1 X32
G3 Y24.25 I0 J0.75
X31.977 Y24.16 I0 J-0.048
G1 X32.105 Y24.09
G3 X32.168 Y24.158 I0.023 J0.042
G1 Z-1.8 F60
G3 X32.152 Y24.18 Z-1.9 I-0.168 J-0.108
X32.096 Y24.226 Z-1.973 I-0.152 J-0.13
X32 Y24.25 Z-2 I-0.096 J-0.176
G1 X30.5 F240
G3 Y22.75 I0 J-0.75
G1 X32
G3 Y24.25 I0 J0.75
X31.977 Y24.16 I0 J-0.048
G1 X32.105 Y24.09
G3 X32.168 Y24.158 I0.023 J0.042
G1 Z-2.8 F60
G3 X32.152 Y24.18 Z-2.9 I-0.168 J-0.108
X32.096 Y24.226 Z-2.973 I-0.152 J-0.13
X32 Y24.25 Z-3 I-0.096 J-0.176
G1 X30.5 F240
G3 Y22.75 I0 J-0.75
G1 X32
G3 Y24.25 I0 J0.75
X31.977 Y24.16 I0 J-0.048
G1 X32.105 Y24.09
G3 X32.168 Y24.158 I0.023 J0.042
G1 Z-3.8 F60
G3 X32.152 Y24.18 Z-3.9 I-0.168 J-0.108
X32.096 Y24.226 Z-3.973 I-0.152 J-0.13
X32 Y24.25 Z-4 I-0.096 J-0.176
G1 X30.5 F240
G3 Y22.75 I0 J-0.75
G1 X32
G3 Y24.25 I0 J0.75
X31.977 Y24.16 I0 J-0.048
G1 X32.105 Y24.09
G3 X32.168 Y24.158 I0.023 J0.042
G1 Z-4.38 F60
G3 X32.152 Y24.18 Z-4.48 I-0.168 J-0.108
X32.096 Y24.226 Z-4.553 I-0.152 J-0.13
X32 Y24.25 Z-4.58 I-0.096 J-0.176
G1 X30.5 F240
G3 Y22.75 I0 J-0.75
G1 X32
G3 Y24.25 I0 J0.75
X31.904 Y24.226 Z-4.553 I0 J-0.2 F480
X31.848 Y24.18 Z-4.48 I0.096 J-0.176
X31.832 Y24.158 Z-4.38 I0.152 J-0.13
G0 Z5
X22.85 Y23.3
Z2
G1 Z-0.8 F60
Y23.307 Z-0.852
Y23.327 Z-0.9
Y23.359 Z-0.941
Y23.4 Z-0.973
Y23.448 Z-0.993
Y23.5 Z-1
G3 X22.15 I-0.35 J0 F240
X24.75 I1.3 J0
X20.25 I-2.25 J0
X24.75 I2.25 J0
X24.472 Y23.684 I-0.2 J0
G1 X23.128 Y23.116
G2 X22.85 Y23.3 I-0.078 J0.184
G1 Z-1.8 F60
Y23.307 Z-1.852
Y23.327 Z-1.9
Y23.359 Z-1.941
Y23.4 Z-1.973
Y23.448 Z-1.993
Y23.5 Z-2
G3 X22.15 I-0.35 J0 F240
X24.75 I1.3 J0
X20.25 I-2.25 J0
X24.75 I2.25 J0
X24.472 Y23.684 I-0.2 J0
G1 X23.128 Y23.116
G2 X22.85 Y23.3 I-0.078 J0.184
G1 Z-2.8 F60
Y23.307 Z-2.852
Y23.327 Z-2.9
Y23.359 Z-2.941
Y23.4 Z-2.973
Y23.448 Z-2.993
Y23.5 Z-3
G3 X22.15 I-0.35 J0 F240
X24.75 I1.3 J0
X20.25 I-2.25 J0
X24.75 I2.25 J0
X24.472 Y23.684 I-0.2 J0
G1 X23.128 Y23.116
G2 X22.85 Y23.3 I-0.078 J0.184
G1 Z-3.8 F60
Y23.307 Z-3.852
Y23.327 Z-3.9
Y23.359 Z-3.941
Y23.4 Z-3.973
Y23.448 Z-3.993
Y23.5 Z-4
G3 X22.15 I-0.35 J0 F240
X24.75 I1.3 J0
X20.25 I-2.25 J0
X24.75 I2.25 J0
X24.472 Y23.684 I-0.2 J0
G1 X23.128 Y23.116
G2 X22.85 Y23.3 I-0.078 J0.184
G1 Z-4.38 F60
Y23.307 Z-4.432
Y23.327 Z-4.48
Y23.359 Z-4.521
Y23.4 Z-4.553
Y23.448 Z-4.573
Y23.5 Z-4.58
G3 X22.15 I-0.35 J0 F240
X24.75 I1.3 J0
X20.25 I-2.25 J0
X24.75 I2.25 J0
X24.726 Y23.596 Z-4.553 I-0.2 J0 F480
X24.68 Y23.652 Z-4.48 I-0.176 J-0.096
X24.658 Y23.668 Z-4.38 I-0.13 J-0.152
G0 Z5
X6.646 Y27.213
Z2
G1 Z-0.8 F60
G3 X6.673 Z-0.9 I0.015 J0.199
X6.743 Y27.23 Z-0.973 I-0.012 J0.2
X6.82 Y27.292 Z-1 I-0.083 J0.182
X6.18 Y27.772 I-0.32 J0.24 F240
X6.82 Y27.292 I0.32 J-0.24
X6.762 Y27.365 I-0.038 J0.029
G1 X6.629 Y27.304
G3 X6.646 Y27.213 I0.02 J-0.044
G1 Z-1.8 F60
G3 X6.673 Z-1.9 I0.015 J0.199
X6.743 Y27.23 Z-1.973 I-0.012 J0.2
X6.82 Y27.292 Z-2 I-0.083 J0.182
X6.18 Y27.772 I-0.32 J0.24 F240
X6.82 Y27.292 I0.32 J-0.24
X6.762 Y27.365 I-0.038 J0.029
G1 X6.629 Y27.304
G3 X6.646 Y27.213 I0.02 J-0.044
G1 Z-2.8 F60
G3 X6.673 Z-2.9 I0.015 J0.199
X6.743 Y27.23 Z-2.973 I-0.012 J0.2
X6.82 Y27.292 Z-3 I-0.083 J0.182
X6.18 Y27.772 I-0.32 J0.24 F240
X6.82 Y27.292 I0.32 J-0.24
X6.762 Y27.365 I-0.038 J0.029
G1 X6.629 Y27.304
G3 X6.646 Y27.213 I0.02 J-0.044
G1 Z-3.8 F60
G3 X6.673 Z-3.9 I0.015 J0.199
X6.743 Y27.23 Z-3.973 I-0.012 J0.2
X6.82 Y27.292 Z-4 I-0.083 J0.182
X6.18 Y27.772 I-0.32 J0.24 F240
X6.82 Y27.292 I0.32 J-0.24
X6.762 Y27.365 I-0.038 J0.029
G1 X6.629 Y27.304
G3 X6.646 Y27.213 I0.02 J-0.044
G1 Z-4.38 F60
G3 X6.673 Z-4.48 I0.015 J0.199
X6.743 Y27.23 Z-4.553 I-0.012 J0.2
X6.82 Y27.292 Z-4.58 I-0.083 J0.182
X6.18 Y27.772 I-0.32 J0.24 F240
X6.82 Y27.292 I0.32 J-0.24
X6.858 Y27.384 Z-4.553 I-0.16 J0.12 F480
X6.855 Y27.456 Z-4.48 I-0.198 J0.029
X6.848 Y27.482 Z-4.38 I-0.195 J-0.044
G0 Z5
X10.485 Y11.782
Z2
G1 Z-0.8 F60
G3 X10.478 Y11.757 Z-0.9 I0.187 J-0.07
X10.475 Y11.684 Z-0.973 I0.195 J-0.044
X10.513 Y11.593 Z-1 I0.198 J0.029
X11.153 Y12.073 I0.32 J0.24 F240
X10.513 Y11.593 I-0.32 J-0.24
X10.599 Y11.628 I0.038 J0.029
G1 X10.578 Y11.773
G3 X10.485 Y11.782 I-0.047 J-0.007
G1 Z-1.8 F60
G3 X10.478 Y11.757 Z-1.9 I0.187 J-0.07
X10.475 Y11.684 Z-1.973 I0.195 J-0.044
X10.513 Y11.593 Z-2 I0.198 J0.029
X11.153 Y12.073 I0.32 J0.24 F240
X10.513 Y11.593 I-0.32 J-0.24
X10.599 Y11.628 I0.038 J0.029
G1 X10.578 Y11.773
G3 X10.485 Y11.782 I-0.047 J-0.007
G1 Z-2.8 F60
G3 X10.478 Y11.757 Z-2.9 I0.187 J-0.07
X10.475 Y11.684 Z-2.973 I0.195 J-0.044
X10.513 Y11.593 Z-3 I0.198 J0.029
X11.153 Y12.073 I0.32 J0.24 F240
X10.513 Y11.593 I-0.32 J-0.24
X10.599 Y11.628 I0.038 J0.029
G1 X10.578 Y11.773
G3 X10.485 Y11.782 I-0.047 J-0.007
G1 Z-3.8 F60
G3 X10.478 Y11.757 Z-3.9 I0.187 J-0.07
X10.475 Y11.684 Z-3.973 I0.195 J-0.044
X10.513 Y11.593 Z-4 I0.198 J0.029
X11.153 Y12.073 I0.32 J0.24 F240
X10.513 Y11.593 I-0.32 J-0.24
X10.599 Y11.628 I0.038 J0.029
G1 X10.578 Y11.773
G3 X10.485 Y11.782 I-0.047 J-0.007
G1 Z-4.38 F60
G3 X10.478 Y11.757 Z-4.48 I0.187 J-0.07
X10.475 Y11.684 Z-4.553 I0.195 J-0.044
X10.513 Y11.593 Z-4.58 I0.198 J0.029
X11.153 Y12.073 I0.32 J0.24 F240
X10.513 Y11.593 I-0.32 J-0.24
X10.59 Y11.531 Z-4.553 I0.16 J0.12 F480
X10.66 Y11.513 Z-4.48 I0.083 J0.182
X10.687 Z-4.38 I0.012 J0.2
G0 Z5
X26.701 Y7.808
Z2
G1 Z-0.8 F60
G3 X26.685 Y7.83 Z-0.9 I-0.168 J-0.108
X26.628 Y7.876 Z-0.973 I-0.152 J-0.13
X26.532 Y7.9 Z-1 I-0.096 J-0.176
Y7.1 I0 J-0.4 F240
Y7.9 I0 J0.4
X26.509 Y7.81 I0 J-0.048
G1 X26.637 Y7.74
G3 X26.701 Y7.808 I0.023 J0.042
G1 Z-1.8 F60
G3 X26.685 Y7.83 Z-1.9 I-0.168 J-0.108
X26.628 Y7.876 Z-1.973 I-0.152 J-0.13
X26.532 Y7.9 Z-2 I-0.096 J-0.176
Y7.1 I0 J-0.4 F240
Y7.9 I0 J0.4
X26.509 Y7.81 I0 J-0.048
G1 X26.637 Y7.74
G3 X26.701 Y7.808 I0.023 J0.042
G1 Z-2.8 F60
G3 X26.685 Y7.83 Z-2.9 I-0.168 J-0.108
X26.628 Y7.876 Z-2.973 I-0.152 J-0.13
X26.532 Y7.9 Z-3 I-0.096 J-0.176
Y7.1 I0 J-0.4 F240
Y7.9 I0 J0.4
X26.509 Y7.81 I0 J-0.048
G1 X26.637 Y7.74
G3 X26.701 Y7.808 I0.023 J0.042
G1 Z-3.8 F60
G3 X26.685 Y7.83 Z-3.9 I-0.168 J-0.108
X26.628 Y7.876 Z-3.973 I-0.152 J-0.13
X26.532 Y7.9 Z-4 I-0.096 J-0.176
Y7.1 I0 J-0.4 F240
Y7.9 I0 J0.4
X26.509 Y7.81 I0 J-0.048
G1 X26.637 Y7.74
G3 X26.701 Y7.808 I0.023 J0.042
G1 Z-4.38 F60
G3 X26.685 Y7.83 Z-4.48 I-0.168 J-0.108
X26.628 Y7.876 Z-4.553 I-0.152 J-0.13
X26.532 Y7.9 Z-4.58 I-0.096 J-0.176
Y7.1 I0 J-0.4 F240
Y7.9 I0 J0.4
X26.436 Y7.876 Z-4.553 I0 J-0.2 F480
X26.38 Y7.83 Z-4.48 I0.096 J-0.176
X26.364 Y7.808 Z-4.38 I0.152 J-0.13
G0 Z5
X21.842 Y144.168
Z2
G1 Z-0.8 F60
G3 X21.82 Y144.152 Z-0.9 I0.108 J-0.168
X21.774 Y144.096 Z-0.973 I0.13 J-0.152
X21.75 Y144 Z-1 I0.176 J-0.096
X23.25 I0.75 J0 F240
X23.247 Y144.069 I-0.75 J0
G2 X23.243 Y144.167 I0.996 J0.092
G1 X23.25 Y145.503
G3 X21.75 Y145.5 I-0.75 J-0.003
G1 Y144.282
G2 X21.753 Y144.069 I-0.993 J-0.121
G3 X21.75 Y144 I0.747 J-0.069
X21.84 Y143.977 I0.048 J0
G1 X21.91 Y144.105
G3 X21.842 Y144.168 I-0.042 J0.023
G1 Z-1.8 F60
G3 X21.82 Y144.152 Z-1.9 I0.108 J-0.168
X21.774 Y144.096 Z-1.973 I0.13 J-0.152
X21.75 Y144 Z-2 I0.176 J-0.096
X23.25 I0.75 J0 F240
X23.247 Y144.069 I-0.75 J0
G2 X23.243 Y144.167 I0.996 J0.092
G1 X23.25 Y145.503
G3 X21.75 Y145.5 I-0.75 J-0.003
G1 Y144.282
G2 X21.753 Y144.069 I-0.993 J-0.121
G3 X21.75 Y144 I0.747 J-0.069
X21.84 Y143.977 I0.048 J0
G1 X21.91 Y144.105
G3 X21.842 Y144.168 I-0.042 J0.023
G1 Z-2.8 F60
G3 X21.82 Y144.152 Z-2.9 I0.108 J-0.168
X21.774 Y144.096 Z-2.973 I0.13 J-0.152
X21.75 Y144 Z-3 I0.176 J-0.096
X23.25 I0.75 J0 F240
X23.247 Y144.069 I-0.75 J0
G2 X23.243 Y144.167 I0.996 J0.092
G1 X23.25 Y145.503
G3 X21.75 Y145.5 I-0.75 J-0.003
G1 Y144.282
G2 X21.753 Y144.069 I-0.993 J-0.121
G3 X21.75 Y144 I0.747 J-0.069
X21.84 Y143.977 I0.048 J0
G1 X21.91 Y144.105
G3 X21.842 Y144.168 I-0.042 J0.023
G1 Z-3.8 F60
G3 X21.82 Y144.152 Z-3.9 I0.108 J-0.168
X21.774 Y144.096 Z-3.973 I0.13 J-0.152
X21.75 Y144 Z-4 I0.176 J-0.096
X23.25 I0.75 J0 F240
X23.247 Y144.069 I-0.75 J0
G2 X23.243 Y144.167 I0.996 J0.092
G1 X23.25 Y145.503
G3 X21.75 Y145.5 I-0.75 J-0.003
G1 Y144.282
G2 X21.753 Y144.069 I-0.993 J-0.121
G3 X21.75 Y144 I0.747 J-0.069
X21.84 Y143.977 I0.048 J0
G1 X21.91 Y144.105
G3 X21.842 Y144.168 I-0.042 J0.023
G1 Z-4.38 F60
G3 X21.82 Y144.152 Z-4.48 I0.108 J-0.168
X21.774 Y144.096 Z-4.553 I0.13 J-0.152
X21.75 Y144 Z-4.58 I0.176 J-0.096
X23.25 I0.75 J0 F240
X23.247 Y144.069 I-0.75 J0
G2 X23.243 Y144.167 I0.996 J0.092
G1 X23.25 Y145.503
G3 X21.75 Y145.5 I-0.75 J-0.003
G1 Y144.282
G2 X21.753 Y144.069 I-0.993 J-0.121
G3 X21.75 Y144 I0.747 J-0.069
X21.774 Y143.904 Z-4.553 I0.2 J0 F480
X21.82 Y143.848 Z-4.48 I0.176 J0.096
X21.842 Y143.832 Z-4.38 I0.13 J0.152
G0 Z5
X13.228 Y154.14
Z2
G1 Z-0.8 F60
G3 X13.215 Y154.163 Z-0.9 I-0.178 J-0.092
X13.163 Y154.214 Z-0.973 I-0.164 J-0.115
X13.069 Y154.247 Z-1 I-0.112 J-0.166
X12.246 Y153.496 I-0.069 J-0.751 F240
X13.07 Y152.746 I0.754 J0
G2 X13.163 Y152.75 I0.093 J-0.996
G1 X14.5
G3 Y154.25 I0 J0.75
G1 X13.279
G2 X13.069 Y154.247 I-0.118 J0.993
G3 X13.038 Y154.16 I-0.004 J-0.048
G1 X13.159 Y154.078
G3 X13.228 Y154.14 I0.027 J0.04
G1 Z-1.8 F60
G3 X13.215 Y154.163 Z-1.9 I-0.178 J-0.092
X13.163 Y154.214 Z-1.973 I-0.164 J-0.115
X13.069 Y154.247 Z-2 I-0.112 J-0.166
X12.246 Y153.496 I-0.069 J-0.751 F240
X13.07 Y152.746 I0.754 J0
G2 X13.163 Y152.75 I0.093 J-0.996
G1 X14.5
G3 Y154.25 I0 J0.75
G1 X13.279
G2 X13.069 Y154.247 I-0.118 J0.993
G3 X13.038 Y154.16 I-0.004 J-0.048
G1 X13.159 Y154.078
G3 X13.228 Y154.14 I0.027 J0.04
G1 Z-2.8 F60
G3 X13.215 Y154.163 Z-2.9 I-0.178 J-0.092
X13.163 Y154.214 Z-2.973 I-0.164 J-0.115
X13.069 Y154.247 Z-3 I-0.112 J-0.166
X12.246 Y153.496 I-0.069 J-0.751 F240
X13.07 Y152.746 I0.754 J0
G2 X13.163 Y152.75 I0.093 J-0.996
G1 X14.5
G3 Y154.25 I0 J0.75
G1 X13.279
G2 X13.069 Y154.247 I-0.118 J0.993
G3 X13.038 Y154.16 I-0.004 J-0.048
G1 X13.159 Y154.078
G3 X13.228 Y154.14 I0.027 J0.04
G1 Z-3.8 F60
G3 X13.215 Y154.163 Z-3.9 I-0.178 J-0.092
X13.163 Y154.214 Z-3.973 I-0.164 J-0.115
X13.069 Y154.247 Z-4 I-0.112 J-0.166
X12.246 Y153.496 I-0.069 J-0.751 F240
X13.07 Y152.746 I0.754 J0
G2 X13.163 Y152.75 I0.093 J-0.996
G1 X14.5
G3 Y154.25 I0 J0.75
G1 X13.279
G2 X13.069 Y154.247 I-0.118 J0.993
G3 X13.038 Y154.16 I-0.004 J-0.048
G1 X13.159 Y154.078
G3 X13.228 Y154.14 I0.027 J0.04
G1 Z-4.38 F60
G3 X13.215 Y154.163 Z-4.48 I-0.178 J-0.092
X13.163 Y154.214 Z-4.553 I-0.164 J-0.115
X13.069 Y154.247 Z-4.58 I-0.112 J-0.166
X12.246 Y153.496 I-0.069 J-0.751 F240
X13.07 Y152.746 I0.754 J0
G2 X13.163 Y152.75 I0.093 J-0.996
G1 X14.5
G3 Y154.25 I0 J0.75
G1 X13.279
G2 X13.069 Y154.247 I-0.118 J0.993
G3 X12.972 Y154.232 Z-4.553 I-0.018 J-0.199 F480
X12.911 Y154.191 Z-4.48 I0.079 J-0.184
X12.893 Y154.171 Z-4.38 I0.14 J-0.143
G0 Z5
X21.829 Y163.107
Z2
G1 Z-0.8 F60
G3 X21.809 Y163.089 Z-0.9 I0.123 J-0.158
X21.769 Y163.029 Z-0.973 I0.143 J-0.14
X21.753 Y162.931 Z-1 I0.184 J-0.079
G2 X21.75 Y162.718 I-0.996 J-0.092 F240
G1 Y161.5
G3 X22.5 Y160.75 I0.75 J0
X23.25 Y161.497 I0 J0.75
G1 X23.243 Y162.833
G2 X23.247 Y162.931 I1 J0.006
G3 X22.5 Y163.75 I-0.747 J0.069
X21.753 Y162.931 I0 J-0.75
X21.845 Y162.916 I0.048 J0.004
G1 X21.903 Y163.05
G3 X21.829 Y163.107 I-0.044 J0.019
G1 Z-1.8 F60
G3 X21.809 Y163.089 Z-1.9 I0.123 J-0.158
X21.769 Y163.029 Z-1.973 I0.143 J-0.14
X21.753 Y162.931 Z-2 I0.184 J-0.079
G2 X21.75 Y162.718 I-0.996 J-0.092 F240
G1 Y161.5
G3 X22.5 Y160.75 I0.75 J0
X23.25 Y161.497 I0 J0.75
G1 X23.243 Y162.833
G2 X23.247 Y162.931 I1 J0.006
G3 X22.5 Y163.75 I-0.747 J0.069
X21.753 Y162.931 I0 J-0.75
X21.845 Y162.916 I0.048 J0.004
G1 X21.903 Y163.05
G3 X21.829 Y163.107 I-0.044 J0.019
G1 Z-2.8 F60
G3 X21.809 Y163.089 Z-2.9 I0.123 J-0.158
X21.769 Y163.029 Z-2.973 I0.143 J-0.14
X21.753 Y162.931 Z-3 I0.184 J-0.079
G2 X21.75 Y162.718 I-0.996 J-0.092 F240
G1 Y161.5
G3 X22.5 Y160.75 I0.75 J0
X23.25 Y161.497 I0 J0.75
G1 X23.243 Y162.833
G2 X23.247 Y162.931 I1 J0.006
G3 X22.5 Y163.75 I-0.747 J0.069
X21.753 Y162.931 I0 J-0.75
X21.845 Y162.916 I0.048 J0.004
G1 X21.903 Y163.05
G3 X21.829 Y163.107 I-0.044 J0.019
G1 Z-3.8 F60
G3 X21.809 Y163.089 Z-3.9 I0.123 J-0.158
X21.769 Y163.029 Z-3.973 I0.143 J-0.14
X21.753 Y162.931 Z-4 I0.184 J-0.079
G2 X21.75 Y162.718 I-0.996 J-0.092 F240
G1 Y161.5
G3 X22.5 Y160.75 I0.75 J0
X23.25 Y161.497 I0 J0.75
G1 X23.243 Y162.833
G2 X23.247 Y162.931 I1 J0.006
G3 X22.5 Y163.75 I-0.747 J0.069
X21.753 Y162.931 I0 J-0.75
X21.845 Y162.916 I0.048 J0.004
G1 X21.903 Y163.05
G3 X21.829 Y163.107 I-0.044 J0.019
G1 Z-4.38 F60
G3 X21.809 Y163.089 Z-4.48 I0.123 J-0.158
X21.769 Y163.029 Z-4.553 I0.143 J-0.14
X21.753 Y162.931 Z-4.58 I0.184 J-0.079
G2 X21.75 Y162.718 I-0.996 J-0.092 F240
G1 Y161.5
G3 X22.5 Y160.75 I0.75 J0
X23.25 Y161.497 I0 J0.75
G1 X23.243 Y162.833
G2 X23.247 Y162.931 I1 J0.006
G3 X22.5 Y163.75 I-0.747 J0.069
X21.753 Y162.931 I0 J-0.75
X21.786 Y162.838 Z-4.553 I0.199 J0.018 F480
X21.837 Y162.786 Z-4.48 I0.166 J0.112
X21.86 Y162.772 Z-4.38 I0.115 J0.164
G0 Z5
X32.107 Y154.171
Z2
G1 Z-0.8 F60
G3 X32.089 Y154.191 Z-0.9 I-0.158 J-0.123
X32.029 Y154.232 Z-0.973 I-0.14 J-0.143
X31.931 Y154.247 Z-1 I-0.079 J-0.184
G2 X31.721 Y154.25 I-0.092 J0.996 F240
G1 X30.5
G3 Y152.75 I0 J-0.75
G1 X31.721
G2 X31.931 Y152.753 I0.118 J-0.993
G3 X32.75 Y153.5 I0.069 J0.747
X31.931 Y154.247 I-0.75 J0
X31.916 Y154.156 I0.004 J-0.048
G1 X32.05 Y154.098
G3 X32.107 Y154.171 I0.019 J0.044
G1 Z-1.8 F60
G3 X32.089 Y154.191 Z-1.9 I-0.158 J-0.123
X32.029 Y154.232 Z-1.973 I-0.14 J-0.143
X31.931 Y154.247 Z-2 I-0.079 J-0.184
G2 X31.721 Y154.25 I-0.092 J0.996 F240
G1 X30.5
G3 Y152.75 I0 J-0.75
G1 X31.721
G2 X31.931 Y152.753 I0.118 J-0.993
G3 X32.75 Y153.5 I0.069 J0.747
X31.931 Y154.247 I-0.75 J0
X31.916 Y154.156 I0.004 J-0.048
G1 X32.05 Y154.098
G3 X32.107 Y154.171 I0.019 J0.044
G1 Z-2.8 F60
G3 X32.089 Y154.191 Z-2.9 I-0.158 J-0.123
X32.029 Y154.232 Z-2.973 I-0.14 J-0.143
X31.931 Y154.247 Z-3 I-0.079 J-0.184
G2 X31.721 Y154.25 I-0.092 J0.996 F240
G1 X30.5
G3 Y152.75 I0 J-0.75
G1 X31.721
G2 X31.931 Y152.753 I0.118 J-0.993
G3 X32.75 Y153.5 I0.069 J0.747
X31.931 Y154.247 I-0.75 J0
X31.916 Y154.156 I0.004 J-0.048
G1 X32.05 Y154.098
G3 X32.107 Y154.171 I0.019 J0.044
G1 Z-3.8 F60
G3 X32.089 Y154.191 Z-3.9 I-0.158 J-0.123
X32.029 Y154.232 Z-3.973 I-0.14 J-0.143
X31.931 Y154.247 Z-4 I-0.079 J-0.184
G2 X31.721 Y154.25 I-0.092 J0.996 F240
G1 X30.5
G3 Y152.75 I0 J-0.75
G1 X31.721
G2 X31.931 Y152.753 I0.118 J-0.993
G3 X32.75 Y153.5 I0.069 J0.747
X31.931 Y154.247 I-0.75 J0
X31.916 Y154.156 I0.004 J-0.048
G1 X32.05 Y154.098
G3 X32.107 Y154.171 I0.019 J0.044
G1 Z-4.38 F60
G3 X32.089 Y154.191 Z-4.48 I-0.158 J-0.123
X32.029 Y154.232 Z-4.553 I-0.14 J-0.143
X31.931 Y154.247 Z-4.58 I-0.079 J-0.184
G2 X31.721 Y154.25 I-0.092 J0.996 F240
G1 X30.5
G3 Y152.75 I0 J-0.75
G1 X31.721
G2 X31.931 Y152.753 I0.118 J-0.993
G3 X32.75 Y153.5 I0.069 J0.747
X31.931 Y154.247 I-0.75 J0
X31.838 Y154.214 Z-4.553 I0.018 J-0.199 F480
X31.786 Y154.163 Z-4.48 I0.112 J-0.166
X31.772 Y154.14 Z-4.38 I0.164 J-0.115
G0 Z5
X22.85 Y153.3
Z2
G1 Z-0.8 F60
Y153.307 Z-0.852
Y153.327 Z-0.9
Y153.359 Z-0.941
Y153.4 Z-0.973
Y153.448 Z-0.993
Y153.5 Z-1
G3 X22.15 I-0.35 J0 F240
X24.75 I1.3 J0
X20.25 I-2.25 J0
X24.75 I2.25 J0
X24.472 Y153.684 I-0.2 J0
G1 X23.128 Y153.116
G2 X22.85 Y153.3 I-0.078 J0.184
G1 Z-1.8 F60
Y153.307 Z-1.852
Y153.327 Z-1.9
Y153.359 Z-1.941
Y153.4 Z-1.973
Y153.448 Z-1.993
Y153.5 Z-2
G3 X22.15 I-0.35 J0 F240
X24.75 I1.3 J0
X20.25 I-2.25 J0
X24.75 I2.25 J0
X24.472 Y153.684 I-0.2 J0
G1 X23.128 Y153.116
G2 X22.85 Y153.3 I-0.078 J0.184
G1 Z-2.8 F60
Y153.307 Z-2.852
Y153.327 Z-2.9
Y153.359 Z-2.941
Y153.4 Z-2.973
Y153.448 Z-2.993
Y153.5 Z-3
G3 X22.15 I-0.35 J0 F240
X24.75 I1.3 J0
X20.25 I-2.25 J0
X24.75 I2.25 J0
X24.472 Y153.684 I-0.2 J0
G1 X23.128 Y153.116
G2 X22.85 Y153.3 I-0.078 J0.184
G1 Z-3.8 F60
Y153.307 Z-3.852
Y153.327 Z-3.9
Y153.359 Z-3.941
Y153.4 Z-3.973
Y153.448 Z-3.993
Y153.5 Z-4
G3 X22.15 I-0.35 J0 F240
X24.75 I1.3 J0
X20.25 I-2.25 J0
X24.75 I2.25 J0
X24.472 Y153.684 I-0.2 J0
G1 X23.128 Y153.116
G2 X22.85 Y153.3 I-0.078 J0.184
G1 Z-4.38 F60
Y153.307 Z-4.432
Y153.327 Z-4.48
Y153.359 Z-4.521
Y153.4 Z-4.553
Y153.448 Z-4.573
Y153.5 Z-4.58
G3 X22.15 I-0.35 J0 F240
X24.75 I1.3 J0
X20.25 I-2.25 J0
X24.75 I2.25 J0
X24.726 Y153.596 Z-4.553 I-0.2 J0 F480
X24.68 Y153.652 Z-4.48 I-0.176 J-0.096
X24.658 Y153.668 Z-4.38 I-0.13 J-0.152
G0 Z5
X6.669 Y149.776
Z2
G1 Z-0.8 F60
G3 X6.653 Y149.798 Z-0.9 I-0.168 J-0.108
X6.596 Y149.844 Z-0.973 I-0.152 J-0.13
X6.5 Y149.868 Z-1 I-0.096 J-0.176
Y149.068 I0 J-0.4 F240
Y149.868 I0 J0.4
X6.477 Y149.778 I0 J-0.048
G1 X6.605 Y149.708
G3 X6.669 Y149.776 I0.023 J0.042
G1 Z-1.8 F60
G3 X6.653 Y149.798 Z-1.9 I-0.168 J-0.108
X6.596 Y149.844 Z-1.973 I-0.152 J-0.13
X6.5 Y149.868 Z-2 I-0.096 J-0.176
Y149.068 I0 J-0.4 F240
Y149.868 I0 J0.4
X6.477 Y149.778 I0 J-0.048
G1 X6.605 Y149.708
G3 X6.669 Y149.776 I0.023 J0.042
G1 Z-2.8 F60
G3 X6.653 Y149.798 Z-2.9 I-0.168 J-0.108
X6.596 Y149.844 Z-2.973 I-0.152 J-0.13
X6.5 Y149.868 Z-3 I-0.096 J-0.176
Y149.068 I0 J-0.4 F240
Y149.868 I0 J0.4
X6.477 Y149.778 I0 J-0.048
G1 X6.605 Y149.708
G3 X6.669 Y149.776 I0.023 J0.042
G1 Z-3.8 F60
G3 X6.653 Y149.798 Z-3.9 I-0.168 J-0.108
X6.596 Y149.844 Z-3.973 I-0.152 J-0.13
X6.5 Y149.868 Z-4 I-0.096 J-0.176
Y149.068 I0 J-0.4 F240
Y149.868 I0 J0.4
X6.477 Y149.778 I0 J-0.048
G1 X6.605 Y149.708
G3 X6.669 Y149.776 I0.023 J0.042
G1 Z-4.38 F60
G3 X6.653 Y149.798 Z-4.48 I-0.168 J-0.108
X6.596 Y149.844 Z-4.553 I-0.152 J-0.13
X6.5 Y149.868 Z-4.58 I-0.096 J-0.176
Y149.068 I0 J-0.4 F240
Y149.868 I0 J0.4
X6.404 Y149.844 Z-4.553 I0 J-0.2 F480
X6.348 Y149.798 Z-4.48 I0.096 J-0.176
X6.332 Y149.776 Z-4.38 I0.152 J-0.13
G0 Z5
X10.978 Y164.848
Z2
G1 Z-0.8 F60
G3 X11.005 Y164.847 Z-0.9 I0.015 J0.199
X11.076 Y164.865 Z-0.973 I-0.012 J0.2
X11.153 Y164.927 Z-1 I-0.083 J0.182
X10.513 Y165.407 I-0.32 J0.24 F240
X11.153 Y164.927 I0.32 J-0.24
X11.094 Y164.999 I-0.038 J0.029
G1 X10.962 Y164.939
G3 X10.978 Y164.848 I0.02 J-0.044
G1 Z-1.8 F60
G3 X11.005 Y164.847 Z-1.9 I0.015 J0.199
X11.076 Y164.865 Z-1.973 I-0.012 J0.2
X11.153 Y164.927 Z-2 I-0.083 J0.182
X10.513 Y165.407 I-0.32 J0.24 F240
X11.153 Y164.927 I0.32 J-0.24
X11.094 Y164.999 I-0.038 J0.029
G1 X10.962 Y164.939
G3 X10.978 Y164.848 I0.02 J-0.044
G1 Z-2.8 F60
G3 X11.005 Y164.847 Z-2.9 I0.015 J0.199
X11.076 Y164.865 Z-2.973 I-0.012 J0.2
X11.153 Y164.927 Z-3 I-0.083 J0.182
X10.513 Y165.407 I-0.32 J0.24 F240
X11.153 Y164.927 I0.32 J-0.24
X11.094 Y164.999 I-0.038 J0.029
G1 X10.962 Y164.939
G3 X10.978 Y164.848 I0.02 J-0.044
G1 Z-3.8 F60
G3 X11.005 Y164.847 Z-3.9 I0.015 J0.199
X11.076 Y164.865 Z-3.973 I-0.012 J0.2
X11.153 Y164.927 Z-4 I-0.083 J0.182
X10.513 Y165.407 I-0.32 J0.24 F240
X11.153 Y164.927 I0.32 J-0.24
X11.094 Y164.999 I-0.038 J0.029
G1 X10.962 Y164.939
G3 X10.978 Y164.848 I0.02 J-0.044
G1 Z-4.38 F60
G3 X11.005 Y164.847 Z-4.48 I0.015 J0.199
X11.076 Y164.865 Z-4.553 I-0.012 J0.2
X11.153 Y164.927 Z-4.58 I-0.083 J0.182
X10.513 Y165.407 I-0.32 J0.24 F240
X11.153 Y164.927 I0.32 J-0.24
X11.191 Y165.018 Z-4.553 I-0.16 J0.12 F480
X11.188 Y165.091 Z-4.48 I-0.198 J0.029
X11.18 Y165.117 Z-4.38 I-0.195 J-0.044
G0 Z5
X26.678 Y169.181
Z2
G1 Z-0.8 F60
G3 X26.705 Y169.18 Z-0.9 I0.015 J0.199
X26.775 Y169.198 Z-0.973 I-0.012 J0.2
X26.852 Y169.26 Z-1 I-0.083 J0.182
X26.212 Y169.74 I-0.32 J0.24 F240
X26.852 Y169.26 I0.32 J-0.24
X26.794 Y169.332 I-0.038 J0.029
G1 X26.661 Y169.272
G3 X26.678 Y169.181 I0.02 J-0.044
G1 Z-1.8 F60
G3 X26.705 Y169.18 Z-1.9 I0.015 J0.199
X26.775 Y169.198 Z-1.973 I-0.012 J0.2
X26.852 Y169.26 Z-2 I-0.083 J0.182
X26.212 Y169.74 I-0.32 J0.24 F240
X26.852 Y169.26 I0.32 J-0.24
X26.794 Y169.332 I-0.038 J0.029
G1 X26.661 Y169.272
G3 X26.678 Y169.181 I0.02 J-0.044
G1 Z-2.8 F60
G3 X26.705 Y169.18 Z-2.9 I0.015 J0.199
X26.775 Y169.198 Z-2.973 I-0.012 J0.2
X26.852 Y169.26 Z-3 I-0.083 J0.182
X26.212 Y169.74 I-0.32 J0.24 F240
X26.852 Y169.26 I0.32 J-0.24
X26.794 Y169.332 I-0.038 J0.029
G1 X26.661 Y169.272
G3 X26.678 Y169.181 I0.02 J-0.044
G1 Z-3.8 F60
G3 X26.705 Y169.18 Z-3.9 I0.015 J0.199
X26.775 Y169.198 Z-3.973 I-0.012 J0.2
X26.852 Y169.26 Z-4 I-0.083 J0.182
X26.212 Y169.74 I-0.32 J0.24 F240
X26.852 Y169.26 I0.32 J-0.24
X26.794 Y169.332 I-0.038 J0.029
G1 X26.661 Y169.272
G3 X26.678 Y169.181 I0.02 J-0.044
G1 Z-4.38 F60
G3 X26.705 Y169.18 Z-4.48 I0.015 J0.199
X26.775 Y169.198 Z-4.553 I-0.012 J0.2
X26.852 Y169.26 Z-4.58 I-0.083 J0.182
X26.212 Y169.74 I-0.32 J0.24 F240
X26.852 Y169.26 I0.32 J-0.24
X26.89 Y169.351 Z-4.553 I-0.16 J0.12 F480
X26.887 Y169.424 Z-4.48 I-0.198 J0.029
X26.88 Y169.45 Z-4.38 I-0.195 J-0.044
G0 Z5
X153.158 Y145.332
Z2
G1 Z-0.8 F60
G3 X153.18 Y145.348 Z-0.9 I-0.108 J0.168
X153.226 Y145.404 Z-0.973 I-0.13 J0.152
X153.25 Y145.5 Z-1 I-0.176 J0.096
X151.75 I-0.75 J0 F240
G1 Y144
G3 X153.25 I0.75 J0
G1 Y145.5
G3 X153.16 Y145.523 I-0.048 J0
G1 X153.09 Y145.395
G3 X153.158 Y145.332 I0.042 J-0.023
G1 Z-1.8 F60
G3 X153.18 Y145.348 Z-1.9 I-0.108 J0.168
X153.226 Y145.404 Z-1.973 I-0.13 J0.152
X153.25 Y145.5 Z-2 I-0.176 J0.096
X151.75 I-0.75 J0 F240
G1 Y144
G3 X153.25 I0.75 J0
G1 Y145.5
G3 X153.16 Y145.523 I-0.048 J0
G1 X153.09 Y145.395
G3 X153.158 Y145.332 I0.042 J-0.023
G1 Z-2.8 F60
G3 X153.18 Y145.348 Z-2.9 I-0.108 J0.168
X153.226 Y145.404 Z-2.973 I-0.13 J0.152
X153.25 Y145.5 Z-3 I-0.176 J0.096
X151.75 I-0.75 J0 F240
G1 Y144
G3 X153.25 I0.75 J0
G1 Y145.5
G3 X153.16 Y145.523 I-0.048 J0
G1 X153.09 Y145.395
G3 X153.158 Y145.332 I0.042 J-0.023
G1 Z-3.8 F60
G3 X153.18 Y145.348 Z-3.9 I-0.108 J0.168
X153.226 Y145.404 Z-3.973 I-0.13 J0.152
X153.25 Y145.5 Z-4 I-0.176 J0.096
X151.75 I-0.75 J0 F240
G1 Y144
G3 X153.25 I0.75 J0
G1 Y145.5
G3 X153.16 Y145.523 I-0.048 J0
G1 X153.09 Y145.395
G3 X153.158 Y145.332 I0.042 J-0.023
G1 Z-4.38 F60
G3 X153.18 Y145.348 Z-4.48 I-0.108 J0.168
X153.226 Y145.404 Z-4.553 I-0.13 J0.152
X153.25 Y145.5 Z-4.58 I-0.176 J0.096
X151.75 I-0.75 J0 F240
G1 Y144
G3 X153.25 I0.75 J0
G1 Y145.5
G3 X153.226 Y145.596 Z-4.553 I-0.2 J0 F480
X153.18 Y145.652 Z-4.48 I-0.176 J-0.096
X153.158 Y145.668 Z-4.38 I-0.13 J-0.152
G0 Z5
X144.332 Y152.842
Z2
G1 Z-0.8 F60
G3 X144.348 Y152.82 Z-0.9 I0.168 J0.108
X144.404 Y152.774 Z-0.973 I0.152 J0.13
X144.5 Y152.75 Z-1 I0.096 J0.176
Y154.25 I0 J0.75 F240
G1 X143
G3 Y152.75 I0 J-0.75
G1 X144.5
G3 X144.523 Y152.84 I0 J0.048
G1 X144.395 Y152.91
G3 X144.332 Y152.842 I-0.023 J-0.042
G1 Z-1.8 F60
G3 X144.348 Y152.82 Z-1.9 I0.168 J0.108
X144.404 Y152.774 Z-1.973 I0.152 J0.13
X144.5 Y152.75 Z-2 I0.096 J0.176
Y154.25 I0 J0.75 F240
G1 X143
G3 Y152.75 I0 J-0.75
G1 X144.5
G3 X144.523 Y152.84 I0 J0.048
G1 X144.395 Y152.91
G3 X144.332 Y152.842 I-0.023 J-0.042
G1 Z-2.8 F60
G3 X144.348 Y152.82 Z-2.9 I0.168 J0.108
X144.404 Y152.774 Z-2.973 I0.152 J0.13
X144.5 Y152.75 Z-3 I0.096 J0.176
Y154.25 I0 J0.75 F240
G1 X143
G3 Y152.75 I0 J-0.75
G1 X144.5
G3 X144.523 Y152.84 I0 J0.048
G1 X144.395 Y152.91
G3 X144.332 Y152.842 I-0.023 J-0.042
G1 Z-3.8 F60
G3 X144.348 Y152.82 Z-3.9 I0.168 J0.108
X144.404 Y152.774 Z-3.973 I0.152 J0.13
X144.5 Y152.75 Z-4 I0.096 J0.176
Y154.25 I0 J0.75 F240
G1 X143
G3 Y152.75 I0 J-0.75
G1 X144.5
G3 X144.523 Y152.84 I0 J0.048
G1 X144.395 Y152.91
G3 X144.332 Y152.842 I-0.023 J-0.042
G1 Z-4.38 F60
G3 X144.348 Y152.82 Z-4.48 I0.168 J0.108
X144.404 Y152.774 Z-4.553 I0.152 J0.13
X144.5 Y152.75 Z-4.58 I0.096 J0.176
Y154.25 I0 J0.75 F240
G1 X143
G3 Y152.75 I0 J-0.75
G1 X144.5
G3 X144.596 Y152.774 Z-4.553 I0 J0.2 F480
X144.652 Y152.82 Z-4.48 I-0.096 J0.176
X144.668 Y152.842 Z-4.38 I-0.152 J0.13
G0 Z5
X153.158 Y161.332
Z2
G1 Z-0.8 F60
G3 X153.18 Y161.348 Z-0.9 I-0.108 J0.168
X153.226 Y161.404 Z-0.973 I-0.13 J0.152
X153.25 Y161.5 Z-1 I-0.176 J0.096
G1 Y163 F240
G3 X151.75 I-0.75 J0
G1 Y161.5
G3 X153.25 I0.75 J0
X153.16 Y161.523 I-0.048 J0
G1 X153.09 Y161.395
G3 X153.158 Y161.332 I0.042 J-0.023
G1 Z-1.8 F60
G3 X153.18 Y161.348 Z-1.9 I-0.108 J0.168
X153.226 Y161.404 Z-1.973 I-0.13 J0.152
X153.25 Y161.5 Z-2 I-0.176 J0.096
G1 Y163 F240
G3 X151.75 I-0.75 J0
G1 Y161.5
G3 X153.25 I0.75 J0
X153.16 Y161.523 I-0.048 J0
G1 X153.09 Y161.395
G3 X153.158 Y161.332 I0.042 J-0.023
G1 Z-2.8 F60
G3 X153.18 Y161.348 Z-2.9 I-0.108 J0.168
X153.226 Y161.404 Z-2.973 I-0.13 J0.152
X153.25 Y161.5 Z-3 I-0.176 J0.096
G1 Y163 F240
G3 X151.75 I-0.75 J0
G1 Y161.5
G3 X153.25 I0.75 J0
X153.16 Y161.523 I-0.048 J0
G1 X153.09 Y161.395
G3 X153.158 Y161.332 I0.042 J-0.023
G1 Z-3.8 F60
G3 X153.18 Y161.348 Z-3.9 I-0.108 J0.168
X153.226 Y161.404 Z-3.973 I-0.13 J0.152
X153.25 Y161.5 Z-4 I-0.176 J0.096
G1 Y163 F240
G3 X151.75 I-0.75 J0
G1 Y161.5
G3 X153.25 I0.75 J0
X153.16 Y161.523 I-0.048 J0
G1 X153.09 Y161.395
G3 X153.158 Y161.332 I0.042 J-0.023
G1 Z-4.38 F60
G3 X153.18 Y161.348 Z-4.48 I-0.108 J0.168
X153.226 Y161.404 Z-4.553 I-0.13 J0.152
X153.25 Y161.5 Z-4.58 I-0.176 J0.096
G1 Y163 F240
G3 X151.75 I-0.75 J0
G1 Y161.5
G3 X153.25 I0.75 J0
X153.226 Y161.596 Z-4.553 I-0.2 J0 F480
X153.18 Y161.652 Z-4.48 I-0.176 J-0.096
X153.158 Y161.668 Z-4.38 I-0.13 J-0.152
G0 Z5
X160.332 Y152.842
Z2
G1 Z-0.8 F60
G3 X160.348 Y152.82 Z-0.9 I0.168 J0.108
X160.404 Y152.774 Z-0.973 I0.152 J0.13
X160.5 Y152.75 Z-1 I0.096 J0.176
G1 X162 F240
G3 Y154.25 I0 J0.75
G1 X160.5
G3 Y152.75 I0 J-0.75
X160.523 Y152.84 I0 J0.048
G1 X160.395 Y152.91
G3 X160.332 Y152.842 I-0.023 J-0.042
G1 Z-1.8 F60
G3 X160.348 Y152.82 Z-1.9 I0.168 J0.108
X160.404 Y152.774 Z-1.973 I0.152 J0.13
X160.5 Y152.75 Z-2 I0.096 J0.176
G1 X162 F240
G3 Y154.25 I0 J0.75
G1 X160.5
G3 Y152.75 I0 J-0.75
X160.523 Y152.84 I0 J0.048
G1 X160.395 Y152.91
G3 X160.332 Y152.842 I-0.023 J-0.042
G1 Z-2.8 F60
G3 X160.348 Y152.82 Z-2.9 I0.168 J0.108
X160.404 Y152.774 Z-2.973 I0.152 J0.13
X160.5 Y152.75 Z-3 I0.096 J0.176
G1 X162 F240
G3 Y154.25 I0 J0.75
G1 X160.5
G3 Y152.75 I0 J-0.75
X160.523 Y152.84 I0 J0.048
G1 X160.395 Y152.91
G3 X160.332 Y152.842 I-0.023 J-0.042
G1 Z-3.8 F60
G3 X160.348 Y152.82 Z-3.9 I0.168 J0.108
X160.404 Y152.774 Z-3.973 I0.152 J0.13
X160.5 Y152.75 Z-4 I0.096 J0.176
G1 X162 F240
G3 Y154.25 I0 J0.75
G1 X160.5
G3 Y152.75 I0 J-0.75
X160.523 Y152.84 I0 J0.048
G1 X160.395 Y152.91
G3 X160.332 Y152.842 I-0.023 J-0.042
G1 Z-4.38 F60
G3 X160.348 Y152.82 Z-4.48 I0.168 J0.108
X160.404 Y152.774 Z-4.553 I0.152 J0.13
X160.5 Y152.75 Z-4.58 I0.096 J0.176
G1 X162 F240
G3 Y154.25 I0 J0.75
G1 X160.5
G3 Y152.75 I0 J-0.75
X160.596 Y152.774 Z-4.553 I0 J0.2 F480
X160.652 Y152.82 Z-4.48 I-0.096 J0.176
X160.668 Y152.842 Z-4.38 I-0.152 J0.13
G0 Z5
X152.85 Y153.3
Z2
G1 Z-0.8 F60
Y153.307 Z-0.852
Y153.327 Z-0.9
Y153.359 Z-0.941
Y153.4 Z-0.973
Y153.448 Z-0.993
Y153.5 Z-1
G3 X152.15 I-0.35 J0 F240
X154.75 I1.3 J0
X150.25 I-2.25 J0
X154.75 I2.25 J0
X154.472 Y153.684 I-0.2 J0
G1 X153.128 Y153.116
G2 X152.85 Y153.3 I-0.078 J0.184
G1 Z-1.8 F60
Y153.307 Z-1.852
Y153.327 Z-1.9
Y153.359 Z-1.941
Y153.4 Z-1.973
Y153.448 Z-1.993
Y153.5 Z-2
G3 X152.15 I-0.35 J0 F240
X154.75 I1.3 J0
X150.25 I-2.25 J0
X154.75 I2.25 J0
X154.472 Y153.684 I-0.2 J0
G1 X153.128 Y153.116
G2 X152.85 Y153.3 I-0.078 J0.184
G1 Z-2.8 F60
Y153.307 Z-2.852
Y153.327 Z-2.9
Y153.359 Z-2.941
Y153.4 Z-2.973
Y153.448 Z-2.993
Y153.5 Z-3
G3 X152.15 I-0.35 J0 F240
X154.75 I1.3 J0
X150.25 I-2.25 J0
X154.75 I2.25 J0
X154.472 Y153.684 I-0.2 J0
G1 X153.128 Y153.116
G2 X152.85 Y153.3 I-0.078 J0.184
G1 Z-3.8 F60
Y153.307 Z-3.852
Y153.327 Z-3.9
Y153.359 Z-3.941
Y153.4 Z-3.973
Y153.448 Z-3.993
Y153.5 Z-4
G3 X152.15 I-0.35 J0 F240
X154.75 I1.3 J0
X150.25 I-2.25 J0
X154.75 I2.25 J0
X154.472 Y153.684 I-0.2 J0
G1 X153.128 Y153.116
G2 X152.85 Y153.3 I-0.078 J0.184
G1 Z-4.38 F60
Y153.307 Z-4.432
Y153.327 Z-4.48
Y153.359 Z-4.521
Y153.4 Z-4.553
Y153.448 Z-4.573
Y153.5 Z-4.58
G3 X152.15 I-0.35 J0 F240
X154.75 I1.3 J0
X150.25 I-2.25 J0
X154.75 I2.25 J0
X154.726 Y153.596 Z-4.553 I-0.2 J0 F480
X154.68 Y153.652 Z-4.48 I-0.176 J-0.096
X154.658 Y153.668 Z-4.38 I-0.13 J-0.152
G0 Z5
X148.636 Y169.808
Z2
G1 Z-0.8 F60
G3 X148.62 Y169.83 Z-0.9 I-0.168 J-0.108
X148.564 Y169.876 Z-0.973 I-0.152 J-0.13
X148.468 Y169.9 Z-1 I-0.096 J-0.176
X148.148 Y169.26 I0 J-0.4 F240
X148.788 Y169.74 I0.32 J0.24
X148.468 Y169.9 I-0.32 J-0.24
X148.445 Y169.81 I0 J-0.048
G1 X148.573 Y169.74
G3 X148.636 Y169.808 I0.023 J0.042
G1 Z-1.8 F60
G3 X148.62 Y169.83 Z-1.9 I-0.168 J-0.108
X148.564 Y169.876 Z-1.973 I-0.152 J-0.13
X148.468 Y169.9 Z-2 I-0.096 J-0.176
X148.148 Y169.26 I0 J-0.4 F240
X148.788 Y169.74 I0.32 J0.24
X148.468 Y169.9 I-0.32 J-0.24
X148.445 Y169.81 I0 J-0.048
G1 X148.573 Y169.74
G3 X148.636 Y169.808 I0.023 J0.042
G1 Z-2.8 F60
G3 X148.62 Y169.83 Z-2.9 I-0.168 J-0.108
X148.564 Y169.876 Z-2.973 I-0.152 J-0.13
X148.468 Y169.9 Z-3 I-0.096 J-0.176
X148.148 Y169.26 I0 J-0.4 F240
X148.788 Y169.74 I0.32 J0.24
X148.468 Y169.9 I-0.32 J-0.24
X148.445 Y169.81 I0 J-0.048
G1 X148.573 Y169.74
G3 X148.636 Y169.808 I0.023 J0.042
G1 Z-3.8 F60
G3 X148.62 Y169.83 Z-3.9 I-0.168 J-0.108
X148.564 Y169.876 Z-3.973 I-0.152 J-0.13
X148.468 Y169.9 Z-4 I-0.096 J-0.176
X148.148 Y169.26 I0 J-0.4 F240
X148.788 Y169.74 I0.32 J0.24
X148.468 Y169.9 I-0.32 J-0.24
X148.445 Y169.81 I0 J-0.048
G1 X148.573 Y169.74
G3 X148.636 Y169.808 I0.023 J0.042
G1 Z-4.38 F60
G3 X148.62 Y169.83 Z-4.48 I-0.168 J-0.108
X148.564 Y169.876 Z-4.553 I-0.152 J-0.13
X148.468 Y169.9 Z-4.58 I-0.096 J-0.176
X148.148 Y169.26 I0 J-0.4 F240
X148.788 Y169.74 I0.32 J0.24
X148.468 Y169.9 I-0.32 J-0.24
X148.372 Y169.876 Z-4.553 I0 J-0.2 F480
X148.316 Y169.83 Z-4.48 I0.096 J-0.176
X148.3 Y169.808 Z-4.38 I0.152 J-0.13
G0 Z5
X164.335 Y165.475
Z2
G1 Z-0.8 F60
G3 X164.319 Y165.497 Z-0.9 I-0.168 J-0.108
X164.263 Y165.543 Z-0.973 I-0.152 J-0.13
X164.167 Y165.567 Z-1 I-0.096 J-0.176
X163.847 Y164.927 I0 J-0.4 F240
X164.487 Y165.407 I0.32 J0.24
X164.167 Y165.567 I-0.32 J-0.24
X164.144 Y165.477 I0 J-0.048
G1 X164.272 Y165.407
G3 X164.335 Y165.475 I0.023 J0.042
G1 Z-1.8 F60
G3 X164.319 Y165.497 Z-1.9 I-0.168 J-0.108
X164.263 Y165.543 Z-1.973 I-0.152 J-0.13
X164.167 Y165.567 Z-2 I-0.096 J-0.176
X163.847 Y164.927 I0 J-0.4 F240
X164.487 Y165.407 I0.32 J0.24
X164.167 Y165.567 I-0.32 J-0.24
X164.144 Y165.477 I0 J-0.048
G1 X164.272 Y165.407
G3 X164.335 Y165.475 I0.023 J0.042
G1 Z-2.8 F60
G3 X164.319 Y165.497 Z-2.9 I-0.168 J-0.108
X164.263 Y165.543 Z-2.973 I-0.152 J-0.13
X164.167 Y165.567 Z-3 I-0.096 J-0.176
X163.847 Y164.927 I0 J-0.4 F240
X164.487 Y165.407 I0.32 J0.24
X164.167 Y165.567 I-0.32 J-0.24
X164.144 Y165.477 I0 J-0.048
G1 X164.272 Y165.407
G3 X164.335 Y165.475 I0.023 J0.042
G1 Z-3.8 F60
G3 X164.319 Y165.497 Z-3.9 I-0.168 J-0.108
X164.263 Y165.543 Z-3.973 I-0.152 J-0.13
X164.167 Y165.567 Z-4 I-0.096 J-0.176
X163.847 Y164.927 I0 J-0.4 F240
X164.487 Y165.407 I0.32 J0.24
X164.167 Y165.567 I-0.32 J-0.24
X164.144 Y165.477 I0 J-0.048
G1 X164.272 Y165.407
G3 X164.335 Y165.475 I0.023 J0.042
G1 Z-4.38 F60
G3 X164.319 Y165.497 Z-4.48 I-0.168 J-0.108
X164.263 Y165.543 Z-4.553 I-0.152 J-0.13
X164.167 Y165.567 Z-4.58 I-0.096 J-0.176
X163.847 Y164.927 I0 J-0.4 F240
X164.487 Y165.407 I0.32 J0.24
X164.167 Y165.567 I-0.32 J-0.24
X164.071 Y165.543 Z-4.553 I0 J-0.2 F480
X164.015 Y165.497 Z-4.48 I0.096 J-0.176
X163.999 Y165.475 Z-4.38 I0.152 J-0.13
G0 Z5
X168.668 Y149.776
Z2
G1 Z-0.8 F60
G3 X168.652 Y149.798 Z-0.9 I-0.168 J-0.108
X168.596 Y149.844 Z-0.973 I-0.152 J-0.13
X168.5 Y149.868 Z-1 I-0.096 J-0.176
Y149.068 I0 J-0.4 F240
X168.82 Y149.228 I0 J0.4
X168.5 Y149.868 I-0.32 J0.24
X168.477 Y149.778 I0 J-0.048
G1 X168.605 Y149.708
G3 X168.668 Y149.776 I0.023 J0.042
G1 Z-1.8 F60
G3 X168.652 Y149.798 Z-1.9 I-0.168 J-0.108
X168.596 Y149.844 Z-1.973 I-0.152 J-0.13
X168.5 Y149.868 Z-2 I-0.096 J-0.176
Y149.068 I0 J-0.4 F240
X168.82 Y149.228 I0 J0.4
X168.5 Y149.868 I-0.32 J0.24
X168.477 Y149.778 I0 J-0.048
G1 X168.605 Y149.708
G3 X168.668 Y149.776 I0.023 J0.042
G1 Z-2.8 F60
G3 X168.652 Y149.798 Z-2.9 I-0.168 J-0.108
X168.596 Y149.844 Z-2.973 I-0.152 J-0.13
X168.5 Y149.868 Z-3 I-0.096 J-0.176
Y149.068 I0 J-0.4 F240
X168.82 Y149.228 I0 J0.4
X168.5 Y149.868 I-0.32 J0.24
X168.477 Y149.778 I0 J-0.048
G1 X168.605 Y149.708
G3 X168.668 Y149.776 I0.023 J0.042
G1 Z-3.8 F60
G3 X168.652 Y149.798 Z-3.9 I-0.168 J-0.108
X168.596 Y149.844 Z-3.973 I-0.152 J-0.13
X168.5 Y149.868 Z-4 I-0.096 J-0.176
Y149.068 I0 J-0.4 F240
X168.82 Y149.228 I0 J0.4
X168.5 Y149.868 I-0.32 J0.24
X168.477 Y149.778 I0 J-0.048
G1 X168.605 Y149.708
G3 X168.668 Y149.776 I0.023 J0.042
G1 Z-4.38 F60
G3 X168.652 Y149.798 Z-4.48 I-0.168 J-0.108
X168.596 Y149.844 Z-4.553 I-0.152 J-0.13
X168.5 Y149.868 Z-4.58 I-0.096 J-0.176
Y149.068 I0 J-0.4 F240
X168.82 Y149.228 I0 J0.4
X168.5 Y149.868 I-0.32 J0.24
X168.404 Y149.844 Z-4.553 I0 J-0.2 F480
X168.348 Y149.798 Z-4.48 I0.096 J-0.176
X168.332 Y149.776 Z-4.38 I0.152 J-0.13
G0 Z5
X142.342 Y23.668
Z2
G1 Z-0.8 F60
G3 X142.32 Y23.652 Z-0.9 I0.108 J-0.168
X142.274 Y23.596 Z-0.973 I0.13 J-0.152
X142.25 Y23.5 Z-1 I0.176 J-0.096
X143 Y22.75 I0.75 J0 F240
G1 X144.5
G3 Y24.25 I0 J0.75
G1 X143
G3 X142.25 Y23.5 I0 J-0.75
X142.34 Y23.477 I0.048 J0
G1 X142.41 Y23.605
G3 X142.342 Y23.668 I-0.042 J0.023
G1 Z-1.8 F60
G3 X142.32 Y23.652 Z-1.9 I0.108 J-0.168
X142.274 Y23.596 Z-1.973 I0.13 J-0.152
X142.25 Y23.5 Z-2 I0.176 J-0.096
X143 Y22.75 I0.75 J0 F240
G1 X144.5
G3 Y24.25 I0 J0.75
G1 X143
G3 X142.25 Y23.5 I0 J-0.75
X142.34 Y23.477 I0.048 J0
G1 X142.41 Y23.605
G3 X142.342 Y23.668 I-0.042 J0.023
G1 Z-2.8 F60
G3 X142.32 Y23.652 Z-2.9 I0.108 J-0.168
X142.274 Y23.596 Z-2.973 I0.13 J-0.152
X142.25 Y23.5 Z-3 I0.176 J-0.096
X143 Y22.75 I0.75 J0 F240
G1 X144.5
G3 Y24.25 I0 J0.75
G1 X143
G3 X142.25 Y23.5 I0 J-0.75
X142.34 Y23.477 I0.048 J0
G1 X142.41 Y23.605
G3 X142.342 Y23.668 I-0.042 J0.023
G1 Z-3.8 F60
G3 X142.32 Y23.652 Z-3.9 I0.108 J-0.168
X142.274 Y23.596 Z-3.973 I0.13 J-0.152
X142.25 Y23.5 Z-4 I0.176 J-0.096
X143 Y22.75 I0.75 J0 F240
G1 X144.5
G3 Y24.25 I0 J0.75
G1 X143
G3 X142.25 Y23.5 I0 J-0.75
X142.34 Y23.477 I0.048 J0
G1 X142.41 Y23.605
G3 X142.342 Y23.668 I-0.042 J0.023
G1 Z-4.38 F60
G3 X142.32 Y23.652 Z-4.48 I0.108 J-0.168
X142.274 Y23.596 Z-4.553 I0.13 J-0.152
X142.25 Y23.5 Z-4.58 I0.176 J-0.096
X143 Y22.75 I0.75 J0 F240
G1 X144.5
G3 Y24.25 I0 J0.75
G1 X143
G3 X142.25 Y23.5 I0 J-0.75
X142.274 Y23.404 Z-4.553 I0.2 J0 F480
X142.32 Y23.348 Z-4.48 I0.176 J0.096
X142.342 Y23.332 Z-4.38 I0.13 J0.152
G0 Z5
X151.842 Y31.668
Z2
G1 Z-0.8 F60
G3 X151.82 Y31.652 Z-0.9 I0.108 J-0.168
X151.774 Y31.596 Z-0.973 I0.13 J-0.152
X151.75 Y31.5 Z-1 I0.176 J-0.096
X153.25 I0.75 J0 F240
G1 Y33
G3 X151.75 I-0.75 J0
G1 Y31.5
G3 X151.84 Y31.477 I0.048 J0
G1 X151.91 Y31.605
G3 X151.842 Y31.668 I-0.042 J0.023
G1 Z-1.8 F60
G3 X151.82 Y31.652 Z-1.9 I0.108 J-0.168
X151.774 Y31.596 Z-1.973 I0.13 J-0.152
X151.75 Y31.5 Z-2 I0.176 J-0.096
X153.25 I0.75 J0 F240
G1 Y33
G3 X151.75 I-0.75 J0
G1 Y31.5
G3 X151.84 Y31.477 I0.048 J0
G1 X151.91 Y31.605
G3 X151.842 Y31.668 I-0.042 J0.023
G1 Z-2.8 F60
G3 X151.82 Y31.652 Z-2.9 I0.108 J-0.168
X151.774 Y31.596 Z-2.973 I0.13 J-0.152
X151.75 Y31.5 Z-3 I0.176 J-0.096
X153.25 I0.75 J0 F240
G1 Y33
G3 X151.75 I-0.75 J0
G1 Y31.5
G3 X151.84 Y31.477 I0.048 J0
G1 X151.91 Y31.605
G3 X151.842 Y31.668 I-0.042 J0.023
G1 Z-3.8 F60
G3 X151.82 Y31.652 Z-3.9 I0.108 J-0.168
X151.774 Y31.596 Z-3.973 I0.13 J-0.152
X151.75 Y31.5 Z-4 I0.176 J-0.096
X153.25 I0.75 J0 F240
G1 Y33
G3 X151.75 I-0.75 J0
G1 Y31.5
G3 X151.84 Y31.477 I0.048 J0
G1 X151.91 Y31.605
G3 X151.842 Y31.668 I-0.042 J0.023
G1 Z-4.38 F60
G3 X151.82 Y31.652 Z-4.48 I0.108 J-0.168
X151.774 Y31.596 Z-4.553 I0.13 J-0.152
X151.75 Y31.5 Z-4.58 I0.176 J-0.096
X153.25 I0.75 J0 F240
G1 Y33
G3 X151.75 I-0.75 J0
G1 Y31.5
G3 X151.774 Y31.404 Z-4.553 I0.2 J0 F480
X151.82 Y31.348 Z-4.48 I0.176 J0.096
X151.842 Y31.332 Z-4.38 I0.13 J0.152
G0 Z5
X160.332 Y22.842
Z2
G1 Z-0.8 F60
G3 X160.348 Y22.82 Z-0.9 I0.168 J0.108
X160.404 Y22.774 Z-0.973 I0.152 J0.13
X160.5 Y22.75 Z-1 I0.096 J0.176
G1 X162 F240
G3 Y24.25 I0 J0.75
G1 X160.5
G3 Y22.75 I0 J-0.75
X160.523 Y22.84 I0 J0.048
G1 X160.395 Y22.91
G3 X160.332 Y22.842 I-0.023 J-0.042
G1 Z-1.8 F60
G3 X160.348 Y22.82 Z-1.9 I0.168 J0.108
X160.404 Y22.774 Z-1.973 I0.152 J0.13
X160.5 Y22.75 Z-2 I0.096 J0.176
G1 X162 F240
G3 Y24.25 I0 J0.75
G1 X160.5
G3 Y22.75 I0 J-0.75
X160.523 Y22.84 I0 J0.048
G1 X160.395 Y22.91
G3 X160.332 Y22.842 I-0.023 J-0.042
G1 Z-2.8 F60
G3 X160.348 Y22.82 Z-2.9 I0.168 J0.108
X160.404 Y22.774 Z-2.973 I0.152 J0.13
X160.5 Y22.75 Z-3 I0.096 J0.176
G1 X162 F240
G3 Y24.25 I0 J0.75
G1 X160.5
G3 Y22.75 I0 J-0.75
X160.523 Y22.84 I0 J0.048
G1 X160.395 Y22.91
G3 X160.332 Y22.842 I-0.023 J-0.042
G1 Z-3.8 F60
G3 X160.348 Y22.82 Z-3.9 I0.168 J0.108
X160.404 Y22.774 Z-3.973 I0.152 J0.13
X160.5 Y22.75 Z-4 I0.096 J0.176
G1 X162 F240
G3 Y24.25 I0 J0.75
G1 X160.5
G3 Y22.75 I0 J-0.75
X160.523 Y22.84 I0 J0.048
G1 X160.395 Y22.91
G3 X160.332 Y22.842 I-0.023 J-0.042
G1 Z-4.38 F60
G3 X160.348 Y22.82 Z-4.48 I0.168 J0.108
X160.404 Y22.774 Z-4.553 I0.152 J0.13
X160.5 Y22.75 Z-4.58 I0.096 J0.176
G1 X162 F240
G3 Y24.25 I0 J0.75
G1 X160.5
G3 Y22.75 I0 J-0.75
X160.596 Y22.774 Z-4.553 I0 J0.2 F480
X160.652 Y22.82 Z-4.48 I-0.096 J0.176
X160.668 Y22.842 Z-4.38 I-0.152 J0.13
G0 Z5
X151.842 Y14.168
Z2
G1 Z-0.8 F60
G3 X151.82 Y14.152 Z-0.9 I0.108 J-0.168
X151.774 Y14.096 Z-0.973 I0.13 J-0.152
X151.75 Y14 Z-1 I0.176 J-0.096
X153.25 I0.75 J0 F240
G1 Y15.5
G3 X151.75 I-0.75 J0
G1 Y14
G3 X151.84 Y13.977 I0.048 J0
G1 X151.91 Y14.105
G3 X151.842 Y14.168 I-0.042 J0.023
G1 Z-1.8 F60
G3 X151.82 Y14.152 Z-1.9 I0.108 J-0.168
X151.774 Y14.096 Z-1.973 I0.13 J-0.152
X151.75 Y14 Z-2 I0.176 J-0.096
X153.25 I0.75 J0 F240
G1 Y15.5
G3 X151.75 I-0.75 J0
G1 Y14
G3 X151.84 Y13.977 I0.048 J0
G1 X151.91 Y14.105
G3 X151.842 Y14.168 I-0.042 J0.023
G1 Z-2.8 F60
G3 X151.82 Y14.152 Z-2.9 I0.108 J-0.168
X151.774 Y14.096 Z-2.973 I0.13 J-0.152
X151.75 Y14 Z-3 I0.176 J-0.096
X153.25 I0.75 J0 F240
G1 Y15.5
G3 X151.75 I-0.75 J0
G1 Y14
G3 X151.84 Y13.977 I0.048 J0
G1 X151.91 Y14.105
G3 X151.842 Y14.168 I-0.042 J0.023
G1 Z-3.8 F60
G3 X151.82 Y14.152 Z-3.9 I0.108 J-0.168
X151.774 Y14.096 Z-3.973 I0.13 J-0.152
X151.75 Y14 Z-4 I0.176 J-0.096
X153.25 I0.75 J0 F240
G1 Y15.5
G3 X151.75 I-0.75 J0
G1 Y14
G3 X151.84 Y13.977 I0.048 J0
G1 X151.91 Y14.105
G3 X151.842 Y14.168 I-0.042 J0.023
G1 Z-4.38 F60
G3 X151.82 Y14.152 Z-4.48 I0.108 J-0.168
X151.774 Y14.096 Z-4.553 I0.13 J-0.152
X151.75 Y14 Z-4.58 I0.176 J-0.096
X153.25 I0.75 J0 F240
G1 Y15.5
G3 X151.75 I-0.75 J0
G1 Y14
G3 X151.774 Y13.904 Z-4.553 I0.2 J0 F480
X151.82 Y13.848 Z-4.48 I0.176 J0.096
X151.842 Y13.832 Z-4.38 I0.13 J0.152
G0 Z5
X152.85 Y23.3
Z2
G1 Z-0.8 F60
Y23.307 Z-0.852
Y23.327 Z-0.9
Y23.359 Z-0.941
Y23.4 Z-0.973
Y23.448 Z-0.993
Y23.5 Z-1
G3 X152.15 I-0.35 J0 F240
X154.75 I1.3 J0
X150.25 I-2.25 J0
X154.75 I2.25 J0
X154.472 Y23.684 I-0.2 J0
G1 X153.128 Y23.116
G2 X152.85 Y23.3 I-0.078 J0.184
G1 Z-1.8 F60
Y23.307 Z-1.852
Y23.327 Z-1.9
Y23.359 Z-1.941
Y23.4 Z-1.973
Y23.448 Z-1.993
Y23.5 Z-2
G3 X152.15 I-0.35 J0 F240
X154.75 I1.3 J0
X150.25 I-2.25 J0
X154.75 I2.25 J0
X154.472 Y23.684 I-0.2 J0
G1 X153.128 Y23.116
G2 X152.85 Y23.3 I-0.078 J0.184
G1 Z-2.8 F60
Y23.307 Z-2.852
Y23.327 Z-2.9
Y23.359 Z-2.941
Y23.4 Z-2.973
Y23.448 Z-2.993
Y23.5 Z-3
G3 X152.15 I-0.35 J0 F240
X154.75 I1.3 J0
X150.25 I-2.25 J0
X154.75 I2.25 J0
X154.472 Y23.684 I-0.2 J0
G1 X153.128 Y23.116
G2 X152.85 Y23.3 I-0.078 J0.184
G1 Z-3.8 F60
Y23.307 Z-3.852
Y23.327 Z-3.9
Y23.359 Z-3.941
Y23.4 Z-3.973
Y23.448 Z-3.993
Y23.5 Z-4
G3 X152.15 I-0.35 J0 F240
X154.75 I1.3 J0
X150.25 I-2.25 J0
X154.75 I2.25 J0
X154.472 Y23.684 I-0.2 J0
G1 X153.128 Y23.116
G2 X152.85 Y23.3 I-0.078 J0.184
G1 Z-4.38 F60
Y23.307 Z-4.432
Y23.327 Z-4.48
Y23.359 Z-4.521
Y23.4 Z-4.553
Y23.448 Z-4.573
Y23.5 Z-4.58
G3 X152.15 I-0.35 J0 F240
X154.75 I1.3 J0
X150.25 I-2.25 J0
X154.75 I2.25 J0
X154.726 Y23.596 Z-4.553 I-0.2 J0 F480
X154.68 Y23.652 Z-4.48 I-0.176 J-0.096
X154.658 Y23.668 Z-4.38 I-0.13 J-0.152
G0 Z5
X148.636 Y7.808
Z2
G1 Z-0.8 F60
G3 X148.62 Y7.83 Z-0.9 I-0.168 J-0.108
X148.564 Y7.876 Z-0.973 I-0.152 J-0.13
X148.468 Y7.9 Z-1 I-0.096 J-0.176
Y7.1 I0 J-0.4 F240
Y7.9 I0 J0.4
X148.445 Y7.81 I0 J-0.048
G1 X148.573 Y7.74
G3 X148.636 Y7.808 I0.023 J0.042
G1 Z-1.8 F60
G3 X148.62 Y7.83 Z-1.9 I-0.168 J-0.108
X148.564 Y7.876 Z-1.973 I-0.152 J-0.13
X148.468 Y7.9 Z-2 I-0.096 J-0.176
Y7.1 I0 J-0.4 F240
Y7.9 I0 J0.4
X148.445 Y7.81 I0 J-0.048
G1 X148.573 Y7.74
G3 X148.636 Y7.808 I0.023 J0.042
G1 Z-2.8 F60
G3 X148.62 Y7.83 Z-2.9 I-0.168 J-0.108
X148.564 Y7.876 Z-2.973 I-0.152 J-0.13
X148.468 Y7.9 Z-3 I-0.096 J-0.176
Y7.1 I0 J-0.4 F240
Y7.9 I0 J0.4
X148.445 Y7.81 I0 J-0.048
G1 X148.573 Y7.74
G3 X148.636 Y7.808 I0.023 J0.042
G1 Z-3.8 F60
G3 X148.62 Y7.83 Z-3.9 I-0.168 J-0.108
X148.564 Y7.876 Z-3.973 I-0.152 J-0.13
X148.468 Y7.9 Z-4 I-0.096 J-0.176
Y7.1 I0 J-0.4 F240
Y7.9 I0 J0.4
X148.445 Y7.81 I0 J-0.048
G1 X148.573 Y7.74
G3 X148.636 Y7.808 I0.023 J0.042
G1 Z-4.38 F60
G3 X148.62 Y7.83 Z-4.48 I-0.168 J-0.108
X148.564 Y7.876 Z-4.553 I-0.152 J-0.13
X148.468 Y7.9 Z-4.58 I-0.096 J-0.176
Y7.1 I0 J-0.4 F240
Y7.9 I0 J0.4
X148.372 Y7.876 Z-4.553 I0 J-0.2 F480
X148.316 Y7.83 Z-4.48 I0.096 J-0.176
X148.3 Y7.808 Z-4.38 I0.152 J-0.13
G0 Z5
X164.335 Y12.141
Z2
G1 Z-0.8 F60
G3 X164.319 Y12.162 Z-0.9 I-0.168 J-0.108
X164.263 Y12.208 Z-0.973 I-0.152 J-0.13
X164.167 Y12.233 Z-1 I-0.096 J-0.176
Y11.433 I0 J-0.4 F240
Y12.233 I0 J0.4
X164.144 Y12.143 I0 J-0.048
G1 X164.272 Y12.073
G3 X164.335 Y12.141 I0.023 J0.042
G1 Z-1.8 F60
G3 X164.319 Y12.162 Z-1.9 I-0.168 J-0.108
X164.263 Y12.208 Z-1.973 I-0.152 J-0.13
X164.167 Y12.233 Z-2 I-0.096 J-0.176
Y11.433 I0 J-0.4 F240
Y12.233 I0 J0.4
X164.144 Y12.143 I0 J-0.048
G1 X164.272 Y12.073
G3 X164.335 Y12.141 I0.023 J0.042
G1 Z-2.8 F60
G3 X164.319 Y12.162 Z-2.9 I-0.168 J-0.108
X164.263 Y12.208 Z-2.973 I-0.152 J-0.13
X164.167 Y12.233 Z-3 I-0.096 J-0.176
Y11.433 I0 J-0.4 F240
Y12.233 I0 J0.4
X164.144 Y12.143 I0 J-0.048
G1 X164.272 Y12.073
G3 X164.335 Y12.141 I0.023 J0.042
G1 Z-3.8 F60
G3 X164.319 Y12.162 Z-3.9 I-0.168 J-0.108
X164.263 Y12.208 Z-3.973 I-0.152 J-0.13
X164.167 Y12.233 Z-4 I-0.096 J-0.176
Y11.433 I0 J-0.4 F240
Y12.233 I0 J0.4
X164.144 Y12.143 I0 J-0.048
G1 X164.272 Y12.073
G3 X164.335 Y12.141 I0.023 J0.042
G1 Z-4.38 F60
G3 X164.319 Y12.162 Z-4.48 I-0.168 J-0.108
X164.263 Y12.208 Z-4.553 I-0.152 J-0.13
X164.167 Y12.233 Z-4.58 I-0.096 J-0.176
Y11.433 I0 J-0.4 F240
Y12.233 I0 J0.4
X164.071 Y12.208 Z-4.553 I0 J-0.2 F480
X164.015 Y12.162 Z-4.48 I0.096 J-0.176
X163.999 Y12.141 Z-4.38 I0.152 J-0.13
G0 Z5
X168.153 Y27.482
Z2
G1 Z-0.8 F60
G3 X168.145 Y27.456 Z-0.9 I0.187 J-0.07
X168.142 Y27.384 Z-0.973 I0.195 J-0.044
X168.18 Y27.292 Z-1 I0.198 J0.029
X168.82 Y27.772 I0.32 J0.24 F240
X168.18 Y27.292 I-0.32 J-0.24
X168.266 Y27.328 I0.038 J0.029
G1 X168.245 Y27.472
G3 X168.153 Y27.482 I-0.047 J-0.007
G1 Z-1.8 F60
G3 X168.145 Y27.456 Z-1.9 I0.187 J-0.07
X168.142 Y27.384 Z-1.973 I0.195 J-0.044
X168.18 Y27.292 Z-2 I0.198 J0.029
X168.82 Y27.772 I0.32 J0.24 F240
X168.18 Y27.292 I-0.32 J-0.24
X168.266 Y27.328 I0.038 J0.029
G1 X168.245 Y27.472
G3 X168.153 Y27.482 I-0.047 J-0.007
G1 Z-2.8 F60
G3 X168.145 Y27.456 Z-2.9 I0.187 J-0.07
X168.142 Y27.384 Z-2.973 I0.195 J-0.044
X168.18 Y27.292 Z-3 I0.198 J0.029
X168.82 Y27.772 I0.32 J0.24 F240
X168.18 Y27.292 I-0.32 J-0.24
X168.266 Y27.328 I0.038 J0.029
G1 X168.245 Y27.472
G3 X168.153 Y27.482 I-0.047 J-0.007
G1 Z-3.8 F60
G3 X168.145 Y27.456 Z-3.9 I0.187 J-0.07
X168.142 Y27.384 Z-3.973 I0.195 J-0.044
X168.18 Y27.292 Z-4 I0.198 J0.029
X168.82 Y27.772 I0.32 J0.24 F240
X168.18 Y27.292 I-0.32 J-0.24
X168.266 Y27.328 I0.038 J0.029
G1 X168.245 Y27.472
G3 X168.153 Y27.482 I-0.047 J-0.007
G1 Z-4.38 F60
G3 X168.145 Y27.456 Z-4.48 I0.187 J-0.07
X168.142 Y27.384 Z-4.553 I0.195 J-0.044
X168.18 Y27.292 Z-4.58 I0.198 J0.029
X168.82 Y27.772 I0.32 J0.24 F240
X168.18 Y27.292 I-0.32 J-0.24
X168.257 Y27.23 Z-4.553 I0.16 J0.12 F480
X168.328 Y27.213 Z-4.48 I0.083 J0.182
X168.355 Z-4.38 I0.012 J0.2
G0 Z5
X72.082 Y103.242
Z2
G1 Z-0.8 F60
G3 X72.098 Y103.22 Z-0.9 I0.168 J0.108
X72.154 Y103.174 Z-0.973 I0.152 J0.13
X72.25 Y103.15 Z-1 I0.096 J0.176
Y104.35 I0 J0.6 F240
Y103.15 I0 J-0.6
X72.273 Y103.24 I0 J0.048
G1 X72.145 Y103.31
G3 X72.082 Y103.242 I-0.023 J-0.042
G1 Z-1.8 F60
G3 X72.098 Y103.22 Z-1.9 I0.168 J0.108
X72.154 Y103.174 Z-1.973 I0.152 J0.13
X72.25 Y103.15 Z-2 I0.096 J0.176
Y104.35 I0 J0.6 F240
Y103.15 I0 J-0.6
X72.273 Y103.24 I0 J0.048
G1 X72.145 Y103.31
G3 X72.082 Y103.242 I-0.023 J-0.042
G1 Z-2.8 F60
G3 X72.098 Y103.22 Z-2.9 I0.168 J0.108
X72.154 Y103.174 Z-2.973 I0.152 J0.13
X72.25 Y103.15 Z-3 I0.096 J0.176
Y104.35 I0 J0.6 F240
Y103.15 I0 J-0.6
X72.273 Y103.24 I0 J0.048
G1 X72.145 Y103.31
G3 X72.082 Y103.242 I-0.023 J-0.042
G1 Z-3.8 F60
G3 X72.098 Y103.22 Z-3.9 I0.168 J0.108
X72.154 Y103.174 Z-3.973 I0.152 J0.13
X72.25 Y103.15 Z-4 I0.096 J0.176
Y104.35 I0 J0.6 F240
Y103.15 I0 J-0.6
X72.273 Y103.24 I0 J0.048
G1 X72.145 Y103.31
G3 X72.082 Y103.242 I-0.023 J-0.042
G1 Z-4.38 F60
G3 X72.098 Y103.22 Z-4.48 I0.168 J0.108
X72.154 Y103.174 Z-4.553 I0.152 J0.13
X72.25 Y103.15 Z-4.58 I0.096 J0.176
Y104.35 I0 J0.6 F240
Y103.15 I0 J-0.6
X72.346 Y103.174 Z-4.553 I0 J0.2 F480
X72.402 Y103.22 Z-4.48 I-0.096 J0.176
X72.418 Y103.242 Z-4.38 I-0.152 J0.13
G0 Z5
X72.082 Y72.742
Z2
G1 Z-0.8 F60
G3 X72.098 Y72.72 Z-0.9 I0.168 J0.108
X72.154 Y72.674 Z-0.973 I0.152 J0.13
X72.25 Y72.65 Z-1 I0.096 J0.176
Y73.85 I0 J0.6 F240
Y72.65 I0 J-0.6
X72.273 Y72.74 I0 J0.048
G1 X72.145 Y72.81
G3 X72.082 Y72.742 I-0.023 J-0.042
G1 Z-1.8 F60
G3 X72.098 Y72.72 Z-1.9 I0.168 J0.108
X72.154 Y72.674 Z-1.973 I0.152 J0.13
X72.25 Y72.65 Z-2 I0.096 J0.176
Y73.85 I0 J0.6 F240
Y72.65 I0 J-0.6
X72.273 Y72.74 I0 J0.048
G1 X72.145 Y72.81
G3 X72.082 Y72.742 I-0.023 J-0.042
G1 Z-2.8 F60
G3 X72.098 Y72.72 Z-2.9 I0.168 J0.108
X72.154 Y72.674 Z-2.973 I0.152 J0.13
X72.25 Y72.65 Z-3 I0.096 J0.176
Y73.85 I0 J0.6 F240
Y72.65 I0 J-0.6
X72.273 Y72.74 I0 J0.048
G1 X72.145 Y72.81
G3 X72.082 Y72.742 I-0.023 J-0.042
G1 Z-3.8 F60
G3 X72.098 Y72.72 Z-3.9 I0.168 J0.108
X72.154 Y72.674 Z-3.973 I0.152 J0.13
X72.25 Y72.65 Z-4 I0.096 J0.176
Y73.85 I0 J0.6 F240
Y72.65 I0 J-0.6
X72.273 Y72.74 I0 J0.048
G1 X72.145 Y72.81
G3 X72.082 Y72.742 I-0.023 J-0.042
G1 Z-4.38 F60
G3 X72.098 Y72.72 Z-4.48 I0.168 J0.108
X72.154 Y72.674 Z-4.553 I0.152 J0.13
X72.25 Y72.65 Z-4.58 I0.096 J0.176
Y73.85 I0 J0.6 F240
Y72.65 I0 J-0.6
X72.346 Y72.674 Z-4.553 I0 J0.2 F480
X72.402 Y72.72 Z-4.48 I-0.096 J0.176
X72.418 Y72.742 Z-4.38 I-0.152 J0.13
G0 Z5
X102.582
Z2
G1 Z-0.8 F60
G3 X102.598 Y72.72 Z-0.9 I0.168 J0.108
X102.654 Y72.674 Z-0.973 I0.152 J0.13
X102.75 Y72.65 Z-1 I0.096 J0.176
Y73.85 I0 J0.6 F240
Y72.65 I0 J-0.6
X102.773 Y72.74 I0 J0.048
G1 X102.645 Y72.81
G3 X102.582 Y72.742 I-0.023 J-0.042
G1 Z-1.8 F60
G3 X102.598 Y72.72 Z-1.9 I0.168 J0.108
X102.654 Y72.674 Z-1.973 I0.152 J0.13
X102.75 Y72.65 Z-2 I0.096 J0.176
Y73.85 I0 J0.6 F240
Y72.65 I0 J-0.6
X102.773 Y72.74 I0 J0.048
G1 X102.645 Y72.81
G3 X102.582 Y72.742 I-0.023 J-0.042
G1 Z-2.8 F60
G3 X102.598 Y72.72 Z-2.9 I0.168 J0.108
X102.654 Y72.674 Z-2.973 I0.152 J0.13
X102.75 Y72.65 Z-3 I0.096 J0.176
Y73.85 I0 J0.6 F240
Y72.65 I0 J-0.6
X102.773 Y72.74 I0 J0.048
G1 X102.645 Y72.81
G3 X102.582 Y72.742 I-0.023 J-0.042
G1 Z-3.8 F60
G3 X102.598 Y72.72 Z-3.9 I0.168 J0.108
X102.654 Y72.674 Z-3.973 I0.152 J0.13
X102.75 Y72.65 Z-4 I0.096 J0.176
Y73.85 I0 J0.6 F240
Y72.65 I0 J-0.6
X102.773 Y72.74 I0 J0.048
G1 X102.645 Y72.81
G3 X102.582 Y72.742 I-0.023 J-0.042
G1 Z-4.38 F60
G3 X102.598 Y72.72 Z-4.48 I0.168 J0.108
X102.654 Y72.674 Z-4.553 I0.152 J0.13
X102.75 Y72.65 Z-4.58 I0.096 J0.176
Y73.85 I0 J0.6 F240
Y72.65 I0 J-0.6
X102.846 Y72.674 Z-4.553 I0 J0.2 F480
X102.902 Y72.72 Z-4.48 I-0.096 J0.176
X102.918 Y72.742 Z-4.38 I-0.152 J0.13
G0 Z5
X102.582 Y103.242
Z2
G1 Z-0.8 F60
G3 X102.598 Y103.22 Z-0.9 I0.168 J0.108
X102.654 Y103.174 Z-0.973 I0.152 J0.13
X102.75 Y103.15 Z-1 I0.096 J0.176
Y104.35 I0 J0.6 F240
Y103.15 I0 J-0.6
X102.773 Y103.24 I0 J0.048
G1 X102.645 Y103.31
G3 X102.582 Y103.242 I-0.023 J-0.042
G1 Z-1.8 F60
G3 X102.598 Y103.22 Z-1.9 I0.168 J0.108
X102.654 Y103.174 Z-1.973 I0.152 J0.13
X102.75 Y103.15 Z-2 I0.096 J0.176
Y104.35 I0 J0.6 F240
Y103.15 I0 J-0.6
X102.773 Y103.24 I0 J0.048
G1 X102.645 Y103.31
G3 X102.582 Y103.242 I-0.023 J-0.042
G1 Z-2.8 F60
G3 X102.598 Y103.22 Z-2.9 I0.168 J0.108
X102.654 Y103.174 Z-2.973 I0.152 J0.13
X102.75 Y103.15 Z-3 I0.096 J0.176
Y104.35 I0 J0.6 F240
Y103.15 I0 J-0.6
X102.773 Y103.24 I0 J0.048
G1 X102.645 Y103.31
G3 X102.582 Y103.242 I-0.023 J-0.042
G1 Z-3.8 F60
G3 X102.598 Y103.22 Z-3.9 I0.168 J0.108
X102.654 Y103.174 Z-3.973 I0.152 J0.13
X102.75 Y103.15 Z-4 I0.096 J0.176
Y104.35 I0 J0.6 F240
Y103.15 I0 J-0.6
X102.773 Y103.24 I0 J0.048
G1 X102.645 Y103.31
G3 X102.582 Y103.242 I-0.023 J-0.042
G1 Z-4.38 F60
G3 X102.598 Y103.22 Z-4.48 I0.168 J0.108
X102.654 Y103.174 Z-4.553 I0.152 J0.13
X102.75 Y103.15 Z-4.58 I0.096 J0.176
Y104.35 I0 J0.6 F240
Y103.15 I0 J-0.6
X102.846 Y103.174 Z-4.553 I0 J0.2 F480
X102.902 Y103.22 Z-4.48 I-0.096 J0.176
X102.918 Y103.242 Z-4.38 I-0.152 J0.13
G0 Z5
X72.082 Y121.242
Z2
G1 Z-0.8 F60
G3 X72.098 Y121.22 Z-0.9 I0.168 J0.108
X72.154 Y121.174 Z-0.973 I0.152 J0.13
X72.25 Y121.15 Z-1 I0.096 J0.176
Y122.35 I0 J0.6 F240
Y121.15 I0 J-0.6
X72.273 Y121.24 I0 J0.048
G1 X72.145 Y121.31
G3 X72.082 Y121.242 I-0.023 J-0.042
G1 Z-1.8 F60
G3 X72.098 Y121.22 Z-1.9 I0.168 J0.108
X72.154 Y121.174 Z-1.973 I0.152 J0.13
X72.25 Y121.15 Z-2 I0.096 J0.176
Y122.35 I0 J0.6 F240
Y121.15 I0 J-0.6
X72.273 Y121.24 I0 J0.048
G1 X72.145 Y121.31
G3 X72.082 Y121.242 I-0.023 J-0.042
G1 Z-2.8 F60
G3 X72.098 Y121.22 Z-2.9 I0.168 J0.108
X72.154 Y121.174 Z-2.973 I0.152 J0.13
X72.25 Y121.15 Z-3 I0.096 J0.176
Y122.35 I0 J0.6 F240
Y121.15 I0 J-0.6
X72.273 Y121.24 I0 J0.048
G1 X72.145 Y121.31
G3 X72.082 Y121.242 I-0.023 J-0.042
G1 Z-3.8 F60
G3 X72.098 Y121.22 Z-3.9 I0.168 J0.108
X72.154 Y121.174 Z-3.973 I0.152 J0.13
X72.25 Y121.15 Z-4 I0.096 J0.176
Y122.35 I0 J0.6 F240
Y121.15 I0 J-0.6
X72.273 Y121.24 I0 J0.048
G1 X72.145 Y121.31
G3 X72.082 Y121.242 I-0.023 J-0.042
G1 Z-4.38 F60
G3 X72.098 Y121.22 Z-4.48 I0.168 J0.108
X72.154 Y121.174 Z-4.553 I0.152 J0.13
X72.25 Y121.15 Z-4.58 I0.096 J0.176
Y122.35 I0 J0.6 F240
Y121.15 I0 J-0.6
X72.346 Y121.174 Z-4.553 I0 J0.2 F480
X72.402 Y121.22 Z-4.48 I-0.096 J0.176
X72.418 Y121.242 Z-4.38 I-0.152 J0.13
G0 Z5
X102.582
Z2
G1 Z-0.8 F60
G3 X102.598 Y121.22 Z-0.9 I0.168 J0.108
X102.654 Y121.174 Z-0.973 I0.152 J0.13
X102.75 Y121.15 Z-1 I0.096 J0.176
Y122.35 I0 J0.6 F240
Y121.15 I0 J-0.6
X102.773 Y121.24 I0 J0.048
G1 X102.645 Y121.31
G3 X102.582 Y121.242 I-0.023 J-0.042
G1 Z-1.8 F60
G3 X102.598 Y121.22 Z-1.9 I0.168 J0.108
X102.654 Y121.174 Z-1.973 I0.152 J0.13
X102.75 Y121.15 Z-2 I0.096 J0.176
Y122.35 I0 J0.6 F240
Y121.15 I0 J-0.6
X102.773 Y121.24 I0 J0.048
G1 X102.645 Y121.31
G3 X102.582 Y121.242 I-0.023 J-0.042
G1 Z-2.8 F60
G3 X102.598 Y121.22 Z-2.9 I0.168 J0.108
X102.654 Y121.174 Z-2.973 I0.152 J0.13
X102.75 Y121.15 Z-3 I0.096 J0.176
Y122.35 I0 J0.6 F240
Y121.15 I0 J-0.6
X102.773 Y121.24 I0 J0.048
G1 X102.645 Y121.31
G3 X102.582 Y121.242 I-0.023 J-0.042
G1 Z-3.8 F60
G3 X102.598 Y121.22 Z-3.9 I0.168 J0.108
X102.654 Y121.174 Z-3.973 I0.152 J0.13
X102.75 Y121.15 Z-4 I0.096 J0.176
Y122.35 I0 J0.6 F240
Y121.15 I0 J-0.6
X102.773 Y121.24 I0 J0.048
G1 X102.645 Y121.31
G3 X102.582 Y121.242 I-0.023 J-0.042
G1 Z-4.38 F60
G3 X102.598 Y121.22 Z-4.48 I0.168 J0.108
X102.654 Y121.174 Z-4.553 I0.152 J0.13
X102.75 Y121.15 Z-4.58 I0.096 J0.176
Y122.35 I0 J0.6 F240
Y121.15 I0 J-0.6
X102.846 Y121.174 Z-4.553 I0 J0.2 F480
X102.902 Y121.22 Z-4.48 I-0.096 J0.176
X102.918 Y121.242 Z-4.38 I-0.152 J0.13
G0 Z5
X112.063 Y111.411
Z2
G1 Z-0.8 F60
G3 X112.067 Y111.437 Z-0.9 I-0.195 J0.043
X112.059 Y111.51 Z-0.973 I-0.199 J0.016
X112.009 Y111.595 Z-1 I-0.192 J-0.056
G1 X110.595 Y113.009 F240
G3 X110.241 Y112.655 I-0.177 J-0.177
G1 X111.655 Y111.241
G3 X112.009 Y111.595 I0.177 J0.177
X111.929 Y111.547 I-0.034 J-0.034
G1 X111.97 Y111.408
G3 X112.063 Y111.411 I0.046 J0.013
G1 Z-1.8 F60
G3 X112.067 Y111.437 Z-1.9 I-0.195 J0.043
X112.059 Y111.51 Z-1.973 I-0.199 J0.016
X112.009 Y111.595 Z-2 I-0.192 J-0.056
G1 X110.595 Y113.009 F240
G3 X110.241 Y112.655 I-0.177 J-0.177
G1 X111.655 Y111.241
G3 X112.009 Y111.595 I0.177 J0.177
X111.929 Y111.547 I-0.034 J-0.034
G1 X111.97 Y111.408
G3 X112.063 Y111.411 I0.046 J0.013
G1 Z-2.8 F60
G3 X112.067 Y111.437 Z-2.9 I-0.195 J0.043
X112.059 Y111.51 Z-2.973 I-0.199 J0.016
X112.009 Y111.595 Z-3 I-0.192 J-0.056
G1 X110.595 Y113.009 F240
G3 X110.241 Y112.655 I-0.177 J-0.177
G1 X111.655 Y111.241
G3 X112.009 Y111.595 I0.177 J0.177
X111.929 Y111.547 I-0.034 J-0.034
G1 X111.97 Y111.408
G3 X112.063 Y111.411 I0.046 J0.013
G1 Z-3.8 F60
G3 X112.067 Y111.437 Z-3.9 I-0.195 J0.043
X112.059 Y111.51 Z-3.973 I-0.199 J0.016
X112.009 Y111.595 Z-4 I-0.192 J-0.056
G1 X110.595 Y113.009 F240
G3 X110.241 Y112.655 I-0.177 J-0.177
G1 X111.655 Y111.241
G3 X112.009 Y111.595 I0.177 J0.177
X111.929 Y111.547 I-0.034 J-0.034
G1 X111.97 Y111.408
G3 X112.063 Y111.411 I0.046 J0.013
G1 Z-4.38 F60
G3 X112.067 Y111.437 Z-4.48 I-0.195 J0.043
X112.059 Y111.51 Z-4.553 I-0.199 J0.016
X112.009 Y111.595 Z-4.58 I-0.192 J-0.056
G1 X110.595 Y113.009 F240
G3 X110.241 Y112.655 I-0.177 J-0.177
G1 X111.655 Y111.241
G3 X112.009 Y111.595 I0.177 J0.177
X111.924 Y111.645 Z-4.553 I-0.141 J-0.141 F480
X111.851 Y111.653 Z-4.48 I-0.056 J-0.192
X111.825 Y111.649 Z-4.38 I0.016 J-0.199
G0 Z5
X110.411 Y63.937
Z2
G1 Z-0.8 F60
G3 X110.437 Y63.933 Z-0.9 I0.043 J0.195
X110.51 Y63.94 Z-0.973 I0.016 J0.199
X110.595 Y63.991 Z-1 I-0.056 J0.192
G1 X112.009 Y65.405 F240
G3 Y65.759 I-0.177 J0.177
X111.655 I-0.177 J-0.177
G1 X110.241 Y64.345
G3 Y63.991 I0.177 J-0.177
X110.595 I0.177 J0.177
X110.547 Y64.071 I-0.034 J0.034
G1 X110.408 Y64.03
G3 X110.411 Y63.937 I0.013 J-0.046
G1 Z-1.8 F60
G3 X110.437 Y63.933 Z-1.9 I0.043 J0.195
X110.51 Y63.94 Z-1.973 I0.016 J0.199
X110.595 Y63.991 Z-2 I-0.056 J0.192
G1 X112.009 Y65.405 F240
G3 Y65.759 I-0.177 J0.177
X111.655 I-0.177 J-0.177
G1 X110.241 Y64.345
G3 Y63.991 I0.177 J-0.177
X110.595 I0.177 J0.177
X110.547 Y64.071 I-0.034 J0.034
G1 X110.408 Y64.03
G3 X110.411 Y63.937 I0.013 J-0.046
G1 Z-2.8 F60
G3 X110.437 Y63.933 Z-2.9 I0.043 J0.195
X110.51 Y63.94 Z-2.973 I0.016 J0.199
X110.595 Y63.991 Z-3 I-0.056 J0.192
G1 X112.009 Y65.405 F240
G3 Y65.759 I-0.177 J0.177
X111.655 I-0.177 J-0.177
G1 X110.241 Y64.345
G3 Y63.991 I0.177 J-0.177
X110.595 I0.177 J0.177
X110.547 Y64.071 I-0.034 J0.034
G1 X110.408 Y64.03
G3 X110.411 Y63.937 I0.013 J-0.046
G1 Z-3.8 F60
G3 X110.437 Y63.933 Z-3.9 I0.043 J0.195
X110.51 Y63.94 Z-3.973 I0.016 J0.199
X110.595 Y63.991 Z-4 I-0.056 J0.192
G1 X112.009 Y65.405 F240
G3 Y65.759 I-0.177 J0.177
X111.655 I-0.177 J-0.177
G1 X110.241 Y64.345
G3 Y63.991 I0.177 J-0.177
X110.595 I0.177 J0.177
X110.547 Y64.071 I-0.034 J0.034
G1 X110.408 Y64.03
G3 X110.411 Y63.937 I0.013 J-0.046
G1 Z-4.38 F60
G3 X110.437 Y63.933 Z-4.48 I0.043 J0.195
X110.51 Y63.94 Z-4.553 I0.016 J0.199
X110.595 Y63.991 Z-4.58 I-0.056 J0.192
G1 X112.009 Y65.405 F240
G3 Y65.759 I-0.177 J0.177
X111.655 I-0.177 J-0.177
G1 X110.241 Y64.345
G3 Y63.991 I0.177 J-0.177
X110.595 I0.177 J0.177
X110.645 Y64.076 Z-4.553 I-0.141 J0.141 F480
X110.653 Y64.149 Z-4.48 I-0.192 J0.056
X110.649 Y64.175 Z-4.38 I-0.199 J-0.016
G0 Z5
X63.399 Y65.575
Z2
G1 Z-0.8 F60
G3 X63.403 Y65.601 Z-0.9 I-0.195 J0.043
X63.395 Y65.674 Z-0.973 I-0.199 J0.016
X63.345 Y65.759 Z-1 I-0.192 J-0.056
X62.991 Y65.405 I-0.177 J-0.177 F240
G1 X64.405 Y63.991
G3 X64.759 Y64.345 I0.177 J0.177
G1 X63.345 Y65.759
G3 X63.265 Y65.711 I-0.034 J-0.034
G1 X63.306 Y65.571
G3 X63.399 Y65.575 I0.046 J0.013
G1 Z-1.8 F60
G3 X63.403 Y65.601 Z-1.9 I-0.195 J0.043
X63.395 Y65.674 Z-1.973 I-0.199 J0.016
X63.345 Y65.759 Z-2 I-0.192 J-0.056
X62.991 Y65.405 I-0.177 J-0.177 F240
G1 X64.405 Y63.991
G3 X64.759 Y64.345 I0.177 J0.177
G1 X63.345 Y65.759
G3 X63.265 Y65.711 I-0.034 J-0.034
G1 X63.306 Y65.571
G3 X63.399 Y65.575 I0.046 J0.013
G1 Z-2.8 F60
G3 X63.403 Y65.601 Z-2.9 I-0.195 J0.043
X63.395 Y65.674 Z-2.973 I-0.199 J0.016
X63.345 Y65.759 Z-3 I-0.192 J-0.056
X62.991 Y65.405 I-0.177 J-0.177 F240
G1 X64.405 Y63.991
G3 X64.759 Y64.345 I0.177 J0.177
G1 X63.345 Y65.759
G3 X63.265 Y65.711 I-0.034 J-0.034
G1 X63.306 Y65.571
G3 X63.399 Y65.575 I0.046 J0.013
G1 Z-3.8 F60
G3 X63.403 Y65.601 Z-3.9 I-0.195 J0.043
X63.395 Y65.674 Z-3.973 I-0.199 J0.016
X63.345 Y65.759 Z-4 I-0.192 J-0.056
X62.991 Y65.405 I-0.177 J-0.177 F240
G1 X64.405 Y63.991
G3 X64.759 Y64.345 I0.177 J0.177
G1 X63.345 Y65.759
G3 X63.265 Y65.711 I-0.034 J-0.034
G1 X63.306 Y65.571
G3 X63.399 Y65.575 I0.046 J0.013
G1 Z-4.38 F60
G3 X63.403 Y65.601 Z-4.48 I-0.195 J0.043
X63.395 Y65.674 Z-4.553 I-0.199 J0.016
X63.345 Y65.759 Z-4.58 I-0.192 J-0.056
X62.991 Y65.405 I-0.177 J-0.177 F240
G1 X64.405 Y63.991
G3 X64.759 Y64.345 I0.177 J0.177
G1 X63.345 Y65.759
G3 X63.259 Y65.809 Z-4.553 I-0.141 J-0.141 F480
X63.187 Y65.817 Z-4.48 I-0.056 J-0.192
X63.161 Y65.813 Z-4.38 I0.016 J-0.199
G0 Z5
X64.575 Y112.601
Z2
G1 Z-0.8 F60
G3 X64.601 Y112.597 Z-0.9 I0.043 J0.195
X64.674 Y112.605 Z-0.973 I0.016 J0.199
X64.759 Y112.655 Z-1 I-0.056 J0.192
X64.405 Y113.009 I-0.177 J0.177 F240
G1 X62.991 Y111.595
G3 X63.345 Y111.241 I0.177 J-0.177
G1 X64.759 Y112.655
G3 X64.711 Y112.735 I-0.034 J0.034
G1 X64.572 Y112.694
G3 X64.575 Y112.601 I0.013 J-0.046
G1 Z-1.8 F60
G3 X64.601 Y112.597 Z-1.9 I0.043 J0.195
X64.674 Y112.605 Z-1.973 I0.016 J0.199
X64.759 Y112.655 Z-2 I-0.056 J0.192
X64.405 Y113.009 I-0.177 J0.177 F240
G1 X62.991 Y111.595
G3 X63.345 Y111.241 I0.177 J-0.177
G1 X64.759 Y112.655
G3 X64.711 Y112.735 I-0.034 J0.034
G1 X64.572 Y112.694
G3 X64.575 Y112.601 I0.013 J-0.046
G1 Z-2.8 F60
G3 X64.601 Y112.597 Z-2.9 I0.043 J0.195
X64.674 Y112.605 Z-2.973 I0.016 J0.199
X64.759 Y112.655 Z-3 I-0.056 J0.192
X64.405 Y113.009 I-0.177 J0.177 F240
G1 X62.991 Y111.595
G3 X63.345 Y111.241 I0.177 J-0.177
G1 X64.759 Y112.655
G3 X64.711 Y112.735 I-0.034 J0.034
G1 X64.572 Y112.694
G3 X64.575 Y112.601 I0.013 J-0.046
G1 Z-3.8 F60
G3 X64.601 Y112.597 Z-3.9 I0.043 J0.195
X64.674 Y112.605 Z-3.973 I0.016 J0.199
X64.759 Y112.655 Z-4 I-0.056 J0.192
X64.405 Y113.009 I-0.177 J0.177 F240
G1 X62.991 Y111.595
G3 X63.345 Y111.241 I0.177 J-0.177
G1 X64.759 Y112.655
G3 X64.711 Y112.735 I-0.034 J0.034
G1 X64.572 Y112.694
G3 X64.575 Y112.601 I0.013 J-0.046
G1 Z-4.38 F60
G3 X64.601 Y112.597 Z-4.48 I0.043 J0.195
X64.674 Y112.605 Z-4.553 I0.016 J0.199
X64.759 Y112.655 Z-4.58 I-0.056 J0.192
X64.405 Y113.009 I-0.177 J0.177 F240
G1 X62.991 Y111.595
G3 X63.345 Y111.241 I0.177 J-0.177
G1 X64.759 Y112.655
G3 X64.809 Y112.74 Z-4.553 I-0.141 J0.141 F480
X64.817 Y112.813 Z-4.48 I-0.192 J0.056
X64.813 Y112.839 Z-4.38 I-0.199 J-0.016
G0 Z15

(SLOTS)
M8
G0 X84.15 Y21.7
Z15
Z1
G1 Z0.5 F60
Z-0.58
Y19.8 F240
Z-1.58 F60
Y21.7 F240
Z-2.58 F60
Y19.8 F240
Z-3.58 F60
Y21.7 F240
Z-4.58 F60
Y19.8 F240
G0 Z5
X84.5 Y26.7
Z1
G1 Z0.5 F60
Z-0.58
Y24.8 F240
Z-1.58 F60
Y26.7 F240
Z-2.58 F60
Y24.8 F240
Z-3.58 F60
Y26.7 F240
Z-4.58 F60
Y24.8 F240
G0 Z5
X90.5 Y26.7
Z1
G1 Z0.5 F60
Z-0.58
Y24.8 F240
Z-1.58 F60
Y26.7 F240
Z-2.58 F60
Y24.8 F240
Z-3.58 F60
Y26.7 F240
Z-4.58 F60
Y24.8 F240
G0 Z5
X90.85 Y21.7
Z1
G1 Z0.5 F60
Z-0.58
Y19.8 F240
Z-1.58 F60
Y21.7 F240
Z-2.58 F60
Y19.8 F240
Z-3.58 F60
Y21.7 F240
Z-4.58 F60
Y19.8 F240
G0 Z5
X92.25 Y8.5
Z1
G1 Z0.5 F60
Z-0.58
Y5.5 F240
Z-1.58 F60
Y8.5 F240
Z-2.58 F60
Y5.5 F240
Z-3.58 F60
Y8.5 F240
Z-4.58 F60
Y5.5 F240
G0 Z5
X82.75 Y8.5
Z1
G1 Z0.5 F60
Z-0.58
Y5.5 F240
Z-1.58 F60
Y8.5 F240
Z-2.58 F60
Y5.5 F240
Z-3.58 F60
Y8.5 F240
Z-4.58 F60
Y5.5 F240
G0 Z15

(CENTER POCKET)
M8
G0 X87.01 Y98.834
Z15
Z5
G1 Z0.7 F120
G3 X87.035 Y98.837 Z0.602 I-0.128 J0.941 F60
X87.104 Y98.851 Z0.529 I-0.153 J0.938
X87.197 Y98.879 Z0.5 I-0.222 J0.924
X86.567 Y100.671 Z0.396 I-0.315 J0.896
X87.197 Y98.879 Z0.292 I0.315 J-0.896
X86.567 Y100.671 Z0.187 I-0.315 J0.896
X87.197 Y98.879 Z0.083 I0.315 J-0.896
X86.567 Y100.671 Z-0.021 I-0.315 J0.896
X87.197 Y98.879 Z-0.125 I0.315 J-0.896
X86.567 Y100.671 Z-0.23 I-0.315 J0.896
X87.197 Y98.879 Z-0.334 I0.315 J-0.896
X86.567 Y100.671 Z-0.438 I-0.315 J0.896
X87.197 Y98.879 Z-0.542 I0.315 J-0.896
X86.567 Y100.671 Z-0.646 I-0.315 J0.896
X87.197 Y98.879 Z-0.751 I0.315 J-0.896
X86.567 Y100.671 Z-0.855 I-0.315 J0.896
X87.197 Y98.879 Z-0.959 I0.315 J-0.896
X87.832 Y99.775 Z-1 I-0.315 J0.896
G1 Y101.28 F240
G3 X87.756 Y101.485 I-0.315 J0
G2 X87.401 Y101.921 I8.594 J7.365
G3 X87.168 Y101.842 I-0.103 J-0.08
G1 Y84.92
G3 X87.244 Y84.715 I0.315 J0
G1 X87.303 Y84.645
G3 X87.697 I0.197 J0.166
G1 X87.756 Y84.715
G3 X87.832 Y84.92 I-0.239 J0.205
G1 Y99.775
G2 X88.174 Y100.288 I0.556 J0
G3 X88.517 Y100.802 I-0.214 J0.513
G1 Y101.285
G3 X88.279 Y101.927 I-0.987 J0
G2 X86.664 Y104.463 I8.071 J6.923
G3 X86.483 Y104.424 I-0.086 J-0.039
G1 Y84.915
G3 X86.721 Y84.273 I0.987 J0
G2 X87.327 Y83.497 I-8.071 J-6.923
G3 X87.673 I0.173 J0.123
G2 X88.279 Y84.273 I8.677 J-6.147
G3 X88.517 Y84.915 I-0.749 J0.643
G1 Y100.802
G2 X89.063 Y101.533 I0.762 J0
G3 X89.338 Y102.402 I-0.156 J0.528
X89.284 Y102.467 I-1.044 J-0.829
G2 X87.413 Y105.571 I7.034 J6.354
X86.782 Y109.139 I9.776 J3.568
X86.834 Y111.865 I71.482 J0
G3 X86.534 Y112.177 I-0.301 J0.012
G1 X86.466
G3 X86.166 Y111.865 I0 J-0.301
G2 X86.218 Y109.139 I-70.653 J-2.711
X86.012 Y107.281 I-8.519 J0
X85.449 Y105.498 I-10.594 J2.368
G3 X85.373 Y105.113 I0.931 J-0.385
G1 Y84.627
G3 X85.716 Y83.733 I1.333 J0
G2 X87.36 Y81.198 I-7.066 J-6.383
G3 X87.64 I0.14 J0.062
G2 X89.284 Y83.733 I8.71 J-3.848
G3 X89.627 Y84.627 I-0.989 J0.894
G1 Y101.573
G3 X89.338 Y102.402 I-1.333 J0
G2 X89.274 Y103.006 I0.444 J0.353
G3 X89.221 Y103.611 I-0.524 J0.259
G2 X88.089 Y105.693 I7.091 J5.203
X87.458 Y109.139 I9.081 J3.446
G1 Y110.741
G2 X87.565 Y112.546 I15.264 J0
G3 X87.292 Y112.853 I-0.272 J0.032
G1 X85.708
G3 X85.435 Y112.546 I0 J-0.274
G2 X85.564 Y109.083 I-21.179 J-2.522
X84.803 Y105.703 I-9.81 J0.433
G3 X84.697 Y105.181 I1.239 J-0.522
G1 Y84.323
G3 X85.04 Y83.469 I1.235 J0
G2 X87.395 Y78.693 I-6.39 J-6.119
G3 X87.605 I0.105 J0.016
G2 X89.96 Y83.469 I8.745 J-1.343
G3 X90.303 Y84.323 I-0.892 J0.854
G1 Y101.877
G3 X89.96 Y102.731 I-1.235 J0
G2 X89.221 Y103.611 I6.352 J6.082
X89.192 Y104.642 I0.732 J0.537
G3 X89.264 Y105.672 I-0.893 J0.58
G2 X89.224 Y105.76 I7.277 J3.383
X88.56 Y108.85 I6.862 J3.09
G1 Y111.184
G2 X88.913 Y113.661 I8.878 J0
G3 X88.692 Y113.955 I-0.221 J0.064
G1 X84.308
G3 X84.087 Y113.661 I0 J-0.23
G2 X84.424 Y111.412 I-8.155 J-2.369
X84.44 Y109.139 I-159.613 J-2.273
X84.263 Y107.598 I-6.8 J0
X83.784 Y106.124 I-8.824 J2.053
G3 X83.595 Y105.191 I2.206 J-0.932
G1 Y83.796
G3 X83.936 Y83.011 I1.074 J0
G2 X86.404 Y77.35 I-5.305 J-5.681
X86.399 Y77.207 I-2.288 J0
G3 X86.395 Y77.064 I2.284 J-0.143
X86.714 Y76.745 I0.319 J0
G1 X88.286
G3 X88.605 Y77.064 I0 J0.319
X88.601 Y77.207 I-2.288 J0
G2 X88.596 Y77.35 I2.284 J0.143
X91.064 Y83.011 I7.726 J0
G3 X91.405 Y83.796 I-0.733 J0.785
G1 Y102.404
G3 X91.064 Y103.189 I-1.074 J0
G2 X89.264 Y105.672 I5.477 J5.865
X89.522 Y107.033 I1.078 J0.501
G3 X90.012 Y108.329 I-1.107 J1.16
G2 X89.99 Y108.85 I6.125 J0.521
G1 Y111.5
G2 X90.304 Y113.4 I5.905 J0
X91.175 Y115.118 I6.476 J-2.201
G3 X91.036 Y115.385 I-0.139 J0.097
G1 X82.28
G3 X81.965 Y115.07 I0 J-0.315
G1 Y115.001
G3 X82.012 Y114.835 I0.315 J0
G2 X82.744 Y113.237 I-5.907 J-3.673
X83.01 Y111.5 I-5.556 J-1.737
X82.968 Y108.964 I-78.029 J0
X82.385 Y106.495 I-6.389 J0.208
G3 X82.165 Y105.493 I2.175 J-1.003
G1 Y83.039
G3 X82.502 Y82.354 I0.866 J0
G2 X84.338 Y80.144 I-3.99 J-5.182
X85.01 Y77.35 I-5.475 J-2.794
X84.991 Y76.484 I-20.177 J0
X84.922 Y75.62 I-11.872 J0.51
G3 X85.194 Y75.315 I0.272 J-0.032
G1 X89.806
G3 X90.078 Y75.62 I0 J0.274
G2 X90.009 Y76.484 I11.803 J1.374
X89.99 Y77.35 I20.159 J0.866
X90.662 Y80.144 I6.147 J0
X92.498 Y82.354 I5.826 J-2.972
G3 X92.835 Y83.039 I-0.528 J0.686
G1 Y103.161
G3 X92.498 Y103.846 I-0.866 J0
G2 X90.662 Y106.056 I3.99 J5.182
X90.012 Y108.329 I5.475 J2.794
X90.622 Y109.36 I1.028 J0.087
G3 X91.274 Y110.363 I-0.446 J1.004
G1 Y111.5
G2 X92.06 Y114.171 I4.931 J0
X94.142 Y116.02 I4.356 J-2.808
G3 X94.319 Y116.304 I-0.138 J0.283
G1 Y116.35
G3 X94 Y116.669 I-0.319 J0
G1 X80.996
G3 X80.681 Y116.354 I0 J-0.315
G1 Y114.928
G3 X80.892 Y114.205 I1.345 J0
G2 X81.671 Y111.732 I-4.212 J-2.686
X81.726 Y109.139 I-60.941 J-2.593
X81.566 Y107.969 I-4.363 J0
X81.139 Y106.868 I-5.788 J1.611
G3 X80.881 Y105.786 I2.137 J-1.081
G1 Y82.262
G3 X81.213 Y81.679 I0.678 J0
G2 X83.043 Y79.847 I-2.653 J-4.48
X83.726 Y77.35 I-4.226 J-2.497
X83.647 Y75.807 I-15.098 J0
X83.25 Y74.313 I-4.909 J0.504
G3 X83.433 Y74.031 I0.184 J-0.081
G1 X91.567
G3 X91.75 Y74.313 I0 J0.201
G2 X91.353 Y75.807 I4.512 J1.998
X91.274 Y77.35 I15.019 J1.543
X91.957 Y79.847 I4.909 J0
X93.787 Y81.679 I4.483 J-2.649
G3 X94.119 Y82.262 I-0.346 J0.583
G1 Y103.938
G3 X93.787 Y104.521 I-0.678 J0
G2 X91.957 Y106.353 I2.653 J4.48
X91.274 Y108.85 I4.226 J2.497
G1 Y110.363
G2 X91.945 Y111.422 I1.171 J0
G3 X92.742 Y112.389 I-0.628 J1.33
G2 X93.399 Y113.726 I3.499 J-0.889
X95.355 Y115.037 I2.982 J-2.335
G3 X95.676 Y115.46 I-0.119 J0.424
G1 Y117.707
G3 X95.357 Y118.026 I-0.319 J0
G1 X79.639
G3 X79.324 Y117.711 I0 J-0.315
G1 Y114.609
G3 X79.635 Y113.642 I1.66 J0
G2 X80.355 Y111.448 I-3.122 J-2.24
X80.369 Y109.139 I-193.626 J-2.309
X80.209 Y108.142 I-3.196 J0
X79.786 Y107.226 I-4.169 J1.369
G3 X79.524 Y106.291 I1.532 J-0.935
G1 Y81.276
G3 X79.847 Y80.823 I0.479 J0
G2 X81.664 Y79.49 I-1.237 J-3.591
X82.369 Y77.35 I-2.895 J-2.14
G1 Y76.35
G2 X81.67 Y74.219 I-3.599 J0
X79.868 Y72.884 I-3.062 J2.249
G3 X79.904 Y72.674 I0.036 J-0.102
G1 X95.096
G3 X95.132 Y72.884 I0 J0.108
G2 X93.33 Y74.219 I1.26 J3.584
X92.631 Y76.35 I2.901 J2.131
G1 Y77.35
G2 X93.336 Y79.49 I3.601 J0
X95.153 Y80.823 I3.054 J-2.258
G3 X95.476 Y81.276 I-0.156 J0.453
G1 Y104.924
G3 X95.153 Y105.377 I-0.479 J0
G2 X93.336 Y106.71 I1.237 J3.591
X92.631 Y108.85 I2.895 J2.14
G1 Y111.5
G2 X92.742 Y112.389 I3.61 J0
X93.627 Y113.096 I0.909 J-0.231
G3 X94.689 Y113.486 I-0.046 J1.764
G2 X96.35 Y114.073 I1.661 J-2.058
X96.406 Y114.071 I0 J-0.89
G3 X96.461 Y114.069 I0.056 J0.888
X96.781 Y114.389 I0 J0.319
G1 Y118.811
G3 X96.461 Y119.131 I-0.319 J0
G1 X78.535
G3 X78.219 Y118.815 I0 J-0.315
G1 Y114.036
G3 X78.528 Y113.254 I1.147 J0
G2 X79.287 Y111.266 I-2.064 J-1.927
G3 X79.264 Y109.139 I99.523 J-2.127
G2 X79.107 Y108.314 I-2.242 J0
X78.694 Y107.582 I-2.86 J1.132
G3 X78.419 Y106.768 I1.07 J-0.815
G1 Y80.24
G3 X78.731 Y79.918 I0.322 J0
G2 X80.518 Y79.147 I-0.084 J-2.649
X81.264 Y77.35 I-1.789 J-1.797
G1 Y76.35
G2 X80.49 Y74.522 I-2.545 J0
X78.65 Y73.777 I-1.84 J1.9
X78.592 Y73.779 I0 J0.922
G3 X78.535 Y73.781 I-0.058 J-0.92
X78.219 Y73.465 I0 J-0.315
G1 Y71.889
G3 X78.539 Y71.569 I0.319 J0
G1 X96.461
G3 X96.781 Y71.889 I0 J0.319
G1 Y73.461
G3 X96.461 Y73.781 I-0.319 J0
X96.406 Y73.779 I0 J-0.89
G2 X96.35 Y73.777 I-0.056 J0.888
X94.51 Y74.522 I0 J2.645
X93.736 Y76.35 I1.77 J1.828
G1 Y77.35
G2 X94.482 Y79.147 I2.536 J0
X96.269 Y79.918 I1.87 J-1.878
G3 X96.581 Y80.24 I-0.01 J0.322
G1 Y105.96
G3 X96.269 Y106.282 I-0.322 J0
G2 X94.482 Y107.053 I0.084 J2.649
X93.736 Y108.85 I1.789 J1.797
G1 Y111.5
G2 X94.51 Y113.328 I2.545 J0
X94.689 Y113.486 I1.84 J-1.9
X96.434 Y113.278 I0.771 J-0.955
G3 X98.011 Y112.5 I1.576 J1.208
G1 X98.35
Y120.7
X76.65
Y112.5
G2 X77.65 Y111.5 I0 J-1
G1 Y109.139
G2 X76.557 Y108.143 I-1 J0
X76.85 Y107.436 I-0.707 J-0.707
G1 Y78.764
G2 X76.56 Y78.06 I-1 J0
X77.264 Y78.35 I0.704 J-0.71
G1 X78.65
G2 X79.65 Y77.35 I0 J-1
G1 Y76.35
G2 X78.65 Y75.35 I-1 J0
G1 X76.65
Y70
X98.35
Y75.35
X96.35
G2 X95.35 Y76.35 I0 J1
G1 Y77.35
G2 X96.35 Y78.35 I1 J0
G1 X97.736
G2 X98.44 Y78.06 I0 J-1
X98.15 Y78.764 I0.71 J0.704
G1 Y99.775
Y107.436
G2 X98.434 Y108.134 I1 J0
X97.736 Y107.85 I-0.698 J0.716
G1 X96.35
G2 X95.35 Y108.85 I0 J1
G1 Y111.5
G2 X96.35 Y112.5 I1 J0
G1 X98.011
G3 X98.09 Y112.661 I0 J0.1
G1 X97.771 Y113.079
G3 X95.806 Y112.902 I-0.908 J-0.908
G1 X87.728 Y101.228
G3 X87.5 Y100.497 I1.057 J-0.731
G2 X87.31 Y100.452 I-0.1 J0
G1 X87.222 Y100.632
G3 X87.161 Y100.683 I-0.09 J-0.044
X86.603 Y98.867 Z-1.104 I-0.279 J-0.908 F60
X87.161 Y100.683 Z-1.208 I0.279 J0.908
X86.603 Y98.867 Z-1.313 I-0.279 J-0.908
X87.161 Y100.683 Z-1.417 I0.279 J0.908
X86.603 Y98.867 Z-1.521 I-0.279 J-0.908
X87.161 Y100.683 Z-1.625 I0.279 J0.908
X86.603 Y98.867 Z-1.73 I-0.279 J-0.908
X87.161 Y100.683 Z-1.834 I0.279 J0.908
X86.603 Y98.867 Z-1.938 I-0.279 J-0.908
X87.832 Y99.775 Z-2 I0.279 J0.908
G1 Y101.28 F240
G3 X87.756 Y101.485 I-0.315 J0
G2 X87.401 Y101.921 I8.594 J7.365
G3 X87.168 Y101.842 I-0.103 J-0.08
G1 Y84.92
G3 X87.244 Y84.715 I0.315 J0
G1 X87.303 Y84.645
G3 X87.697 I0.197 J0.166
G1 X87.756 Y84.715
G3 X87.832 Y84.92 I-0.239 J0.205
G1 Y99.775
G2 X88.174 Y100.288 I0.556 J0
G3 X88.517 Y100.802 I-0.214 J0.513
G1 Y101.285
G3 X88.279 Y101.927 I-0.987 J0
G2 X86.664 Y104.463 I8.071 J6.923
G3 X86.483 Y104.424 I-0.086 J-0.039
G1 Y84.915
G3 X86.721 Y84.273 I0.987 J0
G2 X87.327 Y83.497 I-8.071 J-6.923
G3 X87.673 I0.173 J0.123
G2 X88.279 Y84.273 I8.677 J-6.147
G3 X88.517 Y84.915 I-0.749 J0.643
G1 Y100.802
G2 X89.063 Y101.533 I0.762 J0
G3 X89.338 Y102.402 I-0.156 J0.528
X89.284 Y102.467 I-1.044 J-0.829
G2 X87.413 Y105.571 I7.034 J6.354
X86.782 Y109.139 I9.776 J3.568
X86.834 Y111.865 I71.482 J0
G3 X86.534 Y112.177 I-0.301 J0.012
G1 X86.466
G3 X86.166 Y111.865 I0 J-0.301
G2 X86.218 Y109.139 I-70.653 J-2.711
X86.012 Y107.281 I-8.519 J0
X85.449 Y105.498 I-10.594 J2.368
G3 X85.373 Y105.113 I0.931 J-0.385
G1 Y84.627
G3 X85.716 Y83.733 I1.333 J0
G2 X87.36 Y81.198 I-7.066 J-6.383
G3 X87.64 I0.14 J0.062
G2 X89.284 Y83.733 I8.71 J-3.848
G3 X89.627 Y84.627 I-0.989 J0.894
G1 Y101.573
G3 X89.338 Y102.402 I-1.333 J0
G2 X89.274 Y103.006 I0.444 J0.353
G3 X89.221 Y103.611 I-0.524 J0.259
G2 X88.089 Y105.693 I7.091 J5.203
X87.458 Y109.139 I9.081 J3.446
G1 Y110.741
G2 X87.565 Y112.546 I15.264 J0
G3 X87.292 Y112.853 I-0.272 J0.032
G1 X85.708
G3 X85.435 Y112.546 I0 J-0.274
G2 X85.564 Y109.083 I-21.179 J-2.522
X84.803 Y105.703 I-9.81 J0.433
G3 X84.697 Y105.181 I1.239 J-0.522
G1 Y84.323
G3 X85.04 Y83.469 I1.235 J0
G2 X87.395 Y78.693 I-6.39 J-6.119
G3 X87.605 I0.105 J0.016
G2 X89.96 Y83.469 I8.745 J-1.343
G3 X90.303 Y84.323 I-0.892 J0.854
G1 Y101.877
G3 X89.96 Y102.731 I-1.235 J0
G2 X89.221 Y103.611 I6.352 J6.082
X89.192 Y104.642 I0.732 J0.537
G3 X89.264 Y105.672 I-0.893 J0.58
G2 X89.224 Y105.76 I7.277 J3.383
X88.56 Y108.85 I6.862 J3.09
G1 Y111.184
G2 X88.913 Y113.661 I8.878 J0
G3 X88.692 Y113.955 I-0.221 J0.064
G1 X84.308
G3 X84.087 Y113.661 I0 J-0.23
G2 X84.424 Y111.412 I-8.155 J-2.369
X84.44 Y109.139 I-159.613 J-2.273
X84.263 Y107.598 I-6.8 J0
X83.784 Y106.124 I-8.824 J2.053
G3 X83.595 Y105.191 I2.206 J-0.932
G1 Y83.796
G3 X83.936 Y83.011 I1.074 J0
G2 X86.404 Y77.35 I-5.305 J-5.681
X86.399 Y77.207 I-2.288 J0
G3 X86.395 Y77.064 I2.284 J-0.143
X86.714 Y76.745 I0.319 J0
G1 X88.286
G3 X88.605 Y77.064 I0 J0.319
X88.601 Y77.207 I-2.288 J0
G2 X88.596 Y77.35 I2.284 J0.143
X91.064 Y83.011 I7.726 J0
G3 X91.405 Y83.796 I-0.733 J0.785
G1 Y102.404
G3 X91.064 Y103.189 I-1.074 J0
G2 X89.264 Y105.672 I5.477 J5.865
X89.522 Y107.033 I1.078 J0.501
G3 X90.012 Y108.329 I-1.107 J1.16
G2 X89.99 Y108.85 I6.125 J0.521
G1 Y111.5
G2 X90.304 Y113.4 I5.905 J0
X91.175 Y115.118 I6.476 J-2.201
G3 X91.036 Y115.385 I-0.139 J0.097
G1 X82.28
G3 X81.965 Y115.07 I0 J-0.315
G1 Y115.001
G3 X82.012 Y114.835 I0.315 J0
G2 X82.744 Y113.237 I-5.907 J-3.673
X83.01 Y111.5 I-5.556 J-1.737
X82.968 Y108.964 I-78.029 J0
X82.385 Y106.495 I-6.389 J0.208
G3 X82.165 Y105.493 I2.175 J-1.003
G1 Y83.039
G3 X82.502 Y82.354 I0.866 J0
G2 X84.338 Y80.144 I-3.99 J-5.182
X85.01 Y77.35 I-5.475 J-2.794
X84.991 Y76.484 I-20.177 J0
X84.922 Y75.62 I-11.872 J0.51
G3 X85.194 Y75.315 I0.272 J-0.032
G1 X89.806
G3 X90.078 Y75.62 I0 J0.274
G2 X90.009 Y76.484 I11.803 J1.374
X89.99 Y77.35 I20.159 J0.866
X90.662 Y80.144 I6.147 J0
X92.498 Y82.354 I5.826 J-2.972
G3 X92.835 Y83.039 I-0.528 J0.686
G1 Y103.161
G3 X92.498 Y103.846 I-0.866 J0
G2 X90.662 Y106.056 I3.99 J5.182
X90.012 Y108.329 I5.475 J2.794
X90.622 Y109.36 I1.028 J0.087
G3 X91.274 Y110.363 I-0.446 J1.004
G1 Y111.5
G2 X92.06 Y114.171 I4.931 J0
X94.142 Y116.02 I4.356 J-2.808
G3 X94.319 Y116.304 I-0.138 J0.283
G1 Y116.35
G3 X94 Y116.669 I-0.319 J0
G1 X80.996
G3 X80.681 Y116.354 I0 J-0.315
G1 Y114.928
G3 X80.892 Y114.205 I1.345 J0
G2 X81.671 Y111.732 I-4.212 J-2.686
X81.726 Y109.139 I-60.941 J-2.593
X81.566 Y107.969 I-4.363 J0
X81.139 Y106.868 I-5.788 J1.611
G3 X80.881 Y105.786 I2.137 J-1.081
G1 Y82.262
G3 X81.213 Y81.679 I0.678 J0
G2 X83.043 Y79.847 I-2.653 J-4.48
X83.726 Y77.35 I-4.226 J-2.497
X83.647 Y75.807 I-15.098 J0
X83.25 Y74.313 I-4.909 J0.504
G3 X83.433 Y74.031 I0.184 J-0.081
G1 X91.567
G3 X91.75 Y74.313 I0 J0.201
G2 X91.353 Y75.807 I4.512 J1.998
X91.274 Y77.35 I15.019 J1.543
X91.957 Y79.847 I4.909 J0
X93.787 Y81.679 I4.483 J-2.649
G3 X94.119 Y82.262 I-0.346 J0.583
G1 Y103.938
G3 X93.787 Y104.521 I-0.678 J0
G2 X91.957 Y106.353 I2.653 J4.48
X91.274 Y108.85 I4.226 J2.497
G1 Y110.363
G2 X91.945 Y111.422 I1.171 J0
G3 X92.742 Y112.389 I-0.628 J1.33
G2 X93.399 Y113.726 I3.499 J-0.889
X95.355 Y115.037 I2.982 J-2.335
G3 X95.676 Y115.46 I-0.119 J0.424
G1 Y117.707
G3 X95.357 Y118.026 I-0.319 J0
G1 X79.639
G3 X79.324 Y117.711 I0 J-0.315
G1 Y114.609
G3 X79.635 Y113.642 I1.66 J0
G2 X80.355 Y111.448 I-3.122 J-2.24
X80.369 Y109.139 I-193.626 J-2.309
X80.209 Y108.142 I-3.196 J0
X79.786 Y107.226 I-4.169 J1.369
G3 X79.524 Y106.291 I1.532 J-0.935
G1 Y81.276
G3 X79.847 Y80.823 I0.479 J0
G2 X81.664 Y79.49 I-1.237 J-3.591
X82.369 Y77.35 I-2.895 J-2.14
G1 Y76.35
G2 X81.67 Y74.219 I-3.599 J0
X79.868 Y72.884 I-3.062 J2.249
G3 X79.904 Y72.674 I0.036 J-0.102
G1 X95.096
G3 X95.132 Y72.884 I0 J0.108
G2 X93.33 Y74.219 I1.26 J3.584
X92.631 Y76.35 I2.901 J2.131
G1 Y77.35
G2 X93.336 Y79.49 I3.601 J0
X95.153 Y80.823 I3.054 J-2.258
G3 X95.476 Y81.276 I-0.156 J0.453
G1 Y104.924
G3 X95.153 Y105.377 I-0.479 J0
G2 X93.336 Y106.71 I1.237 J3.591
X92.631 Y108.85 I2.895 J2.14
G1 Y111.5
G2 X92.742 Y112.389 I3.61 J0
X93.627 Y113.096 I0.909 J-0.231
G3 X94.689 Y113.486 I-0.046 J1.764
G2 X96.35 Y114.073 I1.661 J-2.058
X96.406 Y114.071 I0 J-0.89
G3 X96.461 Y114.069 I0.056 J0.888
X96.781 Y114.389 I0 J0.319
G1 Y118.811
G3 X96.461 Y119.131 I-0.319 J0
G1 X78.535
G3 X78.219 Y118.815 I0 J-0.315
G1 Y114.036
G3 X78.528 Y113.254 I1.147 J0
G2 X79.287 Y111.266 I-2.064 J-1.927
G3 X79.264 Y109.139 I99.523 J-2.127
G2 X79.107 Y108.314 I-2.242 J0
X78.694 Y107.582 I-2.86 J1.132
G3 X78.419 Y106.768 I1.07 J-0.815
G1 Y80.24
G3 X78.731 Y79.918 I0.322 J0
G2 X80.518 Y79.147 I-0.084 J-2.649
X81.264 Y77.35 I-1.789 J-1.797
G1 Y76.35
G2 X80.49 Y74.522 I-2.545 J0
X78.65 Y73.777 I-1.84 J1.9
X78.592 Y73.779 I0 J0.922
G3 X78.535 Y73.781 I-0.058 J-0.92
X78.219 Y73.465 I0 J-0.315
G1 Y71.889
G3 X78.539 Y71.569 I0.319 J0
G1 X96.461
G3 X96.781 Y71.889 I0 J0.319
G1 Y73.461
G3 X96.461 Y73.781 I-0.319 J0
X96.406 Y73.779 I0 J-0.89
G2 X96.35 Y73.777 I-0.056 J0.888
X94.51 Y74.522 I0 J2.645
X93.736 Y76.35 I1.77 J1.828
G1 Y77.35
G2 X94.482 Y79.147 I2.536 J0
X96.269 Y79.918 I1.87 J-1.878
G3 X96.581 Y80.24 I-0.01 J0.322
G1 Y105.96
G3 X96.269 Y106.282 I-0.322 J0
G2 X94.482 Y107.053 I0.084 J2.649
X93.736 Y108.85 I1.789 J1.797
G1 Y111.5
G2 X94.51 Y113.328 I2.545 J0
X94.689 Y113.486 I1.84 J-1.9
X96.434 Y113.278 I0.771 J-0.955
G3 X98.011 Y112.5 I1.576 J1.208
G1 X98.35
Y120.7
X76.65
Y112.5
G2 X77.65 Y111.5 I0 J-1
G1 Y109.139
G2 X76.557 Y108.143 I-1 J0
X76.85 Y107.436 I-0.707 J-0.707
G1 Y78.764
G2 X76.56 Y78.06 I-1 J0
X77.264 Y78.35 I0.704 J-0.71
G1 X78.65
G2 X79.65 Y77.35 I0 J-1
G1 Y76.35
G2 X78.65 Y75.35 I-1 J0
G1 X76.65
Y70
X98.35
Y75.35
X96.35
G2 X95.35 Y76.35 I0 J1
G1 Y77.35
G2 X96.35 Y78.35 I1 J0
G1 X97.736
G2 X98.44 Y78.06 I0 J-1
X98.15 Y78.764 I0.71 J0.704
G1 Y99.775
Y107.436
G2 X98.434 Y108.134 I1 J0
X97.736 Y107.85 I-0.698 J0.716
G1 X96.35
G2 X95.35 Y108.85 I0 J1
G1 Y111.5
G2 X96.35 Y112.5 I1 J0
G1 X98.011
G3 X98.09 Y112.661 I0 J0.1
G1 X97.771 Y113.079
G3 X95.806 Y112.902 I-0.908 J-0.908
G1 X87.728 Y101.228
G3 X87.5 Y100.497 I1.057 J-0.731
G2 X87.31 Y100.452 I-0.1 J0
G1 X87.222 Y100.632
G3 X87.161 Y100.683 I-0.09 J-0.044
X86.603 Y98.867 Z-2.104 I-0.279 J-0.908 F60
X87.161 Y100.683 Z-2.208 I0.279 J0.908
X86.603 Y98.867 Z-2.313 I-0.279 J-0.908
X87.161 Y100.683 Z-2.417 I0.279 J0.908
X86.603 Y98.867 Z-2.521 I-0.279 J-0.908
X87.161 Y100.683 Z-2.625 I0.279 J0.908
X86.603 Y98.867 Z-2.73 I-0.279 J-0.908
X87.161 Y100.683 Z-2.834 I0.279 J0.908
X86.603 Y98.867 Z-2.938 I-0.279 J-0.908
X87.832 Y99.775 Z-3 I0.279 J0.908
G1 Y101.28 F240
G3 X87.756 Y101.485 I-0.315 J0
G2 X87.401 Y101.921 I8.594 J7.365
G3 X87.168 Y101.842 I-0.103 J-0.08
G1 Y84.92
G3 X87.244 Y84.715 I0.315 J0
G1 X87.303 Y84.645
G3 X87.697 I0.197 J0.166
G1 X87.756 Y84.715
G3 X87.832 Y84.92 I-0.239 J0.205
G1 Y99.775
G2 X88.174 Y100.288 I0.556 J0
G3 X88.517 Y100.802 I-0.214 J0.513
G1 Y101.285
G3 X88.279 Y101.927 I-0.987 J0
G2 X86.664 Y104.463 I8.071 J6.923
G3 X86.483 Y104.424 I-0.086 J-0.039
G1 Y84.915
G3 X86.721 Y84.273 I0.987 J0
G2 X87.327 Y83.497 I-8.071 J-6.923
G3 X87.673 I0.173 J0.123
G2 X88.279 Y84.273 I8.677 J-6.147
G3 X88.517 Y84.915 I-0.749 J0.643
G1 Y100.802
G2 X89.063 Y101.533 I0.762 J0
G3 X89.338 Y102.402 I-0.156 J0.528
X89.284 Y102.467 I-1.044 J-0.829
G2 X87.413 Y105.571 I7.034 J6.354
X86.782 Y109.139 I9.776 J3.568
X86.834 Y111.865 I71.482 J0
G3 X86.534 Y112.177 I-0.301 J0.012
G1 X86.466
G3 X86.166 Y111.865 I0 J-0.301
G2 X86.218 Y109.139 I-70.653 J-2.711
X86.012 Y107.281 I-8.519 J0
X85.449 Y105.498 I-10.594 J2.368
G3 X85.373 Y105.113 I0.931 J-0.385
G1 Y84.627
G3 X85.716 Y83.733 I1.333 J0
G2 X87.36 Y81.198 I-7.066 J-6.383
G3 X87.64 I0.14 J0.062
G2 X89.284 Y83.733 I8.71 J-3.848
G3 X89.627 Y84.627 I-0.989 J0.894
G1 Y101.573
G3 X89.338 Y102.402 I-1.333 J0
G2 X89.274 Y103.006 I0.444 J0.353
G3 X89.221 Y103.611 I-0.524 J0.259
G2 X88.089 Y105.693 I7.091 J5.203
X87.458 Y109.139 I9.081 J3.446
G1 Y110.741
G2 X87.565 Y112.546 I15.264 J0
G3 X87.292 Y112.853 I-0.272 J0.032
G1 X85.708
G3 X85.435 Y112.546 I0 J-0.274
G2 X85.564 Y109.083 I-21.179 J-2.522
X84.803 Y105.703 I-9.81 J0.433
G3 X84.697 Y105.181 I1.239 J-0.522
G1 Y84.323
G3 X85.04 Y83.469 I1.235 J0
G2 X87.395 Y78.693 I-6.39 J-6.119
G3 X87.605 I0.105 J0.016
G2 X89.96 Y83.469 I8.745 J-1.343
G3 X90.303 Y84.323 I-0.892 J0.854
G1 Y101.877
G3 X89.96 Y102.731 I-1.235 J0
G2 X89.221 Y103.611 I6.352 J6.082
X89.192 Y104.642 I0.732 J0.537
G3 X89.264 Y105.672 I-0.893 J0.58
G2 X89.224 Y105.76 I7.277 J3.383
X88.56 Y108.85 I6.862 J3.09
G1 Y111.184
G2 X88.913 Y113.661 I8.878 J0
G3 X88.692 Y113.955 I-0.221 J0.064
G1 X84.308
G3 X84.087 Y113.661 I0 J-0.23
G2 X84.424 Y111.412 I-8.155 J-2.369
X84.44 Y109.139 I-159.613 J-2.273
X84.263 Y107.598 I-6.8 J0
X83.784 Y106.124 I-8.824 J2.053
G3 X83.595 Y105.191 I2.206 J-0.932
G1 Y83.796
G3 X83.936 Y83.011 I1.074 J0
G2 X86.404 Y77.35 I-5.305 J-5.681
X86.399 Y77.207 I-2.288 J0
G3 X86.395 Y77.064 I2.284 J-0.143
X86.714 Y76.745 I0.319 J0
G1 X88.286
G3 X88.605 Y77.064 I0 J0.319
X88.601 Y77.207 I-2.288 J0
G2 X88.596 Y77.35 I2.284 J0.143
X91.064 Y83.011 I7.726 J0
G3 X91.405 Y83.796 I-0.733 J0.785
G1 Y102.404
G3 X91.064 Y103.189 I-1.074 J0
G2 X89.264 Y105.672 I5.477 J5.865
X89.522 Y107.033 I1.078 J0.501
G3 X90.012 Y108.329 I-1.107 J1.16
G2 X89.99 Y108.85 I6.125 J0.521
G1 Y111.5
G2 X90.304 Y113.4 I5.905 J0
X91.175 Y115.118 I6.476 J-2.201
G3 X91.036 Y115.385 I-0.139 J0.097
G1 X82.28
G3 X81.965 Y115.07 I0 J-0.315
G1 Y115.001
G3 X82.012 Y114.835 I0.315 J0
G2 X82.744 Y113.237 I-5.907 J-3.673
X83.01 Y111.5 I-5.556 J-1.737
X82.968 Y108.964 I-78.029 J0
X82.385 Y106.495 I-6.389 J0.208
G3 X82.165 Y105.493 I2.175 J-1.003
G1 Y83.039
G3 X82.502 Y82.354 I0.866 J0
G2 X84.338 Y80.144 I-3.99 J-5.182
X85.01 Y77.35 I-5.475 J-2.794
X84.991 Y76.484 I-20.177 J0
X84.922 Y75.62 I-11.872 J0.51
G3 X85.194 Y75.315 I0.272 J-0.032
G1 X89.806
G3 X90.078 Y75.62 I0 J0.274
G2 X90.009 Y76.484 I11.803 J1.374
X89.99 Y77.35 I20.159 J0.866
X90.662 Y80.144 I6.147 J0
X92.498 Y82.354 I5.826 J-2.972
G3 X92.835 Y83.039 I-0.528 J0.686
G1 Y103.161
G3 X92.498 Y103.846 I-0.866 J0
G2 X90.662 Y106.056 I3.99 J5.182
X90.012 Y108.329 I5.475 J2.794
X90.622 Y109.36 I1.028 J0.087
G3 X91.274 Y110.363 I-0.446 J1.004
G1 Y111.5
G2 X92.06 Y114.171 I4.931 J0
X94.142 Y116.02 I4.356 J-2.808
G3 X94.319 Y116.304 I-0.138 J0.283
G1 Y116.35
G3 X94 Y116.669 I-0.319 J0
G1 X80.996
G3 X80.681 Y116.354 I0 J-0.315
G1 Y114.928
G3 X80.892 Y114.205 I1.345 J0
G2 X81.671 Y111.732 I-4.212 J-2.686
X81.726 Y109.139 I-60.941 J-2.593
X81.566 Y107.969 I-4.363 J0
X81.139 Y106.868 I-5.788 J1.611
G3 X80.881 Y105.786 I2.137 J-1.081
G1 Y82.262
G3 X81.213 Y81.679 I0.678 J0
G2 X83.043 Y79.847 I-2.653 J-4.48
X83.726 Y77.35 I-4.226 J-2.497
X83.647 Y75.807 I-15.098 J0
X83.25 Y74.313 I-4.909 J0.504
G3 X83.433 Y74.031 I0.184 J-0.081
G1 X91.567
G3 X91.75 Y74.313 I0 J0.201
G2 X91.353 Y75.807 I4.512 J1.998
X91.274 Y77.35 I15.019 J1.543
X91.957 Y79.847 I4.909 J0
X93.787 Y81.679 I4.483 J-2.649
G3 X94.119 Y82.262 I-0.346 J0.583
G1 Y103.938
G3 X93.787 Y104.521 I-0.678 J0
G2 X91.957 Y106.353 I2.653 J4.48
X91.274 Y108.85 I4.226 J2.497
G1 Y110.363
G2 X91.945 Y111.422 I1.171 J0
G3 X92.742 Y112.389 I-0.628 J1.33
G2 X93.399 Y113.726 I3.499 J-0.889
X95.355 Y115.037 I2.982 J-2.335
G3 X95.676 Y115.46 I-0.119 J0.424
G1 Y117.707
G3 X95.357 Y118.026 I-0.319 J0
G1 X79.639
G3 X79.324 Y117.711 I0 J-0.315
G1 Y114.609
G3 X79.635 Y113.642 I1.66 J0
G2 X80.355 Y111.448 I-3.122 J-2.24
X80.369 Y109.139 I-193.626 J-2.309
X80.209 Y108.142 I-3.196 J0
X79.786 Y107.226 I-4.169 J1.369
G3 X79.524 Y106.291 I1.532 J-0.935
G1 Y81.276
G3 X79.847 Y80.823 I0.479 J0
G2 X81.664 Y79.49 I-1.237 J-3.591
X82.369 Y77.35 I-2.895 J-2.14
G1 Y76.35
G2 X81.67 Y74.219 I-3.599 J0
X79.868 Y72.884 I-3.062 J2.249
G3 X79.904 Y72.674 I0.036 J-0.102
G1 X95.096
G3 X95.132 Y72.884 I0 J0.108
G2 X93.33 Y74.219 I1.26 J3.584
X92.631 Y76.35 I2.901 J2.131
G1 Y77.35
G2 X93.336 Y79.49 I3.601 J0
X95.153 Y80.823 I3.054 J-2.258
G3 X95.476 Y81.276 I-0.156 J0.453
G1 Y104.924
G3 X95.153 Y105.377 I-0.479 J0
G2 X93.336 Y106.71 I1.237 J3.591
X92.631 Y108.85 I2.895 J2.14
G1 Y111.5
G2 X92.742 Y112.389 I3.61 J0
X93.627 Y113.096 I0.909 J-0.231
G3 X94.689 Y113.486 I-0.046 J1.764
G2 X96.35 Y114.073 I1.661 J-2.058
X96.406 Y114.071 I0 J-0.89
G3 X96.461 Y114.069 I0.056 J0.888
X96.781 Y114.389 I0 J0.319
G1 Y118.811
G3 X96.461 Y119.131 I-0.319 J0
G1 X78.535
G3 X78.219 Y118.815 I0 J-0.315
G1 Y114.036
G3 X78.528 Y113.254 I1.147 J0
G2 X79.287 Y111.266 I-2.064 J-1.927
G3 X79.264 Y109.139 I99.523 J-2.127
G2 X79.107 Y108.314 I-2.242 J0
X78.694 Y107.582 I-2.86 J1.132
G3 X78.419 Y106.768 I1.07 J-0.815
G1 Y80.24
G3 X78.731 Y79.918 I0.322 J0
G2 X80.518 Y79.147 I-0.084 J-2.649
X81.264 Y77.35 I-1.789 J-1.797
G1 Y76.35
G2 X80.49 Y74.522 I-2.545 J0
X78.65 Y73.777 I-1.84 J1.9
X78.592 Y73.779 I0 J0.922
G3 X78.535 Y73.781 I-0.058 J-0.92
X78.219 Y73.465 I0 J-0.315
G1 Y71.889
G3 X78.539 Y71.569 I0.319 J0
G1 X96.461
G3 X96.781 Y71.889 I0 J0.319
G1 Y73.461
G3 X96.461 Y73.781 I-0.319 J0
X96.406 Y73.779 I0 J-0.89
G2 X96.35 Y73.777 I-0.056 J0.888
X94.51 Y74.522 I0 J2.645
X93.736 Y76.35 I1.77 J1.828
G1 Y77.35
G2 X94.482 Y79.147 I2.536 J0
X96.269 Y79.918 I1.87 J-1.878
G3 X96.581 Y80.24 I-0.01 J0.322
G1 Y105.96
G3 X96.269 Y106.282 I-0.322 J0
G2 X94.482 Y107.053 I0.084 J2.649
X93.736 Y108.85 I1.789 J1.797
G1 Y111.5
G2 X94.51 Y113.328 I2.545 J0
X94.689 Y113.486 I1.84 J-1.9
X96.434 Y113.278 I0.771 J-0.955
G3 X98.011 Y112.5 I1.576 J1.208
G1 X98.35
Y120.7
X76.65
Y112.5
G2 X77.65 Y111.5 I0 J-1
G1 Y109.139
G2 X76.557 Y108.143 I-1 J0
X76.85 Y107.436 I-0.707 J-0.707
G1 Y78.764
G2 X76.56 Y78.06 I-1 J0
X77.264 Y78.35 I0.704 J-0.71
G1 X78.65
G2 X79.65 Y77.35 I0 J-1
G1 Y76.35
G2 X78.65 Y75.35 I-1 J0
G1 X76.65
Y70
X98.35
Y75.35
X96.35
G2 X95.35 Y76.35 I0 J1
G1 Y77.35
G2 X96.35 Y78.35 I1 J0
G1 X97.736
G2 X98.44 Y78.06 I0 J-1
X98.15 Y78.764 I0.71 J0.704
G1 Y99.775
Y107.436
G2 X98.434 Y108.134 I1 J0
X97.736 Y107.85 I-0.698 J0.716
G1 X96.35
G2 X95.35 Y108.85 I0 J1
G1 Y111.5
G2 X96.35 Y112.5 I1 J0
G1 X98.011
G3 X98.09 Y112.661 I0 J0.1
G1 X97.771 Y113.079
G3 X95.765 Y112.884 I-0.923 J-0.923
G1 X87.721 Y100.901
G3 X87.5 Y100.174 I1.083 J-0.727
G1 X87.634 Y99.833
G3 X87.826 Y99.883 I0.092 J0.039
X85.938 Y99.667 Z-3.104 I-0.944 J-0.108 F60
X87.826 Y99.883 Z-3.208 I0.944 J0.108
X85.938 Y99.667 Z-3.313 I-0.944 J-0.108
X87.826 Y99.883 Z-3.417 I0.944 J0.108
X85.938 Y99.667 Z-3.521 I-0.944 J-0.108
X87.826 Y99.883 Z-3.625 I0.944 J0.108
X85.938 Y99.667 Z-3.73 I-0.944 J-0.108
X87.832 Y99.775 Z-3.83 I0.944 J0.108
G1 Y101.28 F240
G3 X87.756 Y101.485 I-0.315 J0
G2 X87.401 Y101.921 I8.594 J7.365
G3 X87.168 Y101.842 I-0.103 J-0.08
G1 Y84.92
G3 X87.244 Y84.715 I0.315 J0
G1 X87.303 Y84.645
G3 X87.697 I0.197 J0.166
G1 X87.756 Y84.715
G3 X87.832 Y84.92 I-0.239 J0.205
G1 Y99.775
G2 X88.174 Y100.288 I0.556 J0
G3 X88.517 Y100.802 I-0.214 J0.513
G1 Y101.285
G3 X88.279 Y101.927 I-0.987 J0
G2 X86.664 Y104.463 I8.071 J6.923
G3 X86.483 Y104.424 I-0.086 J-0.039
G1 Y84.915
G3 X86.721 Y84.273 I0.987 J0
G2 X87.327 Y83.497 I-8.071 J-6.923
G3 X87.673 I0.173 J0.123
G2 X88.279 Y84.273 I8.677 J-6.147
G3 X88.517 Y84.915 I-0.749 J0.643
G1 Y100.802
G2 X89.063 Y101.533 I0.762 J0
G3 X89.338 Y102.402 I-0.156 J0.528
X89.284 Y102.467 I-1.044 J-0.829
G2 X87.413 Y105.571 I7.034 J6.354
X86.782 Y109.139 I9.776 J3.568
X86.834 Y111.865 I71.482 J0
G3 X86.534 Y112.177 I-0.301 J0.012
G1 X86.466
G3 X86.166 Y111.865 I0 J-0.301
G2 X86.218 Y109.139 I-70.653 J-2.711
X86.012 Y107.281 I-8.519 J0
X85.449 Y105.498 I-10.594 J2.368
G3 X85.373 Y105.113 I0.931 J-0.385
G1 Y84.627
G3 X85.716 Y83.733 I1.333 J0
G2 X87.36 Y81.198 I-7.066 J-6.383
G3 X87.64 I0.14 J0.062
G2 X89.284 Y83.733 I8.71 J-3.848
G3 X89.627 Y84.627 I-0.989 J0.894
G1 Y101.573
G3 X89.338 Y102.402 I-1.333 J0
G2 X89.274 Y103.006 I0.444 J0.353
G3 X89.221 Y103.611 I-0.524 J0.259
G2 X88.089 Y105.693 I7.091 J5.203
X87.458 Y109.139 I9.081 J3.446
G1 Y110.741
G2 X87.565 Y112.546 I15.264 J0
G3 X87.292 Y112.853 I-0.272 J0.032
G1 X85.708
G3 X85.435 Y112.546 I0 J-0.274
G2 X85.564 Y109.083 I-21.179 J-2.522
X84.803 Y105.703 I-9.81 J0.433
G3 X84.697 Y105.181 I1.239 J-0.522
G1 Y84.323
G3 X85.04 Y83.469 I1.235 J0
G2 X87.395 Y78.693 I-6.39 J-6.119
G3 X87.605 I0.105 J0.016
G2 X89.96 Y83.469 I8.745 J-1.343
G3 X90.303 Y84.323 I-0.892 J0.854
G1 Y101.877
G3 X89.96 Y102.731 I-1.235 J0
G2 X89.221 Y103.611 I6.352 J6.082
X89.192 Y104.642 I0.732 J0.537
G3 X89.264 Y105.672 I-0.893 J0.58
G2 X89.224 Y105.76 I7.277 J3.383
X88.56 Y108.85 I6.862 J3.09
G1 Y111.184
G2 X88.913 Y113.661 I8.878 J0
G3 X88.692 Y113.955 I-0.221 J0.064
G1 X84.308
G3 X84.087 Y113.661 I0 J-0.23
G2 X84.424 Y111.412 I-8.155 J-2.369
X84.44 Y109.139 I-159.613 J-2.273
X84.263 Y107.598 I-6.8 J0
X83.784 Y106.124 I-8.824 J2.053
G3 X83.595 Y105.191 I2.206 J-0.932
G1 Y83.796
G3 X83.936 Y83.011 I1.074 J0
G2 X86.404 Y77.35 I-5.305 J-5.681
X86.399 Y77.207 I-2.288 J0
G3 X86.395 Y77.064 I2.284 J-0.143
X86.714 Y76.745 I0.319 J0
G1 X88.286
G3 X88.605 Y77.064 I0 J0.319
X88.601 Y77.207 I-2.288 J0
G2 X88.596 Y77.35 I2.284 J0.143
X91.064 Y83.011 I7.726 J0
G3 X91.405 Y83.796 I-0.733 J0.785
G1 Y102.404
G3 X91.064 Y103.189 I-1.074 J0
G2 X89.264 Y105.672 I5.477 J5.865
X89.522 Y107.033 I1.078 J0.501
G3 X90.012 Y108.329 I-1.107 J1.16
G2 X89.99 Y108.85 I6.125 J0.521
G1 Y111.5
G2 X90.304 Y113.4 I5.905 J0
X91.175 Y115.118 I6.476 J-2.201
G3 X91.036 Y115.385 I-0.139 J0.097
G1 X82.28
G3 X81.965 Y115.07 I0 J-0.315
G1 Y115.001
G3 X82.012 Y114.835 I0.315 J0
G2 X82.744 Y113.237 I-5.907 J-3.673
X83.01 Y111.5 I-5.556 J-1.737
X82.968 Y108.964 I-78.029 J0
X82.385 Y106.495 I-6.389 J0.208
G3 X82.165 Y105.493 I2.175 J-1.003
G1 Y83.039
G3 X82.502 Y82.354 I0.866 J0
G2 X84.338 Y80.144 I-3.99 J-5.182
X85.01 Y77.35 I-5.475 J-2.794
X84.991 Y76.484 I-20.177 J0
X84.922 Y75.62 I-11.872 J0.51
G3 X85.194 Y75.315 I0.272 J-0.032
G1 X89.806
G3 X90.078 Y75.62 I0 J0.274
G2 X90.009 Y76.484 I11.803 J1.374
X89.99 Y77.35 I20.159 J0.866
X90.662 Y80.144 I6.147 J0
X92.498 Y82.354 I5.826 J-2.972
G3 X92.835 Y83.039 I-0.528 J0.686
G1 Y103.161
G3 X92.498 Y103.846 I-0.866 J0
G2 X90.662 Y106.056 I3.99 J5.182
X90.012 Y108.329 I5.475 J2.794
X90.622 Y109.36 I1.028 J0.087
G3 X91.274 Y110.363 I-0.446 J1.004
G1 Y111.5
G2 X92.06 Y114.171 I4.931 J0
X94.142 Y116.02 I4.356 J-2.808
G3 X94.319 Y116.304 I-0.138 J0.283
G1 Y116.35
G3 X94 Y116.669 I-0.319 J0
G1 X80.996
G3 X80.681 Y116.354 I0 J-0.315
G1 Y114.928
G3 X80.892 Y114.205 I1.345 J0
G2 X81.671 Y111.732 I-4.212 J-2.686
X81.726 Y109.139 I-60.941 J-2.593
X81.566 Y107.969 I-4.363 J0
X81.139 Y106.868 I-5.788 J1.611
G3 X80.881 Y105.786 I2.137 J-1.081
G1 Y82.262
G3 X81.213 Y81.679 I0.678 J0
G2 X83.043 Y79.847 I-2.653 J-4.48
X83.726 Y77.35 I-4.226 J-2.497
X83.647 Y75.807 I-15.098 J0
X83.25 Y74.313 I-4.909 J0.504
G3 X83.433 Y74.031 I0.184 J-0.081
G1 X91.567
G3 X91.75 Y74.313 I0 J0.201
G2 X91.353 Y75.807 I4.512 J1.998
X91.274 Y77.35 I15.019 J1.543
X91.957 Y79.847 I4.909 J0
X93.787 Y81.679 I4.483 J-2.649
G3 X94.119 Y82.262 I-0.346 J0.583
G1 Y103.938
G3 X93.787 Y104.521 I-0.678 J0
G2 X91.957 Y106.353 I2.653 J4.48
X91.274 Y108.85 I4.226 J2.497
G1 Y110.363
G2 X91.945 Y111.422 I1.171 J0
G3 X92.742 Y112.389 I-0.628 J1.33
G2 X93.399 Y113.726 I3.499 J-0.889
X95.355 Y115.037 I2.982 J-2.335
G3 X95.676 Y115.46 I-0.119 J0.424
G1 Y117.707
G3 X95.357 Y118.026 I-0.319 J0
G1 X79.639
G3 X79.324 Y117.711 I0 J-0.315
G1 Y114.609
G3 X79.635 Y113.642 I1.66 J0
G2 X80.355 Y111.448 I-3.122 J-2.24
X80.369 Y109.139 I-193.626 J-2.309
X80.209 Y108.142 I-3.196 J0
X79.786 Y107.226 I-4.169 J1.369
G3 X79.524 Y106.291 I1.532 J-0.935
G1 Y81.276
G3 X79.847 Y80.823 I0.479 J0
G2 X81.664 Y79.49 I-1.237 J-3.591
X82.369 Y77.35 I-2.895 J-2.14
G1 Y76.35
G2 X81.67 Y74.219 I-3.599 J0
X79.868 Y72.884 I-3.062 J2.249
G3 X79.904 Y72.674 I0.036 J-0.102
G1 X95.096
G3 X95.132 Y72.884 I0 J0.108
G2 X93.33 Y74.219 I1.26 J3.584
X92.631 Y76.35 I2.901 J2.131
G1 Y77.35
G2 X93.336 Y79.49 I3.601 J0
X95.153 Y80.823 I3.054 J-2.258
G3 X95.476 Y81.276 I-0.156 J0.453
G1 Y104.924
G3 X95.153 Y105.377 I-0.479 J0
G2 X93.336 Y106.71 I1.237 J3.591
X92.631 Y108.85 I2.895 J2.14
G1 Y111.5
G2 X92.742 Y112.389 I3.61 J0
X93.627 Y113.096 I0.909 J-0.231
G3 X94.689 Y113.486 I-0.046 J1.764
G2 X96.35 Y114.073 I1.661 J-2.058
X96.406 Y114.071 I0 J-0.89
G3 X96.461 Y114.069 I0.056 J0.888
X96.781 Y114.389 I0 J0.319
G1 Y118.811
G3 X96.461 Y119.131 I-0.319 J0
G1 X78.535
G3 X78.219 Y118.815 I0 J-0.315
G1 Y114.036
G3 X78.528 Y113.254 I1.147 J0
G2 X79.287 Y111.266 I-2.064 J-1.927
G3 X79.264 Y109.139 I99.523 J-2.127
G2 X79.107 Y108.314 I-2.242 J0
X78.694 Y107.582 I-2.86 J1.132
G3 X78.419 Y106.768 I1.07 J-0.815
G1 Y80.24
G3 X78.731 Y79.918 I0.322 J0
G2 X80.518 Y79.147 I-0.084 J-2.649
X81.264 Y77.35 I-1.789 J-1.797
G1 Y76.35
G2 X80.49 Y74.522 I-2.545 J0
X78.65 Y73.777 I-1.84 J1.9
X78.592 Y73.779 I0 J0.922
G3 X78.535 Y73.781 I-0.058 J-0.92
X78.219 Y73.465 I0 J-0.315
G1 Y71.889
G3 X78.539 Y71.569 I0.319 J0
G1 X96.461
G3 X96.781 Y71.889 I0 J0.319
G1 Y73.461
G3 X96.461 Y73.781 I-0.319 J0
X96.406 Y73.779 I0 J-0.89
G2 X96.35 Y73.777 I-0.056 J0.888
X94.51 Y74.522 I0 J2.645
X93.736 Y76.35 I1.77 J1.828
G1 Y77.35
G2 X94.482 Y79.147 I2.536 J0
X96.269 Y79.918 I1.87 J-1.878
G3 X96.581 Y80.24 I-0.01 J0.322
G1 Y105.96
G3 X96.269 Y106.282 I-0.322 J0
G2 X94.482 Y107.053 I0.084 J2.649
X93.736 Y108.85 I1.789 J1.797
G1 Y111.5
G2 X94.51 Y113.328 I2.545 J0
X94.689 Y113.486 I1.84 J-1.9
X96.434 Y113.278 I0.771 J-0.955
G3 X98.011 Y112.5 I1.576 J1.208
G1 X98.35
Y120.7
X76.65
Y112.5
G2 X77.65 Y111.5 I0 J-1
G1 Y109.139
G2 X76.557 Y108.143 I-1 J0
X76.85 Y107.436 I-0.707 J-0.707
G1 Y78.764
G2 X76.56 Y78.06 I-1 J0
X77.264 Y78.35 I0.704 J-0.71
G1 X78.65
G2 X79.65 Y77.35 I0 J-1
G1 Y76.35
G2 X78.65 Y75.35 I-1 J0
G1 X76.65
Y70
X98.35
Y75.35
X96.35
G2 X95.35 Y76.35 I0 J1
G1 Y77.35
G2 X96.35 Y78.35 I1 J0
G1 X97.736
G2 X98.44 Y78.06 I0 J-1
X98.15 Y78.764 I0.71 J0.704
G1 Y99.775
Y107.436
G2 X98.434 Y108.134 I1 J0
X97.736 Y107.85 I-0.698 J0.716
G1 X96.35
G2 X95.35 Y108.85 I0 J1
G1 Y111.5
G2 X96.35 Y112.5 I1 J0
G1 X98.011
G3 X98.107 Y112.524 Z-3.803 I0 J0.2 F480
X98.163 Y112.57 Z-3.73 I-0.096 J0.176
X98.179 Y112.592 Z-3.63 I-0.152 J0.13
G0 Z15

(WIRE HOLES)
M8
G0 X78.584 Y119.527
Z15
Z1
G1 Z-3.13 F120
G3 X78.588 Y119.549 Z-3.223 I-0.934 J0.173 F60
X78.596 Y119.611 Z-3.294 I-0.938 J0.151
X78.6 Y119.7 Z-3.328 I-0.946 J0.089
Y119.719 Z-3.33 I-0.95 J0
X76.7 Y119.681 Z-3.434 I-0.95 J-0.019
X78.6 Y119.719 Z-3.538 I0.95 J0.019
X76.7 Y119.681 Z-3.643 I-0.95 J-0.019
X78.6 Y119.719 Z-3.747 I0.95 J0.019
X76.7 Y119.681 Z-3.851 I-0.95 J-0.019
X78.6 Y119.719 Z-3.955 I0.95 J0.019
X76.7 Y119.681 Z-4.06 I-0.95 J-0.019
X78.6 Y119.719 Z-4.164 I0.95 J0.019
X76.7 Y119.681 Z-4.268 I-0.95 J-0.019
X78.6 Y119.719 Z-4.372 I0.95 J0.019
X76.7 Y119.681 Z-4.476 I-0.95 J-0.019
X78.6 Y119.7 Z-4.58 I0.95 J0.019
X77.325 I-0.637 J0
G1 Y113.494 F240
G3 X77.644 Y113.175 I0.319 J0
G1 X77.656
G3 X77.975 Y113.494 I0 J0.319
G1 Y119.706
G3 X77.656 Y120.025 I-0.319 J0
G1 X77.64
G3 X77.325 Y119.71 I0 J-0.315
G1 Y119.7
G2 X76.988 Y119.194 I-0.548 J0
G3 X76.65 Y118.688 I0.211 J-0.506
G1 Y112.5
X78.65
Y120.7
X76.65
Y118.688
G3 X76.674 Y118.592 Z-4.553 I0.2 J0 F480
X76.72 Y118.535 Z-4.48 I0.176 J0.096
X76.742 Y118.519 Z-4.38 I0.13 J0.152
G0 Z5
X96.416 Y119.873
Z1
G1 Z-3.13 F120
G3 X96.412 Y119.851 Z-3.223 I0.934 J-0.173 F60
X96.404 Y119.789 Z-3.294 I0.938 J-0.151
X96.4 Y119.7 Z-3.328 I0.946 J-0.089
Y119.681 Z-3.33 I0.95 J0
X98.3 Y119.719 Z-3.434 I0.95 J0.019
X96.4 Y119.681 Z-3.538 I-0.95 J-0.019
X98.3 Y119.719 Z-3.643 I0.95 J0.019
X96.4 Y119.681 Z-3.747 I-0.95 J-0.019
X98.3 Y119.719 Z-3.851 I0.95 J0.019
X96.4 Y119.681 Z-3.955 I-0.95 J-0.019
X98.3 Y119.719 Z-4.06 I0.95 J0.019
X96.4 Y119.681 Z-4.164 I-0.95 J-0.019
X98.3 Y119.719 Z-4.268 I0.95 J0.019
X96.4 Y119.681 Z-4.372 I-0.95 J-0.019
X98.3 Y119.719 Z-4.476 I0.95 J0.019
X96.4 Y119.7 Z-4.58 I-0.95 J-0.019
X97.675 I0.637 J0
G1 Y119.706 F240
G3 X97.356 Y120.025 I-0.319 J0
G1 X97.344
G3 X97.025 Y119.706 I0 J-0.319
G1 Y113.494
G3 X97.344 Y113.175 I0.319 J0
G1 X97.356
G3 X97.675 Y113.494 I0 J0.319
G1 Y119.7
G2 X97.96 Y120.168 I0.526 J0
G3 X97.831 Y120.7 I-0.129 J0.251
G1 X96.35
Y112.5
X98.35
Y120.7
X97.831
G3 X97.735 Y120.676 Z-4.553 I0 J-0.2 F480
X97.679 Y120.63 Z-4.48 I0.096 J-0.176
X97.663 Y120.608 Z-4.38 I0.152 J-0.13
G0 Z15

(LIGHTGUIDE SLOT)
M8
G0 X98.15 Y100.775
Z15
Z2
G1 Z-1 F60
X112.674 F240
G0 Z15

(LIGHTGUIDE POCKET)
M8
G0 X103.075 Y100.775
Z15
Z5
G1 Z2 F60
Z-1
X101.343 F240
G2 X103.075 Y99.775 I0 J-2
X104.807 Y100.775 I1.732 J-1
G1 X103.075
Y100.4 Z-0.963 F480
G0 Z15

(INNER OUTLINES)
M8
G0 X60.009 Y18.6
Z15
Z2
G1 Z-0.8 F60
Y18.593 Z-0.852
Y18.573 Z-0.9
Y18.541 Z-0.941
Y18.5 Z-0.973
Y18.452 Z-0.993
Y18.4 Z-1
Y18.2 F120
G3 X60.209 Y18 I0.2 J0
G1 X78.25 F240
Y26.7
G2 X81.75 Y30.2 I3.5 J0
G1 X85.5
Y56.4
G2 X84.5 Y57.4 I0 J1
G1 Y59.4
G2 X85.5 Y60.4 I1 J0
G1 Y61.4
X71.714
X36.708 Y26.394
G2 X35.916 Y18 I-14.208 J-2.894
G1 X38.571
G2 X39.571 Y19 I1 J0
G1 X41.571
G2 X42.571 Y18 I0 J-1
G1 X60.209
G3 X60.41 Y18.2 I0 J0.2 F480
G1 Y18.4
Y18.452 Z-0.993
Y18.5 Z-0.973
Y18.541 Z-0.941
Y18.573 Z-0.9
Y18.593 Z-0.852
Y18.6 Z-0.8
X60.009
Z-1.8 F60
Y18.593 Z-1.852
Y18.573 Z-1.9
Y18.541 Z-1.941
Y18.5 Z-1.973
Y18.452 Z-1.993
Y18.4 Z-2
Y18.2 F120
G3 X60.209 Y18 I0.2 J0
G1 X78.25 F240
Y26.7
G2 X81.75 Y30.2 I3.5 J0
G1 X85.5
Y56.4
G2 X84.5 Y57.4 I0 J1
G1 Y59.4
G2 X85.5 Y60.4 I1 J0
G1 Y61.4
X71.714
X36.708 Y26.394
G2 X35.916 Y18 I-14.208 J-2.894
G1 X38.571
G2 X39.571 Y19 I1 J0
G1 X41.571
G2 X42.571 Y18 I0 J-1
G1 X60.209
G3 X60.41 Y18.2 I0 J0.2 F480
G1 Y18.4
Y18.452 Z-1.993
Y18.5 Z-1.973
Y18.541 Z-1.941
Y18.573 Z-1.9
Y18.593 Z-1.852
Y18.6 Z-1.8
X60.009
Z-2.8 F60
Y18.593 Z-2.852
Y18.573 Z-2.9
Y18.541 Z-2.941
Y18.5 Z-2.973
Y18.452 Z-2.993
Y18.4 Z-3
Y18.2 F120
G3 X60.209 Y18 I0.2 J0
G1 X78.25 F240
Y26.7
G2 X81.75 Y30.2 I3.5 J0
G1 X85.5
Y56.4
G2 X84.5 Y57.4 I0 J1
G1 Y59.4
G2 X85.5 Y60.4 I1 J0
G1 Y61.4
X71.714
X36.708 Y26.394
G2 X35.916 Y18 I-14.208 J-2.894
G1 X38.571
G2 X39.571 Y19 I1 J0
G1 X41.571
G2 X42.571 Y18 I0 J-1
G1 X60.209
G3 X60.41 Y18.2 I0 J0.2 F480
G1 Y18.4
Y18.452 Z-2.993
Y18.5 Z-2.973
Y18.541 Z-2.941
Y18.573 Z-2.9
Y18.593 Z-2.852
Y18.6 Z-2.8
X60.009
Z-3.8 F60
Y18.593 Z-3.852
Y18.573 Z-3.9
Y18.541 Z-3.941
Y18.5 Z-3.973
Y18.452 Z-3.993
Y18.4 Z-4
Y18.2 F120
G3 X60.209 Y18 I0.2 J0
G1 X78.25 F240
Y26.7
G2 X81.75 Y30.2 I3.5 J0
G1 X85.5
Y56.4
G2 X84.5 Y57.4 I0 J1
G1 Y59.4
G2 X85.5 Y60.4 I1 J0
G1 Y61.4
X71.714
X36.708 Y26.394
G2 X35.916 Y18 I-14.208 J-2.894
G1 X38.571
G2 X39.571 Y19 I1 J0
G1 X41.571
G2 X42.571 Y18 I0 J-1
G1 X60.209
G3 X60.41 Y18.2 I0 J0.2 F480
G1 Y18.4
Y18.452 Z-3.993
Y18.5 Z-3.973
Y18.541 Z-3.941
Y18.573 Z-3.9
