(FRAME)
(T11  D=2 CR=0 - ZMIN=-4.58 - FLAT END MILL)
G90 G94 G91.1 G40 G49 G17
G21

(NUT POCKETS)
M5
M9
T11
(DIAMOND OR SPIRAL)
S16000 M3
G54
M8
G0 X50.782 Y22.332
G43 Z15 H1
Z2
G1 Z-0.8 F60
G3 X50.804 Y22.348 Z-0.9 I-0.108 J0.168
X50.85 Y22.404 Z-0.973 I-0.13 J0.152
X50.874 Y22.5 Z-1 I-0.176 J0.096
X50.215 I-0.329 J0 F240
X50.874 I0.329 J0
G2 X51.203 Y22.959 I0.485 J0
G3 X51.167 Y23.522 I-0.094 J0.277
G2 X51.091 Y23.54 I0.198 J0.98
G1 X50.627 Y23.672
G2 X50.183 Y23.938 I0.273 J0.962
X49.917 Y23.493 I-0.962 J0.273
G1 X49.571 Y23.157
G2 X49.119 Y22.905 I-0.696 J0.718
X49.371 Y22.453 I-0.718 J-0.696
G1 X49.489 Y21.985
G2 X49.481 Y21.467 I-0.97 J-0.244
X49.998 Y21.46 I0.244 J-0.97
G1 X50.463 Y21.328
G2 X50.907 Y21.062 I-0.273 J-0.962
X51.173 Y21.507 I0.962 J-0.273
G1 X51.519 Y21.843
G2 X51.971 Y22.095 I0.696 J-0.718
X51.719 Y22.547 I0.718 J0.696
G1 X51.601 Y23.015
G2 X51.609 Y23.533 I0.97 J0.244
X51.167 Y23.522 I-0.244 J0.97
G3 X50.952 Y23.422 I-0.04 J-0.196
G1 X50.499 Y22.596
G3 X50.782 Y22.332 I0.175 J-0.096
G1 Z-1.8 F60
G3 X50.804 Y22.348 Z-1.9 I-0.108 J0.168
X50.85 Y22.404 Z-1.973 I-0.13 J0.152
X50.874 Y22.5 Z-2 I-0.176 J0.096
X50.215 I-0.329 J0 F240
X50.874 I0.329 J0
G2 X51.203 Y22.959 I0.485 J0
G3 X51.167 Y23.522 I-0.094 J0.277
G2 X51.091 Y23.54 I0.198 J0.98
G1 X50.627 Y23.672
G2 X50.183 Y23.938 I0.273 J0.962
X49.917 Y23.493 I-0.962 J0.273
G1 X49.571 Y23.157
G2 X49.119 Y22.905 I-0.696 J0.718
X49.371 Y22.453 I-0.718 J-0.696
G1 X49.489 Y21.985
G2 X49.481 Y21.467 I-0.97 J-0.244
X49.998 Y21.46 I0.244 J-0.97
G1 X50.463 Y21.328
G2 X50.907 Y21.062 I-0.273 J-0.962
X51.173 Y21.507 I0.962 J-0.273
G1 X51.519 Y21.843
G2 X51.971 Y22.095 I0.696 J-0.718
X51.719 Y22.547 I0.718 J0.696
G1 X51.601 Y23.015
G2 X51.609 Y23.533 I0.97 J0.244
X51.167 Y23.522 I-0.244 J0.97
G3 X50.952 Y23.422 I-0.04 J-0.196
G1 X50.499 Y22.596
G3 X50.782 Y22.332 I0.175 J-0.096
G1 Z-2.7 F60
G3 X50.804 Y22.348 Z-2.8 I-0.108 J0.168
X50.85 Y22.404 Z-2.873 I-0.13 J0.152
X50.874 Y22.5 Z-2.9 I-0.176 J0.096
X50.215 I-0.329 J0 F240
X50.874 I0.329 J0
G2 X51.203 Y22.959 I0.485 J0
G3 X51.167 Y23.522 I-0.094 J0.277
G2 X51.091 Y23.54 I0.198 J0.98
G1 X50.627 Y23.672
G2 X50.183 Y23.938 I0.273 J0.962
X49.917 Y23.493 I-0.962 J0.273
G1 X49.571 Y23.157
G2 X49.119 Y22.905 I-0.696 J0.718
X49.371 Y22.453 I-0.718 J-0.696
G1 X49.489 Y21.985
G2 X49.481 Y21.467 I-0.97 J-0.244
X49.998 Y21.46 I0.244 J-0.97
G1 X50.463 Y21.328
G2 X50.907 Y21.062 I-0.273 J-0.962
X51.173 Y21.507 I0.962 J-0.273
G1 X51.519 Y21.843
G2 X51.971 Y22.095 I0.696 J-0.718
X51.719 Y22.547 I0.718 J0.696
G1 X51.601 Y23.015
G2 X51.609 Y23.533 I0.97 J0.244
X51.167 Y23.522 I-0.244 J0.97
G3 X51.068 Y23.517 Z-2.873 I-0.04 J-0.196 F480
X51.003 Y23.483 Z-2.8 I0.059 J-0.191
X50.983 Y23.465 Z-2.7 I0.124 J-0.157
G0 Z5
X55.115 Y38.031
Z2
G1 Z-0.8 F60
G3 X55.136 Y38.047 Z-0.9 I-0.108 J0.168
X55.182 Y38.104 Z-0.973 I-0.13 J0.152
X55.207 Y38.2 Z-1 I-0.176 J0.096
X54.548 I-0.329 J0 F240
X55.207 I0.329 J0
G2 X55.537 Y38.663 I0.49 J0
G3 X55.492 Y39.229 I-0.096 J0.278
G2 X55.408 Y39.248 I0.175 J0.985
G1 X54.942 Y39.373
G2 X54.494 Y39.632 I0.259 J0.966
X54.235 Y39.183 I-0.966 J0.259
G1 X53.894 Y38.842
G2 X53.445 Y38.583 I-0.707 J0.707
X53.704 Y38.135 I-0.707 J-0.707
G1 X53.829 Y37.669
G2 Y37.151 I-0.966 J-0.259
X54.346 I0.259 J-0.966
G1 X54.813 Y37.026
G2 X55.261 Y36.768 I-0.259 J-0.966
X55.52 Y37.216 I0.966 J-0.259
G1 X55.861 Y37.557
G2 X56.309 Y37.816 I0.707 J-0.707
X56.051 Y38.264 I0.707 J0.707
G1 X55.926 Y38.73
G2 Y39.248 I0.966 J0.259
X55.492 Y39.229 I-0.259 J0.966
G3 X55.281 Y39.127 I-0.035 J-0.197
G1 X54.831 Y38.295
G3 X55.115 Y38.031 I0.176 J-0.095
G1 Z-1.8 F60
G3 X55.136 Y38.047 Z-1.9 I-0.108 J0.168
X55.182 Y38.104 Z-1.973 I-0.13 J0.152
X55.207 Y38.2 Z-2 I-0.176 J0.096
X54.548 I-0.329 J0 F240
X55.207 I0.329 J0
G2 X55.537 Y38.663 I0.49 J0
G3 X55.492 Y39.229 I-0.096 J0.278
G2 X55.408 Y39.248 I0.175 J0.985
G1 X54.942 Y39.373
G2 X54.494 Y39.632 I0.259 J0.966
X54.235 Y39.183 I-0.966 J0.259
G1 X53.894 Y38.842
G2 X53.445 Y38.583 I-0.707 J0.707
X53.704 Y38.135 I-0.707 J-0.707
G1 X53.829 Y37.669
G2 Y37.151 I-0.966 J-0.259
X54.346 I0.259 J-0.966
G1 X54.813 Y37.026
G2 X55.261 Y36.768 I-0.259 J-0.966
X55.52 Y37.216 I0.966 J-0.259
G1 X55.861 Y37.557
G2 X56.309 Y37.816 I0.707 J-0.707
X56.051 Y38.264 I0.707 J0.707
G1 X55.926 Y38.73
G2 Y39.248 I0.966 J0.259
X55.492 Y39.229 I-0.259 J0.966
G3 X55.281 Y39.127 I-0.035 J-0.197
G1 X54.831 Y38.295
G3 X55.115 Y38.031 I0.176 J-0.095
G1 Z-2.7 F60
G3 X55.136 Y38.047 Z-2.8 I-0.108 J0.168
X55.182 Y38.104 Z-2.873 I-0.13 J0.152
X55.207 Y38.2 Z-2.9 I-0.176 J0.096
X54.548 I-0.329 J0 F240
X55.207 I0.329 J0
G2 X55.537 Y38.663 I0.49 J0
G3 X55.492 Y39.229 I-0.096 J0.278
G2 X55.408 Y39.248 I0.175 J0.985
G1 X54.942 Y39.373
G2 X54.494 Y39.632 I0.259 J0.966
X54.235 Y39.183 I-0.966 J0.259
G1 X53.894 Y38.842
G2 X53.445 Y38.583 I-0.707 J0.707
X53.704 Y38.135 I-0.707 J-0.707
G1 X53.829 Y37.669
G2 Y37.151 I-0.966 J-0.259
X54.346 I0.259 J-0.966
G1 X54.813 Y37.026
G2 X55.261 Y36.768 I-0.259 J-0.966
X55.52 Y37.216 I0.966 J-0.259
G1 X55.861 Y37.557
G2 X56.309 Y37.816 I0.707 J-0.707
X56.051 Y38.264 I0.707 J0.707
G1 X55.926 Y38.73
G2 Y39.248 I0.966 J0.259
X55.492 Y39.229 I-0.259 J0.966
G3 X55.394 Y39.222 Z-2.873 I-0.035 J-0.197 F480
X55.33 Y39.186 Z-2.8 I0.064 J-0.19
X55.31 Y39.168 Z-2.7 I0.127 J-0.154
G0 Z5
X70.814 Y42.364
Z2
G1 Z-0.8 F60
G3 X70.836 Y42.38 Z-0.9 I-0.108 J0.168
X70.882 Y42.436 Z-0.973 I-0.13 J0.152
X70.906 Y42.532 Z-1 I-0.176 J0.096
X70.247 I-0.329 J0 F240
X70.906 I0.329 J0
G2 X71.237 Y42.999 I0.496 J0
G3 X71.184 Y43.57 I-0.098 J0.278
G2 X71.092 Y43.588 I0.152 J0.988
G1 X70.624 Y43.706
G2 X70.172 Y43.958 I0.244 J0.97
X69.92 Y43.506 I-0.97 J0.244
G1 X69.584 Y43.16
G2 X69.139 Y42.894 I-0.718 J0.696
X69.405 Y42.45 I-0.697 J-0.718
G1 X69.537 Y41.986
G2 X69.544 Y41.468 I-0.962 J-0.273
X70.062 Y41.476 I0.273 J-0.962
G1 X70.53 Y41.358
G2 X70.982 Y41.106 I-0.244 J-0.97
X71.234 Y41.558 I0.97 J-0.244
G1 X71.57 Y41.904
G2 X72.015 Y42.17 I0.718 J-0.696
X71.749 Y42.614 I0.697 J0.718
G1 X71.617 Y43.078
G2 X71.61 Y43.596 I0.962 J0.273
X71.184 Y43.57 I-0.273 J0.962
G3 X70.977 Y43.466 I-0.03 J-0.198
G1 X70.53 Y42.626
G3 X70.814 Y42.364 I0.177 J-0.094
G1 Z-1.8 F60
G3 X70.836 Y42.38 Z-1.9 I-0.108 J0.168
X70.882 Y42.436 Z-1.973 I-0.13 J0.152
X70.906 Y42.532 Z-2 I-0.176 J0.096
X70.247 I-0.329 J0 F240
X70.906 I0.329 J0
G2 X71.237 Y42.999 I0.496 J0
G3 X71.184 Y43.57 I-0.098 J0.278
G2 X71.092 Y43.588 I0.152 J0.988
G1 X70.624 Y43.706
G2 X70.172 Y43.958 I0.244 J0.97
X69.92 Y43.506 I-0.97 J0.244
G1 X69.584 Y43.16
G2 X69.139 Y42.894 I-0.718 J0.696
X69.405 Y42.45 I-0.697 J-0.718
G1 X69.537 Y41.986
G2 X69.544 Y41.468 I-0.962 J-0.273
X70.062 Y41.476 I0.273 J-0.962
G1 X70.53 Y41.358
G2 X70.982 Y41.106 I-0.244 J-0.97
X71.234 Y41.558 I0.97 J-0.244
G1 X71.57 Y41.904
G2 X72.015 Y42.17 I0.718 J-0.696
X71.749 Y42.614 I0.697 J0.718
G1 X71.617 Y43.078
G2 X71.61 Y43.596 I0.962 J0.273
X71.184 Y43.57 I-0.273 J0.962
G3 X70.977 Y43.466 I-0.03 J-0.198
G1 X70.53 Y42.626
G3 X70.814 Y42.364 I0.177 J-0.094
G1 Z-2.7 F60
G3 X70.836 Y42.38 Z-2.8 I-0.108 J0.168
X70.882 Y42.436 Z-2.873 I-0.13 J0.152
X70.906 Y42.532 Z-2.9 I-0.176 J0.096
X70.247 I-0.329 J0 F240
X70.906 I0.329 J0
G2 X71.237 Y42.999 I0.496 J0
G3 X71.184 Y43.57 I-0.098 J0.278
G2 X71.092 Y43.588 I0.152 J0.988
G1 X70.624 Y43.706
G2 X70.172 Y43.958 I0.244 J0.97
X69.92 Y43.506 I-0.97 J0.244
G1 X69.584 Y43.16
G2 X69.139 Y42.894 I-0.718 J0.696
X69.405 Y42.45 I-0.697 J-0.718
G1 X69.537 Y41.986
G2 X69.544 Y41.468 I-0.962 J-0.273
X70.062 Y41.476 I0.273 J-0.962
G1 X70.53 Y41.358
G2 X70.982 Y41.106 I-0.244 J-0.97
X71.234 Y41.558 I0.97 J-0.244
G1 X71.57 Y41.904
G2 X72.015 Y42.17 I0.718 J-0.696
X71.749 Y42.614 I0.697 J0.718
G1 X71.617 Y43.078
G2 X71.61 Y43.596 I0.962 J0.273
X71.184 Y43.57 I-0.273 J0.962
G3 X71.086 Y43.56 Z-2.873 I-0.03 J-0.198 F480
X71.023 Y43.523 Z-2.8 I0.068 J-0.188
X71.004 Y43.504 Z-2.7 I0.131 J-0.151
G0 Z5
X60.705 Y27.93
Z2
G1 Z-0.8 F60
G3 X60.727 Y27.946 Z-0.9 I-0.108 J0.168
X60.773 Y28.002 Z-0.973 I-0.13 J0.152
X60.797 Y28.098 Z-1 I-0.176 J0.096
X60.138 I-0.329 J0 F240
X60.797 I0.329 J0
G2 X61.128 Y28.566 I0.496 J0
G3 X61.075 Y29.136 I-0.098 J0.278
G2 X60.983 Y29.154 I0.152 J0.988
G1 X60.515 Y29.272
G2 X60.063 Y29.524 I0.244 J0.97
X59.81 Y29.072 I-0.97 J0.244
G1 X59.474 Y28.726
G2 X59.03 Y28.461 I-0.718 J0.696
X59.295 Y28.016 I-0.697 J-0.718
G1 X59.427 Y27.552
G2 X59.435 Y27.034 I-0.962 J-0.273
X59.953 Y27.042 I0.273 J-0.962
G1 X60.421 Y26.924
G2 X60.873 Y26.672 I-0.245 J-0.97
X61.125 Y27.124 I0.97 J-0.244
G1 X61.461 Y27.47
G2 X61.905 Y27.736 I0.718 J-0.696
X61.64 Y28.18 I0.697 J0.718
G1 X61.508 Y28.644
G2 X61.5 Y29.162 I0.962 J0.273
X61.075 Y29.136 I-0.273 J0.962
G3 X60.868 Y29.032 I-0.03 J-0.198
G1 X60.421 Y28.192
G3 X60.705 Y27.93 I0.177 J-0.094
G1 Z-1.8 F60
G3 X60.727 Y27.946 Z-1.9 I-0.108 J0.168
X60.773 Y28.002 Z-1.973 I-0.13 J0.152
X60.797 Y28.098 Z-2 I-0.176 J0.096
X60.138 I-0.329 J0 F240
X60.797 I0.329 J0
G2 X61.128 Y28.566 I0.496 J0
G3 X61.075 Y29.136 I-0.098 J0.278
G2 X60.983 Y29.154 I0.152 J0.988
G1 X60.515 Y29.272
G2 X60.063 Y29.524 I0.244 J0.97
X59.81 Y29.072 I-0.97 J0.244
G1 X59.474 Y28.726
G2 X59.03 Y28.461 I-0.718 J0.696
X59.295 Y28.016 I-0.697 J-0.718
G1 X59.427 Y27.552
G2 X59.435 Y27.034 I-0.962 J-0.273
X59.953 Y27.042 I0.273 J-0.962
G1 X60.421 Y26.924
G2 X60.873 Y26.672 I-0.245 J-0.97
X61.125 Y27.124 I0.97 J-0.244
G1 X61.461 Y27.47
G2 X61.905 Y27.736 I0.718 J-0.696
X61.64 Y28.18 I0.697 J0.718
G1 X61.508 Y28.644
G2 X61.5 Y29.162 I0.962 J0.273
X61.075 Y29.136 I-0.273 J0.962
G3 X60.868 Y29.032 I-0.03 J-0.198
G1 X60.421 Y28.192
G3 X60.705 Y27.93 I0.177 J-0.094
G1 Z-2.7 F60
G3 X60.727 Y27.946 Z-2.8 I-0.108 J0.168
X60.773 Y28.002 Z-2.873 I-0.13 J0.152
X60.797 Y28.098 Z-2.9 I-0.176 J0.096
X60.138 I-0.329 J0 F240
X60.797 I0.329 J0
G2 X61.128 Y28.566 I0.496 J0
G3 X61.075 Y29.136 I-0.098 J0.278
G2 X60.983 Y29.154 I0.152 J0.988
G1 X60.515 Y29.272
G2 X60.063 Y29.524 I0.244 J0.97
X59.81 Y29.072 I-0.97 J0.244
G1 X59.474 Y28.726
G2 X59.03 Y28.461 I-0.718 J0.696
X59.295 Y28.016 I-0.697 J-0.718
G1 X59.427 Y27.552
G2 X59.435 Y27.034 I-0.962 J-0.273
X59.953 Y27.042 I0.273 J-0.962
G1 X60.421 Y26.924
G2 X60.873 Y26.672 I-0.245 J-0.97
X61.125 Y27.124 I0.97 J-0.244
G1 X61.461 Y27.47
G2 X61.905 Y27.736 I0.718 J-0.696
X61.64 Y28.18 I0.697 J0.718
G1 X61.508 Y28.644
G2 X61.5 Y29.162 I0.962 J0.273
X61.075 Y29.136 I-0.273 J0.962
G3 X60.976 Y29.126 Z-2.873 I-0.03 J-0.198 F480
X60.913 Y29.089 Z-2.8 I0.068 J-0.188
X60.894 Y29.071 Z-2.7 I0.131 J-0.151
G0 Z5
X76.159 Y32.722
Z2
G1 Z-0.8 F60
G3 X76.134 Y32.729 Z-0.9 I-0.07 J-0.187
X76.061 Y32.732 Z-0.973 I-0.044 J-0.195
X75.97 Y32.694 Z-1 I0.029 J-0.198
X76.365 Y32.167 I0.198 J-0.264 F240
X75.97 Y32.694 I-0.198 J0.264
G2 X75.431 Y32.678 I-0.281 J0.374
G3 X74.995 Y32.363 I-0.158 J-0.241
G1 X75.119 Y31.9
G2 Y31.382 I-0.966 J-0.259
X75.636 I0.259 J-0.966
G1 X76.103 Y31.257
G2 X76.551 Y30.999 I-0.259 J-0.966
X76.81 Y31.447 I0.966 J-0.259
G1 X77.151 Y31.788
G2 X77.599 Y32.047 I0.707 J-0.707
X77.341 Y32.495 I0.707 J0.707
G1 X77.216 Y32.961
G2 Y33.479 I0.966 J0.259
X76.698 I-0.259 J0.966
G1 X76.232 Y33.604
G2 X75.784 Y33.863 I0.259 J0.966
X75.525 Y33.415 I-0.966 J0.259
G1 X75.184 Y33.073
G2 X74.735 Y32.814 I-0.707 J0.707
X74.994 Y32.366 I-0.707 J-0.707
G1 X74.995 Y32.363
G3 X75.215 Y32.216 I0.193 J0.052
G1 X76.116 Y32.336
G3 X76.159 Y32.722 I-0.026 J0.198
G1 Z-1.8 F60
G3 X76.134 Y32.729 Z-1.9 I-0.07 J-0.187
X76.061 Y32.732 Z-1.973 I-0.044 J-0.195
X75.97 Y32.694 Z-2 I0.029 J-0.198
X76.365 Y32.167 I0.198 J-0.264 F240
X75.97 Y32.694 I-0.198 J0.264
G2 X75.431 Y32.678 I-0.281 J0.374
G3 X74.995 Y32.363 I-0.158 J-0.241
G1 X75.119 Y31.9
G2 Y31.382 I-0.966 J-0.259
X75.636 I0.259 J-0.966
G1 X76.103 Y31.257
G2 X76.551 Y30.999 I-0.259 J-0.966
X76.81 Y31.447 I0.966 J-0.259
G1 X77.151 Y31.788
G2 X77.599 Y32.047 I0.707 J-0.707
X77.341 Y32.495 I0.707 J0.707
G1 X77.216 Y32.961
G2 Y33.479 I0.966 J0.259
X76.698 I-0.259 J0.966
G1 X76.232 Y33.604
G2 X75.784 Y33.863 I0.259 J0.966
X75.525 Y33.415 I-0.966 J0.259
G1 X75.184 Y33.073
G2 X74.735 Y32.814 I-0.707 J0.707
X74.994 Y32.366 I-0.707 J-0.707
G1 X74.995 Y32.363
G3 X75.215 Y32.216 I0.193 J0.052
G1 X76.116 Y32.336
G3 X76.159 Y32.722 I-0.026 J0.198
G1 Z-2.7 F60
G3 X76.134 Y32.729 Z-2.8 I-0.07 J-0.187
X76.061 Y32.732 Z-2.873 I-0.044 J-0.195
X75.97 Y32.694 Z-2.9 I0.029 J-0.198
X76.365 Y32.167 I0.198 J-0.264 F240
X75.97 Y32.694 I-0.198 J0.264
G2 X75.431 Y32.678 I-0.281 J0.374
G3 X74.995 Y32.363 I-0.158 J-0.241
G1 X75.119 Y31.9
G2 Y31.382 I-0.966 J-0.259
X75.636 I0.259 J-0.966
G1 X76.103 Y31.257
G2 X76.551 Y30.999 I-0.259 J-0.966
X76.81 Y31.447 I0.966 J-0.259
G1 X77.151 Y31.788
G2 X77.599 Y32.047 I0.707 J-0.707
X77.341 Y32.495 I0.707 J0.707
G1 X77.216 Y32.961
G2 Y33.479 I0.966 J0.259
X76.698 I-0.259 J0.966
G1 X76.232 Y33.604
G2 X75.784 Y33.863 I0.259 J0.966
X75.525 Y33.415 I-0.966 J0.259
G1 X75.184 Y33.073
G2 X74.735 Y32.814 I-0.707 J0.707
X74.994 Y32.366 I-0.707 J-0.707
G1 X74.995 Y32.363
G3 X75.043 Y32.276 Z-2.873 I0.193 J0.052 F480
X75.102 Y32.234 Z-2.8 I0.145 J0.138
X75.127 Y32.224 Z-2.7 I0.086 J0.181
G0 Z5
X80.737 Y47.962
Z2
G1 Z-0.8 F60
G3 X80.759 Y47.978 Z-0.9 I-0.108 J0.168
X80.805 Y48.034 Z-0.973 I-0.13 J0.152
X80.829 Y48.13 Z-1 I-0.176 J0.096
X80.17 I-0.329 J0 F240
X80.829 I0.329 J0
G2 X81.158 Y48.589 I0.485 J0
G3 X81.121 Y49.152 I-0.094 J0.277
G2 X81.046 Y49.171 I0.198 J0.98
G1 X80.582 Y49.302
G2 X80.137 Y49.568 I0.273 J0.962
X79.872 Y49.124 I-0.962 J0.273
G1 X79.526 Y48.787
G2 X79.073 Y48.535 I-0.696 J0.718
X79.326 Y48.083 I-0.718 J-0.696
G1 X79.444 Y47.615
G2 X79.436 Y47.098 I-0.97 J-0.244
X79.954 Y47.09 I0.244 J-0.97
G1 X80.418 Y46.958
G2 X80.862 Y46.693 I-0.273 J-0.962
X81.128 Y47.137 I0.962 J-0.273
G1 X81.474 Y47.473
G2 X81.926 Y47.725 I0.696 J-0.718
X81.674 Y48.177 I0.718 J0.696
G1 X81.556 Y48.645
G2 X81.564 Y49.163 I0.97 J0.244
X81.121 Y49.152 I-0.244 J0.97
G3 X80.906 Y49.052 I-0.04 J-0.196
G1 X80.454 Y48.226
G3 X80.737 Y47.962 I0.175 J-0.096
G1 Z-1.8 F60
G3 X80.759 Y47.978 Z-1.9 I-0.108 J0.168
X80.805 Y48.034 Z-1.973 I-0.13 J0.152
X80.829 Y48.13 Z-2 I-0.176 J0.096
X80.17 I-0.329 J0 F240
X80.829 I0.329 J0
G2 X81.158 Y48.589 I0.485 J0
G3 X81.121 Y49.152 I-0.094 J0.277
G2 X81.046 Y49.171 I0.198 J0.98
G1 X80.582 Y49.302
G2 X80.137 Y49.568 I0.273 J0.962
X79.872 Y49.124 I-0.962 J0.273
G1 X79.526 Y48.787
G2 X79.073 Y48.535 I-0.696 J0.718
X79.326 Y48.083 I-0.718 J-0.696
G1 X79.444 Y47.615
G2 X79.436 Y47.098 I-0.97 J-0.244
X79.954 Y47.09 I0.244 J-0.97
G1 X80.418 Y46.958
G2 X80.862 Y46.693 I-0.273 J-0.962
X81.128 Y47.137 I0.962 J-0.273
G1 X81.474 Y47.473
G2 X81.926 Y47.725 I0.696 J-0.718
X81.674 Y48.177 I0.718 J0.696
G1 X81.556 Y48.645
G2 X81.564 Y49.163 I0.97 J0.244
X81.121 Y49.152 I-0.244 J0.97
G3 X80.906 Y49.052 I-0.04 J-0.196
G1 X80.454 Y48.226
G3 X80.737 Y47.962 I0.175 J-0.096
G1 Z-2.7 F60
G3 X80.759 Y47.978 Z-2.8 I-0.108 J0.168
X80.805 Y48.034 Z-2.873 I-0.13 J0.152
X80.829 Y48.13 Z-2.9 I-0.176 J0.096
X80.17 I-0.329 J0 F240
X80.829 I0.329 J0
G2 X81.158 Y48.589 I0.485 J0
G3 X81.121 Y49.152 I-0.094 J0.277
G2 X81.046 Y49.171 I0.198 J0.98
G1 X80.582 Y49.302
G2 X80.137 Y49.568 I0.273 J0.962
X79.872 Y49.124 I-0.962 J0.273
G1 X79.526 Y48.787
G2 X79.073 Y48.535 I-0.696 J0.718
X79.326 Y48.083 I-0.718 J-0.696
G1 X79.444 Y47.615
G2 X79.436 Y47.098 I-0.97 J-0.244
X79.954 Y47.09 I0.244 J-0.97
G1 X80.418 Y46.958
G2 X80.862 Y46.693 I-0.273 J-0.962
X81.128 Y47.137 I0.962 J-0.273
G1 X81.474 Y47.473
G2 X81.926 Y47.725 I0.696 J-0.718
X81.674 Y48.177 I0.718 J0.696
G1 X81.556 Y48.645
G2 X81.564 Y49.163 I0.97 J0.244
X81.121 Y49.152 I-0.244 J0.97
G3 X81.023 Y49.147 Z-2.873 I-0.04 J-0.196 F480
X80.958 Y49.113 Z-2.8 I0.059 J-0.191
X80.938 Y49.095 Z-2.7 I0.124 J-0.157
G0 Z5
X94.738 Y47.962
Z2
G1 Z-0.8 F60
G3 X94.759 Y47.978 Z-0.9 I-0.108 J0.168
X94.805 Y48.034 Z-0.973 I-0.13 J0.152
X94.83 Y48.13 Z-1 I-0.176 J0.096
X94.171 I-0.329 J0 F240
X94.83 I0.329 J0
G2 X95.136 Y48.515 I0.395 J0
G3 X95.268 Y48.988 I-0.063 J0.273
G1 X95.128 Y49.124
G2 X94.863 Y49.568 I0.696 J0.718
X94.418 Y49.302 I-0.718 J0.697
G1 X93.954 Y49.171
G2 X93.436 Y49.163 I-0.273 J0.962
X93.444 Y48.645 I-0.962 J-0.273
G1 X93.326 Y48.177
G2 X93.074 Y47.725 I-0.97 J0.244
X93.526 Y47.473 I-0.244 J-0.97
G1 X93.872 Y47.137
G2 X94.138 Y46.693 I-0.696 J-0.718
X94.582 Y46.958 I0.718 J-0.697
G1 X95.046 Y47.09
G2 X95.564 Y47.098 I0.273 J-0.962
X95.556 Y47.615 I0.962 J0.273
G1 X95.674 Y48.083
G2 X95.927 Y48.535 I0.97 J-0.244
X95.474 Y48.787 I0.244 J0.97
G1 X95.268 Y48.988
G3 X94.964 Y48.959 I-0.139 J-0.144
G1 X94.466 Y48.245
G3 X94.738 Y47.962 I0.164 J-0.114
G1 Z-1.8 F60
G3 X94.759 Y47.978 Z-1.9 I-0.108 J0.168
X94.805 Y48.034 Z-1.973 I-0.13 J0.152
X94.83 Y48.13 Z-2 I-0.176 J0.096
X94.171 I-0.329 J0 F240
X94.83 I0.329 J0
G2 X95.136 Y48.515 I0.395 J0
G3 X95.268 Y48.988 I-0.063 J0.273
G1 X95.128 Y49.124
G2 X94.863 Y49.568 I0.696 J0.718
X94.418 Y49.302 I-0.718 J0.697
G1 X93.954 Y49.171
G2 X93.436 Y49.163 I-0.273 J0.962
X93.444 Y48.645 I-0.962 J-0.273
G1 X93.326 Y48.177
G2 X93.074 Y47.725 I-0.97 J0.244
X93.526 Y47.473 I-0.244 J-0.97
G1 X93.872 Y47.137
G2 X94.138 Y46.693 I-0.696 J-0.718
X94.582 Y46.958 I0.718 J-0.697
G1 X95.046 Y47.09
G2 X95.564 Y47.098 I0.273 J-0.962
X95.556 Y47.615 I0.962 J0.273
G1 X95.674 Y48.083
G2 X95.927 Y48.535 I0.97 J-0.244
X95.474 Y48.787 I0.244 J0.97
G1 X95.268 Y48.988
G3 X94.964 Y48.959 I-0.139 J-0.144
G1 X94.466 Y48.245
G3 X94.738 Y47.962 I0.164 J-0.114
G1 Z-2.7 F60
G3 X94.759 Y47.978 Z-2.8 I-0.108 J0.168
X94.805 Y48.034 Z-2.873 I-0.13 J0.152
X94.83 Y48.13 Z-2.9 I-0.176 J0.096
X94.171 I-0.329 J0 F240
X94.83 I0.329 J0
G2 X95.136 Y48.515 I0.395 J0
G3 X95.268 Y48.988 I-0.063 J0.273
G1 X95.128 Y49.124
G2 X94.863 Y49.568 I0.696 J0.718
X94.418 Y49.302 I-0.718 J0.697
G1 X93.954 Y49.171
G2 X93.436 Y49.163 I-0.273 J0.962
X93.444 Y48.645 I-0.962 J-0.273
G1 X93.326 Y48.177
G2 X93.074 Y47.725 I-0.97 J0.244
X93.526 Y47.473 I-0.244 J-0.97
G1 X93.872 Y47.137
G2 X94.138 Y46.693 I-0.696 J-0.718
X94.582 Y46.958 I0.718 J-0.697
G1 X95.046 Y47.09
G2 X95.564 Y47.098 I0.273 J-0.962
X95.556 Y47.615 I0.962 J0.273
G1 X95.674 Y48.083
G2 X95.927 Y48.535 I0.97 J-0.244
X95.474 Y48.787 I0.244 J0.97
G1 X95.268 Y48.988
G3 X95.182 Y49.037 Z-2.873 I-0.139 J-0.144 F480
X95.109 Y49.044 Z-2.8 I-0.053 J-0.193
X95.083 Y49.039 Z-2.7 I0.019 J-0.199
G0 Z5
X104.66 Y42.363
Z2
G1 Z-0.8 F60
G3 X104.682 Y42.379 Z-0.9 I-0.108 J0.168
X104.728 Y42.436 Z-0.973 I-0.13 J0.152
X104.752 Y42.532 Z-1 I-0.176 J0.096
X104.093 I-0.329 J0 F240
X104.752 I0.329 J0
G2 X105.05 Y42.928 I0.412 J0
G3 X105.177 Y43.406 I-0.08 J0.278
G1 X105.08 Y43.506
G2 X104.828 Y43.958 I0.718 J0.696
X104.376 Y43.706 I-0.696 J0.718
G1 X103.908 Y43.588
G2 X103.391 Y43.596 I-0.244 J0.97
X103.383 Y43.078 I-0.97 J-0.244
G1 X103.251 Y42.614
G2 X102.985 Y42.17 I-0.962 J0.274
X103.43 Y41.904 I-0.273 J-0.962
G1 X103.766 Y41.558
G2 X104.018 Y41.106 I-0.718 J-0.696
X104.471 Y41.358 I0.697 J-0.718
G1 X104.939 Y41.476
G2 X105.455 Y41.468 I0.244 J-0.97
X105.463 Y41.986 I0.97 J0.244
G1 X105.595 Y42.45
G2 X105.861 Y42.894 I0.962 J-0.273
X105.416 Y43.16 I0.273 J0.962
G1 X105.177 Y43.406
G3 X104.866 Y43.377 I-0.144 J-0.139
G1 X104.385 Y42.641
G3 X104.66 Y42.363 I0.167 J-0.109
G1 Z-1.8 F60
G3 X104.682 Y42.379 Z-1.9 I-0.108 J0.168
X104.728 Y42.436 Z-1.973 I-0.13 J0.152
X104.752 Y42.532 Z-2 I-0.176 J0.096
X104.093 I-0.329 J0 F240
X104.752 I0.329 J0
G2 X105.05 Y42.928 I0.412 J0
G3 X105.177 Y43.406 I-0.08 J0.278
G1 X105.08 Y43.506
G2 X104.828 Y43.958 I0.718 J0.696
X104.376 Y43.706 I-0.696 J0.718
G1 X103.908 Y43.588
G2 X103.391 Y43.596 I-0.244 J0.97
X103.383 Y43.078 I-0.97 J-0.244
G1 X103.251 Y42.614
G2 X102.985 Y42.17 I-0.962 J0.274
X103.43 Y41.904 I-0.273 J-0.962
G1 X103.766 Y41.558
G2 X104.018 Y41.106 I-0.718 J-0.696
X104.471 Y41.358 I0.697 J-0.718
G1 X104.939 Y41.476
G2 X105.455 Y41.468 I0.244 J-0.97
X105.463 Y41.986 I0.97 J0.244
G1 X105.595 Y42.45
G2 X105.861 Y42.894 I0.962 J-0.273
X105.416 Y43.16 I0.273 J0.962
G1 X105.177 Y43.406
G3 X104.866 Y43.377 I-0.144 J-0.139
G1 X104.385 Y42.641
G3 X104.66 Y42.363 I0.167 J-0.109
G1 Z-2.7 F60
G3 X104.682 Y42.379 Z-2.8 I-0.108 J0.168
X104.728 Y42.436 Z-2.873 I-0.13 J0.152
X104.752 Y42.532 Z-2.9 I-0.176 J0.096
X104.093 I-0.329 J0 F240
X104.752 I0.329 J0
G2 X105.05 Y42.928 I0.412 J0
G3 X105.177 Y43.406 I-0.08 J0.278
G1 X105.08 Y43.506
G2 X104.828 Y43.958 I0.718 J0.696
X104.376 Y43.706 I-0.696 J0.718
G1 X103.908 Y43.588
G2 X103.391 Y43.596 I-0.244 J0.97
X103.383 Y43.078 I-0.97 J-0.244
G1 X103.251 Y42.614
G2 X102.985 Y42.17 I-0.962 J0.274
X103.43 Y41.904 I-0.273 J-0.962
G1 X103.766 Y41.558
G2 X104.018 Y41.106 I-0.718 J-0.696
X104.471 Y41.358 I0.697 J-0.718
G1 X104.939 Y41.476
G2 X105.455 Y41.468 I0.244 J-0.97
X105.463 Y41.986 I0.97 J0.244
G1 X105.595 Y42.45
G2 X105.861 Y42.894 I0.962 J-0.273
X105.416 Y43.16 I0.273 J0.962
G1 X105.177 Y43.406
G3 X105.093 Y43.458 Z-2.873 I-0.144 J-0.139 F480
X105.02 Y43.467 Z-2.8 I-0.059 J-0.191
X104.994 Y43.463 Z-2.7 I0.013 J-0.2
G0 Z5
X98.825 Y32.722
Z2
G1 Z-0.8 F60
G3 X98.799 Y32.729 Z-0.9 I-0.07 J-0.187
X98.726 Y32.732 Z-0.973 I-0.044 J-0.195
X98.635 Y32.694 Z-1 I0.029 J-0.198
X99.03 Y32.167 I0.198 J-0.264 F240
X98.635 Y32.694 I-0.198 J0.264
G2 X98.108 Y32.612 I-0.341 J0.454
G3 X97.625 Y32.389 I-0.126 J-0.363
G2 X97.401 Y32.047 I-0.931 J0.365
X97.849 Y31.788 I-0.259 J-0.966
G1 X98.19 Y31.447
G2 X98.449 Y30.999 I-0.707 J-0.707
X98.897 Y31.257 I0.707 J-0.707
G1 X99.364 Y31.382
G2 X99.881 I0.259 J-0.966
Y31.9 I0.966 J0.259
G1 X100.006 Y32.366
G2 X100.265 Y32.814 I0.966 J-0.259
X99.818 Y33.072 I0.259 J0.966
G1 X99.476 Y33.414
G2 X99.216 Y33.862 I0.706 J0.708
X98.768 Y33.604 I-0.707 J0.707
G1 X98.302 Y33.479
G2 X97.784 I-0.259 J0.966
Y32.961 I-0.966 J-0.259
G1 X97.659 Y32.495
G2 X97.625 Y32.389 I-0.966 J0.259
G3 X97.856 Y32.121 I0.186 J-0.073
G1 X98.8 Y32.339
G3 X98.825 Y32.722 I-0.045 J0.195
G1 Z-1.8 F60
G3 X98.799 Y32.729 Z-1.9 I-0.07 J-0.187
X98.726 Y32.732 Z-1.973 I-0.044 J-0.195
X98.635 Y32.694 Z-2 I0.029 J-0.198
X99.03 Y32.167 I0.198 J-0.264 F240
X98.635 Y32.694 I-0.198 J0.264
G2 X98.108 Y32.612 I-0.341 J0.454
G3 X97.625 Y32.389 I-0.126 J-0.363
G2 X97.401 Y32.047 I-0.931 J0.365
X97.849 Y31.788 I-0.259 J-0.966
G1 X98.19 Y31.447
G2 X98.449 Y30.999 I-0.707 J-0.707
X98.897 Y31.257 I0.707 J-0.707
G1 X99.364 Y31.382
G2 X99.881 I0.259 J-0.966
Y31.9 I0.966 J0.259
G1 X100.006 Y32.366
G2 X100.265 Y32.814 I0.966 J-0.259
X99.818 Y33.072 I0.259 J0.966
G1 X99.476 Y33.414
G2 X99.216 Y33.862 I0.706 J0.708
X98.768 Y33.604 I-0.707 J0.707
G1 X98.302 Y33.479
G2 X97.784 I-0.259 J0.966
Y32.961 I-0.966 J-0.259
G1 X97.659 Y32.495
G2 X97.625 Y32.389 I-0.966 J0.259
G3 X97.856 Y32.121 I0.186 J-0.073
G1 X98.8 Y32.339
G3 X98.825 Y32.722 I-0.045 J0.195
G1 Z-2.7 F60
G3 X98.799 Y32.729 Z-2.8 I-0.07 J-0.187
X98.726 Y32.732 Z-2.873 I-0.044 J-0.195
X98.635 Y32.694 Z-2.9 I0.029 J-0.198
X99.03 Y32.167 I0.198 J-0.264 F240
X98.635 Y32.694 I-0.198 J0.264
G2 X98.108 Y32.612 I-0.341 J0.454
G3 X97.625 Y32.389 I-0.126 J-0.363
G2 X97.401 Y32.047 I-0.931 J0.365
X97.849 Y31.788 I-0.259 J-0.966
G1 X98.19 Y31.447
G2 X98.449 Y30.999 I-0.707 J-0.707
X98.897 Y31.257 I0.707 J-0.707
G1 X99.364 Y31.382
G2 X99.881 I0.259 J-0.966
Y31.9 I0.966 J0.259
G1 X100.006 Y32.366
G2 X100.265 Y32.814 I0.966 J-0.259
X99.818 Y33.072 I0.259 J0.966
G1 X99.476 Y33.414
G2 X99.216 Y33.862 I0.706 J0.708
X98.768 Y33.604 I-0.707 J0.707
G1 X98.302 Y33.479
G2 X97.784 I-0.259 J0.966
Y32.961 I-0.966 J-0.259
G1 X97.659 Y32.495
G2 X97.625 Y32.389 I-0.966 J0.259
G3 X97.612 Y32.291 Z-2.873 I0.186 J-0.073 F480
X97.634 Y32.221 Z-2.8 I0.198 J0.025
X97.649 Y32.199 Z-2.7 I0.176 J0.095
G0 Z5
X114.524 Y28.389
Z2
G1 Z-0.8 F60
G3 X114.499 Y28.397 Z-0.9 I-0.07 J-0.187
X114.426 Y28.4 Z-0.973 I-0.044 J-0.195
X114.335 Y28.362 Z-1 I0.029 J-0.198
X114.73 Y27.835 I0.198 J-0.264 F240
X114.335 Y28.362 I-0.198 J0.264
G2 X113.8 Y28.261 I-0.369 J0.492
G3 X113.306 Y28.033 I-0.113 J-0.404
G2 X113.095 Y27.736 I-0.908 J0.42
X113.538 Y27.471 I-0.275 J-0.962
G1 X113.875 Y27.125
G2 X114.128 Y26.672 I-0.717 J-0.697
X114.58 Y26.924 I0.696 J-0.718
G1 X115.048 Y27.042
G2 X115.565 Y27.034 I0.244 J-0.97
X115.573 Y27.55 I0.97 J0.244
G1 X115.704 Y28.015
G2 X115.97 Y28.461 I0.962 J-0.272
X115.525 Y28.726 I0.273 J0.962
G1 X115.189 Y29.072
G2 X114.937 Y29.524 I0.718 J0.696
X114.485 Y29.272 I-0.696 J0.718
G1 X114.017 Y29.154
G2 X113.5 Y29.162 I-0.244 J0.97
X113.492 Y28.644 I-0.97 J-0.244
G1 X113.36 Y28.18
G2 X113.306 Y28.033 I-0.962 J0.274
G3 X113.537 Y27.756 I0.181 J-0.084
G1 X114.505 Y28.008
G3 X114.524 Y28.389 I-0.05 J0.194
G1 Z-1.8 F60
G3 X114.499 Y28.397 Z-1.9 I-0.07 J-0.187
X114.426 Y28.4 Z-1.973 I-0.044 J-0.195
X114.335 Y28.362 Z-2 I0.029 J-0.198
X114.73 Y27.835 I0.198 J-0.264 F240
X114.335 Y28.362 I-0.198 J0.264
G2 X113.8 Y28.261 I-0.369 J0.492
G3 X113.306 Y28.033 I-0.113 J-0.404
G2 X113.095 Y27.736 I-0.908 J0.42
X113.538 Y27.471 I-0.275 J-0.962
G1 X113.875 Y27.125
G2 X114.128 Y26.672 I-0.717 J-0.697
X114.58 Y26.924 I0.696 J-0.718
G1 X115.048 Y27.042
G2 X115.565 Y27.034 I0.244 J-0.97
X115.573 Y27.55 I0.97 J0.244
G1 X115.704 Y28.015
G2 X115.97 Y28.461 I0.962 J-0.272
X115.525 Y28.726 I0.273 J0.962
G1 X115.189 Y29.072
G2 X114.937 Y29.524 I0.718 J0.696
X114.485 Y29.272 I-0.696 J0.718
G1 X114.017 Y29.154
G2 X113.5 Y29.162 I-0.244 J0.97
X113.492 Y28.644 I-0.97 J-0.244
G1 X113.36 Y28.18
G2 X113.306 Y28.033 I-0.962 J0.274
G3 X113.537 Y27.756 I0.181 J-0.084
G1 X114.505 Y28.008
G3 X114.524 Y28.389 I-0.05 J0.194
G1 Z-2.7 F60
G3 X114.499 Y28.397 Z-2.8 I-0.07 J-0.187
X114.426 Y28.4 Z-2.873 I-0.044 J-0.195
X114.335 Y28.362 Z-2.9 I0.029 J-0.198
X114.73 Y27.835 I0.198 J-0.264 F240
X114.335 Y28.362 I-0.198 J0.264
G2 X113.8 Y28.261 I-0.369 J0.492
G3 X113.306 Y28.033 I-0.113 J-0.404
G2 X113.095 Y27.736 I-0.908 J0.42
X113.538 Y27.471 I-0.275 J-0.962
G1 X113.875 Y27.125
G2 X114.128 Y26.672 I-0.717 J-0.697
X114.58 Y26.924 I0.696 J-0.718
G1 X115.048 Y27.042
G2 X115.565 Y27.034 I0.244 J-0.97
X115.573 Y27.55 I0.97 J0.244
G1 X115.704 Y28.015
G2 X115.97 Y28.461 I0.962 J-0.272
X115.525 Y28.726 I0.273 J0.962
G1 X115.189 Y29.072
G2 X114.937 Y29.524 I0.718 J0.696
X114.485 Y29.272 I-0.696 J0.718
G1 X114.017 Y29.154
G2 X113.5 Y29.162 I-0.244 J0.97
X113.492 Y28.644 I-0.97 J-0.244
G1 X113.36 Y28.18
G2 X113.306 Y28.033 I-0.962 J0.274
G3 X113.287 Y27.936 Z-2.873 I0.181 J-0.084 F480
X113.305 Y27.866 Z-2.8 I0.2 J0.013
X113.318 Y27.842 Z-2.7 I0.182 J0.084
G0 Z5
X120.36 Y38.031
Z2
G1 Z-0.8 F60
G3 X120.382 Y38.047 Z-0.9 I-0.108 J0.168
X120.428 Y38.104 Z-0.973 I-0.13 J0.152
X120.452 Y38.2 Z-1 I-0.176 J0.096
X119.793 I-0.329 J0 F240
X120.452 I0.329 J0
G2 X120.754 Y38.589 I0.403 J0
G3 X120.883 Y39.065 I-0.071 J0.275
G1 X120.766 Y39.183
G2 X120.506 Y39.632 I0.706 J0.708
X120.058 Y39.373 I-0.707 J0.707
G1 X119.592 Y39.248
G2 X119.074 I-0.259 J0.966
Y38.732 I-0.966 J-0.259
G1 X118.95 Y38.266
G2 X118.691 Y37.816 I-0.966 J0.257
X119.139 Y37.557 I-0.259 J-0.966
G1 X119.48 Y37.216
G2 X119.739 Y36.768 I-0.707 J-0.707
X120.187 Y37.026 I0.707 J-0.707
G1 X120.653 Y37.151
G2 X121.171 I0.259 J-0.966
Y37.669 I0.966 J0.259
G1 X121.296 Y38.135
G2 X121.555 Y38.583 I0.966 J-0.259
X121.108 Y38.841 I0.259 J0.966
G1 X120.883 Y39.065
G3 X120.577 Y39.036 I-0.141 J-0.142
G1 X120.087 Y38.312
G3 X120.36 Y38.031 I0.166 J-0.112
G1 Z-1.8 F60
G3 X120.382 Y38.047 Z-1.9 I-0.108 J0.168
X120.428 Y38.104 Z-1.973 I-0.13 J0.152
X120.452 Y38.2 Z-2 I-0.176 J0.096
X119.793 I-0.329 J0 F240
X120.452 I0.329 J0
G2 X120.754 Y38.589 I0.403 J0
G3 X120.883 Y39.065 I-0.071 J0.275
G1 X120.766 Y39.183
G2 X120.506 Y39.632 I0.706 J0.708
X120.058 Y39.373 I-0.707 J0.707
G1 X119.592 Y39.248
G2 X119.074 I-0.259 J0.966
Y38.732 I-0.966 J-0.259
G1 X118.95 Y38.266
G2 X118.691 Y37.816 I-0.966 J0.257
X119.139 Y37.557 I-0.259 J-0.966
G1 X119.48 Y37.216
G2 X119.739 Y36.768 I-0.707 J-0.707
X120.187 Y37.026 I0.707 J-0.707
G1 X120.653 Y37.151
G2 X121.171 I0.259 J-0.966
Y37.669 I0.966 J0.259
G1 X121.296 Y38.135
G2 X121.555 Y38.583 I0.966 J-0.259
X121.108 Y38.841 I0.259 J0.966
G1 X120.883 Y39.065
G3 X120.577 Y39.036 I-0.141 J-0.142
G1 X120.087 Y38.312
G3 X120.36 Y38.031 I0.166 J-0.112
G1 Z-2.7 F60
G3 X120.382 Y38.047 Z-2.8 I-0.108 J0.168
X120.428 Y38.104 Z-2.873 I-0.13 J0.152
X120.452 Y38.2 Z-2.9 I-0.176 J0.096
X119.793 I-0.329 J0 F240
X120.452 I0.329 J0
G2 X120.754 Y38.589 I0.403 J0
G3 X120.883 Y39.065 I-0.071 J0.275
G1 X120.766 Y39.183
G2 X120.506 Y39.632 I0.706 J0.708
X120.058 Y39.373 I-0.707 J0.707
G1 X119.592 Y39.248
G2 X119.074 I-0.259 J0.966
Y38.732 I-0.966 J-0.259
G1 X118.95 Y38.266
G2 X118.691 Y37.816 I-0.966 J0.257
X119.139 Y37.557 I-0.259 J-0.966
G1 X119.48 Y37.216
G2 X119.739 Y36.768 I-0.707 J-0.707
X120.187 Y37.026 I0.707 J-0.707
G1 X120.653 Y37.151
G2 X121.171 I0.259 J-0.966
Y37.669 I0.966 J0.259
G1 X121.296 Y38.135
G2 X121.555 Y38.583 I0.966 J-0.259
X121.108 Y38.841 I0.259 J0.966
G1 X120.883 Y39.065
G3 X120.798 Y39.116 Z-2.873 I-0.141 J-0.142 F480
X120.726 Y39.123 Z-2.8 I-0.056 J-0.192
X120.699 Y39.119 Z-2.7 I0.016 J-0.199
G0 Z5
X124.447 Y22.791
Z2
G1 Z-0.8 F60
G3 X124.422 Y22.799 Z-0.9 I-0.07 J-0.187
X124.349 Y22.801 Z-0.973 I-0.044 J-0.195
X124.258 Y22.763 Z-1 I0.029 J-0.198
X124.653 Y22.236 I0.198 J-0.264 F240
X124.258 Y22.763 I-0.198 J0.264
G2 X123.738 Y22.699 I-0.317 J0.422
G3 X123.261 Y22.48 I-0.137 J-0.329
G2 X123.029 Y22.095 I-0.95 J0.311
X123.482 Y21.843 I-0.244 J-0.97
G1 X123.828 Y21.506
G2 X124.093 Y21.063 I-0.697 J-0.717
X124.537 Y21.328 I0.717 J-0.697
G1 X125.002 Y21.46
G2 X125.519 Y21.467 I0.273 J-0.962
X125.511 Y21.985 I0.962 J0.273
G1 X125.629 Y22.453
G2 X125.881 Y22.905 I0.97 J-0.244
X125.43 Y23.156 I0.245 J0.97
G1 X125.083 Y23.493
G2 X124.817 Y23.937 I0.696 J0.718
X124.373 Y23.672 I-0.717 J0.697
G1 X123.909 Y23.54
G2 X123.391 Y23.533 I-0.273 J0.962
X123.399 Y23.015 I-0.962 J-0.273
G1 X123.281 Y22.547
G2 X123.261 Y22.48 I-0.97 J0.244
G3 X123.491 Y22.222 I0.19 J-0.062
G1 X124.417 Y22.407
G3 X124.447 Y22.791 I-0.039 J0.196
G1 Z-1.8 F60
G3 X124.422 Y22.799 Z-1.9 I-0.07 J-0.187
X124.349 Y22.801 Z-1.973 I-0.044 J-0.195
X124.258 Y22.763 Z-2 I0.029 J-0.198
X124.653 Y22.236 I0.198 J-0.264 F240
X124.258 Y22.763 I-0.198 J0.264
G2 X123.738 Y22.699 I-0.317 J0.422
G3 X123.261 Y22.48 I-0.137 J-0.329
G2 X123.029 Y22.095 I-0.95 J0.311
X123.482 Y21.843 I-0.244 J-0.97
G1 X123.828 Y21.506
G2 X124.093 Y21.063 I-0.697 J-0.717
X124.537 Y21.328 I0.717 J-0.697
G1 X125.002 Y21.46
G2 X125.519 Y21.467 I0.273 J-0.962
X125.511 Y21.985 I0.962 J0.273
G1 X125.629 Y22.453
G2 X125.881 Y22.905 I0.97 J-0.244
X125.43 Y23.156 I0.245 J0.97
G1 X125.083 Y23.493
G2 X124.817 Y23.937 I0.696 J0.718
X124.373 Y23.672 I-0.717 J0.697
G1 X123.909 Y23.54
G2 X123.391 Y23.533 I-0.273 J0.962
X123.399 Y23.015 I-0.962 J-0.273
G1 X123.281 Y22.547
G2 X123.261 Y22.48 I-0.97 J0.244
G3 X123.491 Y22.222 I0.19 J-0.062
G1 X124.417 Y22.407
G3 X124.447 Y22.791 I-0.039 J0.196
G1 Z-2.7 F60
G3 X124.422 Y22.799 Z-2.8 I-0.07 J-0.187
X124.349 Y22.801 Z-2.873 I-0.044 J-0.195
X124.258 Y22.763 Z-2.9 I0.029 J-0.198
X124.653 Y22.236 I0.198 J-0.264 F240
X124.258 Y22.763 I-0.198 J0.264
G2 X123.738 Y22.699 I-0.317 J0.422
G3 X123.261 Y22.48 I-0.137 J-0.329
G2 X123.029 Y22.095 I-0.95 J0.311
X123.482 Y21.843 I-0.244 J-0.97
G1 X123.828 Y21.506
G2 X124.093 Y21.063 I-0.697 J-0.717
X124.537 Y21.328 I0.717 J-0.697
G1 X125.002 Y21.46
G2 X125.519 Y21.467 I0.273 J-0.962
X125.511 Y21.985 I0.962 J0.273
G1 X125.629 Y22.453
G2 X125.881 Y22.905 I0.97 J-0.244
X125.43 Y23.156 I0.245 J0.97
G1 X125.083 Y23.493
G2 X124.817 Y23.937 I0.696 J0.718
X124.373 Y23.672 I-0.717 J0.697
G1 X123.909 Y23.54
G2 X123.391 Y23.533 I-0.273 J0.962
X123.399 Y23.015 I-0.962 J-0.273
G1 X123.281 Y22.547
G2 X123.261 Y22.48 I-0.97 J0.244
G3 X123.255 Y22.381 Z-2.873 I0.19 J-0.062 F480
X123.281 Y22.314 Z-2.8 I0.197 J0.037
X123.296 Y22.292 Z-2.7 I0.171 J0.104
G0 Z15

(SCREW HOLES)
M8
G0 X50.69 Y22.181
Z15
Z2
G1 Z-0.9 F60
Z-3.7
G3 X50.717 Y22.18 Z-3.8 I0.015 J0.199
X50.788 Y22.198 Z-3.873 I-0.012 J0.2
X50.865 Y22.26 Z-3.9 I-0.083 J0.182
X50.225 Y22.74 I-0.32 J0.24 F240
X50.865 Y22.26 I0.32 J-0.24
X50.807 Y22.332 I-0.038 J0.029
G1 X50.674 Y22.272
G3 X50.69 Y22.181 I0.02 J-0.044
G1 Z-4.38 F60
G3 X50.717 Y22.18 Z-4.48 I0.015 J0.199
X50.788 Y22.198 Z-4.553 I-0.012 J0.2
X50.865 Y22.26 Z-4.58 I-0.083 J0.182
X50.225 Y22.74 I-0.32 J0.24 F240
X50.865 Y22.26 I0.32 J-0.24
X50.903 Y22.351 Z-4.553 I-0.16 J0.12 F480
X50.9 Y22.424 Z-4.48 I-0.198 J0.029
X50.892 Y22.45 Z-4.38 I-0.195 J-0.044
G0 Z5
X54.53 Y38.149
Z2
G1 Z-0.9 F60
Z-3.7
G3 X54.522 Y38.124 Z-3.8 I0.187 J-0.07
X54.519 Y38.051 Z-3.873 I0.195 J-0.044
X54.557 Y37.96 Z-3.9 I0.198 J0.029
X55.197 Y38.44 I0.32 J0.24 F240
X54.557 Y37.96 I-0.32 J-0.24
X54.643 Y37.995 I0.038 J0.029
G1 X54.622 Y38.14
G3 X54.53 Y38.149 I-0.047 J-0.007
G1 Z-4.38 F60
G3 X54.522 Y38.124 Z-4.48 I0.187 J-0.07
X54.519 Y38.051 Z-4.553 I0.195 J-0.044
X54.557 Y37.96 Z-4.58 I0.198 J0.029
X55.197 Y38.44 I0.32 J0.24 F240
X54.557 Y37.96 I-0.32 J-0.24
X54.634 Y37.898 Z-4.553 I0.16 J0.12 F480
X54.705 Y37.88 Z-4.48 I0.083 J0.182
X54.732 Z-4.38 I0.012 J0.2
G0 Z5
X70.745 Y42.84
Z2
G1 Z-0.9 F60
Z-3.7
G3 X70.729 Y42.862 Z-3.8 I-0.168 J-0.108
X70.673 Y42.908 Z-3.873 I-0.152 J-0.13
X70.577 Y42.932 Z-3.9 I-0.096 J-0.176
Y42.132 I0 J-0.4 F240
Y42.932 I0 J0.4
X70.554 Y42.842 I0 J-0.048
G1 X70.682 Y42.772
G3 X70.745 Y42.84 I0.023 J0.042
G1 Z-4.38 F60
G3 X70.729 Y42.862 Z-4.48 I-0.168 J-0.108
X70.673 Y42.908 Z-4.553 I-0.152 J-0.13
X70.577 Y42.932 Z-4.58 I-0.096 J-0.176
Y42.132 I0 J-0.4 F240
Y42.932 I0 J0.4
X70.481 Y42.908 Z-4.553 I0 J-0.2 F480
X70.425 Y42.862 Z-4.48 I0.096 J-0.176
X70.409 Y42.84 Z-4.38 I0.152 J-0.13
G0 Z5
X60.815 Y28.148
Z2
G1 Z-0.9 F60
Z-3.7
G3 X60.823 Y28.174 Z-3.8 I-0.187 J0.07
X60.826 Y28.247 Z-3.873 I-0.195 J0.044
X60.788 Y28.338 Z-3.9 I-0.198 J-0.029
X60.148 Y27.858 I-0.32 J-0.24 F240
X60.788 Y28.338 I0.32 J0.24
X60.702 Y28.303 I-0.038 J-0.029
G1 X60.723 Y28.158
G3 X60.815 Y28.148 I0.047 J0.007
G1 Z-4.38 F60
G3 X60.823 Y28.174 Z-4.48 I-0.187 J0.07
X60.826 Y28.247 Z-4.553 I-0.195 J0.044
X60.788 Y28.338 Z-4.58 I-0.198 J-0.029
X60.148 Y27.858 I-0.32 J-0.24 F240
X60.788 Y28.338 I0.32 J0.24
X60.711 Y28.4 Z-4.553 I-0.16 J-0.12 F480
X60.64 Y28.418 Z-4.48 I-0.083 J-0.182
X60.613 Z-4.38 I-0.012 J-0.2
G0 Z5
X75.999 Y32.123
Z2
G1 Z-0.9 F60
Z-3.7
G3 X76.015 Y32.101 Z-3.8 I0.168 J0.108
X76.071 Y32.055 Z-3.873 I0.152 J0.13
X76.167 Y32.031 Z-3.9 I0.096 J0.176
Y32.831 I0 J0.4 F240
Y32.031 I0 J-0.4
X76.19 Y32.121 I0 J0.048
G1 X76.062 Y32.191
G3 X75.999 Y32.123 I-0.023 J-0.042
G1 Z-4.38 F60
G3 X76.015 Y32.101 Z-4.48 I0.168 J0.108
X76.071 Y32.055 Z-4.553 I0.152 J0.13
X76.167 Y32.031 Z-4.58 I0.096 J0.176
Y32.831 I0 J0.4 F240
Y32.031 I0 J-0.4
X76.263 Y32.055 Z-4.553 I0 J0.2 F480
X76.32 Y32.101 Z-4.48 I-0.096 J0.176
X76.336 Y32.123 Z-4.38 I-0.152 J0.13
G0 Z5
X80.847 Y48.181
Z2
G1 Z-0.9 F60
Z-3.7
G3 X80.855 Y48.206 Z-3.8 I-0.187 J0.07
X80.858 Y48.279 Z-3.873 I-0.195 J0.044
X80.82 Y48.37 Z-3.9 I-0.198 J-0.029
X80.18 Y47.89 I-0.32 J-0.24 F240
X80.82 Y48.37 I0.32 J0.24
X80.734 Y48.335 I-0.038 J-0.029
G1 X80.755 Y48.19
G3 X80.847 Y48.181 I0.047 J0.007
G1 Z-4.38 F60
G3 X80.855 Y48.206 Z-4.48 I-0.187 J0.07
X80.858 Y48.279 Z-4.553 I-0.195 J0.044
X80.82 Y48.37 Z-4.58 I-0.198 J-0.029
X80.18 Y47.89 I-0.32 J-0.24 F240
X80.82 Y48.37 I0.32 J0.24
X80.743 Y48.432 Z-4.553 I-0.16 J-0.12 F480
X80.672 Y48.45 Z-4.48 I-0.083 J-0.182
X80.645 Z-4.38 I-0.012 J-0.2
G0 Z5
X94.82 Y48.276
Z2
G1 Z-0.9 F60
Z-3.7
G3 Y48.303 Z-3.8 I-0.199 J0.015
X94.802 Y48.373 Z-3.873 I-0.2 J-0.012
X94.74 Y48.45 Z-3.9 I-0.182 J-0.083
X94.26 Y47.81 I-0.24 J-0.32 F240
X94.74 Y48.45 I0.24 J0.32
X94.668 Y48.392 I-0.029 J-0.038
G1 X94.728 Y48.259
G3 X94.82 Y48.276 I0.044 J0.02
G1 Z-4.38 F60
G3 Y48.303 Z-4.48 I-0.199 J0.015
X94.802 Y48.373 Z-4.553 I-0.2 J-0.012
X94.74 Y48.45 Z-4.58 I-0.182 J-0.083
X94.26 Y47.81 I-0.24 J-0.32 F240
X94.74 Y48.45 I0.24 J0.32
X94.649 Y48.488 Z-4.553 I-0.12 J-0.16 F480
X94.576 Y48.485 Z-4.48 I-0.029 J-0.198
X94.55 Y48.478 Z-4.38 I0.044 J-0.195
G0 Z5
X98.883 Y32.083
Z2
G1 Z-0.9 F60
Z-3.7
G3 X98.909 Y32.076 Z-3.8 I0.07 J0.187
X98.981 Y32.073 Z-3.873 I0.044 J0.195
X99.073 Y32.111 Z-3.9 I-0.029 J0.198
X98.593 Y32.751 I-0.24 J0.32 F240
X99.073 Y32.111 I0.24 J-0.32
X99.037 Y32.197 I-0.029 J0.038
G1 X98.893 Y32.176
G3 X98.883 Y32.083 I0.007 J-0.047
G1 Z-4.38 F60
G3 X98.909 Y32.076 Z-4.48 I0.07 J0.187
X98.981 Y32.073 Z-4.553 I0.044 J0.195
X99.073 Y32.111 Z-4.58 I-0.029 J0.198
X98.593 Y32.751 I-0.24 J0.32 F240
X99.073 Y32.111 I0.24 J-0.32
X99.135 Y32.188 Z-4.553 I-0.12 J0.16 F480
X99.152 Y32.258 Z-4.48 I-0.182 J0.083
Y32.285 Z-4.38 I-0.2 J0.012
G0 Z5
X104.104 Y42.387
Z2
G1 Z-0.9 F60
Z-3.7
G3 X104.103 Y42.36 Z-3.8 I0.199 J-0.015
X104.121 Y42.289 Z-3.873 I0.2 J0.012
X104.183 Y42.212 Z-3.9 I0.182 J0.083
X104.663 Y42.852 I0.24 J0.32 F240
X104.183 Y42.212 I-0.24 J-0.32
X104.255 Y42.27 I0.029 J0.038
G1 X104.195 Y42.403
G3 X104.104 Y42.387 I-0.044 J-0.02
G1 Z-4.38 F60
G3 X104.103 Y42.36 Z-4.48 I0.199 J-0.015
X104.121 Y42.289 Z-4.553 I0.2 J0.012
X104.183 Y42.212 Z-4.58 I0.182 J0.083
X104.663 Y42.852 I0.24 J0.32 F240
X104.183 Y42.212 I-0.24 J-0.32
X104.274 Y42.174 Z-4.553 I0.12 J0.16 F480
X104.347 Y42.177 Z-4.48 I0.029 J0.198
X104.373 Y42.185 Z-4.38 I-0.044 J0.195
G0 Z5
X114.224 Y28.266
Z2
G1 Z-0.9 F60
Z-3.7
G3 X114.202 Y28.251 Z-3.8 I0.108 J-0.168
X114.156 Y28.194 Z-3.873 I0.13 J-0.152
X114.132 Y28.098 Z-3.9 I0.176 J-0.096
X114.932 I0.4 J0 F240
X114.132 I-0.4 J0
X114.222 Y28.075 I0.048 J0
G1 X114.292 Y28.203
G3 X114.224 Y28.266 I-0.042 J0.023
G1 Z-4.38 F60
G3 X114.202 Y28.251 Z-4.48 I0.108 J-0.168
X114.156 Y28.194 Z-4.553 I0.13 J-0.152
X114.132 Y28.098 Z-4.58 I0.176 J-0.096
X114.932 I0.4 J0 F240
X114.132 I-0.4 J0
X114.156 Y28.002 Z-4.553 I0.2 J0 F480
X114.202 Y27.946 Z-4.48 I0.176 J0.096
X114.224 Y27.93 Z-4.38 I0.13 J0.152
G0 Z5
X119.804 Y38.054
Z2
G1 Z-0.9 F60
Z-3.7
G3 X119.803 Y38.027 Z-3.8 I0.199 J-0.015
X119.821 Y37.957 Z-3.873 I0.2 J0.012
X119.883 Y37.88 Z-3.9 I0.182 J0.083
X120.363 Y38.52 I0.24 J0.32 F240
X119.883 Y37.88 I-0.24 J-0.32
X119.955 Y37.938 I0.029 J0.038
G1 X119.895 Y38.071
G3 X119.804 Y38.054 I-0.044 J-0.02
G1 Z-4.38 F60
G3 X119.803 Y38.027 Z-4.48 I0.199 J-0.015
X119.821 Y37.957 Z-4.553 I0.2 J0.012
X119.883 Y37.88 Z-4.58 I0.182 J0.083
X120.363 Y38.52 I0.24 J0.32 F240
X119.883 Y37.88 I-0.24 J-0.32
X119.974 Y37.842 Z-4.553 I0.12 J0.16 F480
X120.047 Y37.845 Z-4.48 I0.029 J0.198
X120.073 Y37.852 Z-4.38 I-0.044 J0.195
G0 Z5
X124.136 Y22.355
Z2
G1 Z-0.9 F60
Z-3.7
G3 X124.135 Y22.328 Z-3.8 I0.199 J-0.015
X124.153 Y22.257 Z-3.873 I0.2 J0.012
X124.215 Y22.18 Z-3.9 I0.182 J0.083
X124.695 Y22.82 I0.24 J0.32 F240
X124.215 Y22.18 I-0.24 J-0.32
X124.287 Y22.238 I0.029 J0.038
G1 X124.227 Y22.371
G3 X124.136 Y22.355 I-0.044 J-0.02
G1 Z-4.38 F60
G3 X124.135 Y22.328 Z-4.48 I0.199 J-0.015
X124.153 Y22.257 Z-4.553 I0.2 J0.012
X124.215 Y22.18 Z-4.58 I0.182 J0.083
X124.695 Y22.82 I0.24 J0.32 F240
X124.215 Y22.18 I-0.24 J-0.32
X124.306 Y22.142 Z-4.553 I0.12 J0.16 F480
X124.379 Y22.145 Z-4.48 I0.029 J0.198
X124.405 Y22.153 Z-4.38 I-0.044 J0.195
G0 Z15

(CUTOUTS)
M8
G0 X71.172 Y37.966
Z15
Z2
G1 Z-0.8 F60
X71.171 Y37.973 Z-0.852
X71.17 Y37.993 Z-0.9
X71.167 Y38.025 Z-0.941
X71.163 Y38.066 Z-0.973
X71.159 Y38.114 Z-0.993
X71.155 Y38.166 Z-1
X71.137 Y38.365 F120
G3 X70.921 Y38.547 I-0.199 J-0.017
G2 X70.522 Y38.594 I-0.086 J0.996 F240
G3 X54.483 Y22.555 I-3.977 J-12.061
G2 X54.53 Y22.156 I-0.95 J-0.313
X46.666 Y21.522 I-3.985 J0.344
X49.344 Y37.685 I19.878 J5.01
X71.554 Y46.411 I17.201 J-11.153
X70.921 Y38.547 I-0.977 J-3.879
G3 X70.739 Y38.33 I0.017 J-0.199 F480
G1 X70.756 Y38.131
X70.761 Y38.08 Z-0.993
X70.765 Y38.032 Z-0.973
X70.768 Y37.99 Z-0.941
X70.771 Y37.959 Z-0.9
X70.773 Y37.939 Z-0.852
Y37.932 Z-0.8
X71.172 Y37.966
Z-1.8 F60
X71.171 Y37.973 Z-1.852
X71.17 Y37.993 Z-1.9
X71.167 Y38.025 Z-1.941
X71.163 Y38.066 Z-1.973
X71.159 Y38.114 Z-1.993
X71.155 Y38.166 Z-2
X71.137 Y38.365 F120
G3 X70.921 Y38.547 I-0.199 J-0.017
G2 X70.522 Y38.594 I-0.086 J0.996 F240
G3 X54.483 Y22.555 I-3.977 J-12.061
G2 X54.53 Y22.156 I-0.95 J-0.313
X46.666 Y21.522 I-3.985 J0.344
X49.344 Y37.685 I19.878 J5.01
X71.554 Y46.411 I17.201 J-11.153
X70.921 Y38.547 I-0.977 J-3.879
G3 X70.739 Y38.33 I0.017 J-0.199 F480
G1 X70.756 Y38.131
X70.761 Y38.08 Z-1.993
X70.765 Y38.032 Z-1.973
X70.768 Y37.99 Z-1.941
X70.771 Y37.959 Z-1.9
X70.773 Y37.939 Z-1.852
Y37.932 Z-1.8
X71.172 Y37.966
Z-2.8 F60
X71.171 Y37.973 Z-2.852
X71.17 Y37.993 Z-2.9
X71.167 Y38.025 Z-2.941
X71.163 Y38.066 Z-2.973
X71.159 Y38.114 Z-2.993
X71.155 Y38.166 Z-3
X71.137 Y38.365 F120
G3 X70.921 Y38.547 I-0.199 J-0.017
G2 X70.522 Y38.594 I-0.086 J0.996 F240
G3 X54.483 Y22.555 I-3.977 J-12.061
G2 X54.53 Y22.156 I-0.95 J-0.313
X46.666 Y21.522 I-3.985 J0.344
X49.344 Y37.685 I19.878 J5.01
X71.554 Y46.411 I17.201 J-11.153
X70.921 Y38.547 I-0.977 J-3.879
G3 X70.739 Y38.33 I0.017 J-0.199 F480
G1 X70.756 Y38.131
X70.761 Y38.08 Z-2.993
X70.765 Y38.032 Z-2.973
X70.768 Y37.99 Z-2.941
X70.771 Y37.959 Z-2.9
X70.773 Y37.939 Z-2.852
Y37.932 Z-2.8
X71.172 Y37.966
Z-3.8 F60
X71.171 Y37.973 Z-3.852
X71.17 Y37.993 Z-3.9
X71.167 Y38.025 Z-3.941
X71.163 Y38.066 Z-3.973
X71.159 Y38.114 Z-3.993
X71.155 Y38.166 Z-4
X71.137 Y38.365 F120
G3 X70.921 Y38.547 I-0.199 J-0.017
G2 X70.522 Y38.594 I-0.086 J0.996 F240
G3 X54.483 Y22.555 I-3.977 J-12.061
G2 X54.53 Y22.156 I-0.95 J-0.313
X46.666 Y21.522 I-3.985 J0.344
X49.344 Y37.685 I19.878 J5.01
X71.554 Y46.411 I17.201 J-11.153
X70.921 Y38.547 I-0.977 J-3.879
G3 X70.739 Y38.33 I0.017 J-0.199 F480
G1 X70.756 Y38.131
X70.761 Y38.08 Z-3.993
X70.765 Y38.032 Z-3.973
X70.768 Y37.99 Z-3.941
X70.771 Y37.959 Z-3.9
X70.773 Y37.939 Z-3.852
Y37.932 Z-3.8
X71.172 Y37.966
Z-4.38 F60
X71.171 Y37.973 Z-4.432
X71.17 Y37.993 Z-4.48
X71.167 Y38.025 Z-4.521
X71.163 Y38.066 Z-4.553
X71.159 Y38.114 Z-4.573
X71.155 Y38.166 Z-4.58
X71.137 Y38.365 F120
G3 X70.921 Y38.547 I-0.199 J-0.017
G2 X70.522 Y38.594 I-0.086 J0.996 F240
G3 X54.483 Y22.555 I-3.977 J-12.061
G2 X54.53 Y22.156 I-0.95 J-0.313
X46.666 Y21.522 I-3.985 J0.344
X49.344 Y37.685 I19.878 J5.01
X71.554 Y46.411 I17.201 J-11.153
X70.921 Y38.547 I-0.977 J-3.879
G3 X70.739 Y38.33 I0.017 J-0.199 F480
G1 X70.756 Y38.131
X70.761 Y38.08 Z-4.573
X70.765 Y38.032 Z-4.553
X70.768 Y37.99 Z-4.521
X70.771 Y37.959 Z-4.48
X70.773 Y37.939 Z-4.432
Y37.932 Z-4.38
G0 Z5
X59.873 Y32.664
Z2
G1 Z-0.8 F60
Y32.657 Z-0.852
X59.875 Y32.637 Z-0.9
X59.878 Y32.606 Z-0.941
X59.881 Y32.564 Z-0.973
X59.885 Y32.516 Z-0.993
X59.89 Y32.465 Z-1
X59.907 Y32.265 F120
G3 X60.123 Y32.083 I0.199 J0.017
G2 X60.523 Y32.037 I0.086 J-0.996 F240
G3 X76.561 Y48.075 I3.977 J12.061
G2 X76.515 Y48.474 I0.95 J0.313
X84.378 Y49.108 I3.985 J-0.344
X85 Y44.039 I-19.878 J-5.01
X59.49 Y24.22 I-20.5 J0.059
X60.123 Y32.083 I0.978 J3.879
G3 X60.305 Y32.3 I-0.017 J0.199 F480
G1 X60.288 Y32.499
X60.284 Y32.551 Z-0.993
X60.28 Y32.599 Z-0.973
X60.276 Y32.64 Z-0.941
X60.273 Y32.672 Z-0.9
X60.272 Y32.692 Z-0.852
X60.271 Y32.698 Z-0.8
X59.873 Y32.664
Z-1.8 F60
Y32.657 Z-1.852
X59.875 Y32.637 Z-1.9
X59.878 Y32.606 Z-1.941
X59.881 Y32.564 Z-1.973
X59.885 Y32.516 Z-1.993
X59.89 Y32.465 Z-2
X59.907 Y32.265 F120
G3 X60.123 Y32.083 I0.199 J0.017
G2 X60.523 Y32.037 I0.086 J-0.996 F240
G3 X76.561 Y48.075 I3.977 J12.061
G2 X76.515 Y48.474 I0.95 J0.313
X84.378 Y49.108 I3.985 J-0.344
X85 Y44.039 I-19.878 J-5.01
X59.49 Y24.22 I-20.5 J0.059
X60.123 Y32.083 I0.978 J3.879
G3 X60.305 Y32.3 I-0.017 J0.199 F480
G1 X60.288 Y32.499
X60.284 Y32.551 Z-1.993
X60.28 Y32.599 Z-1.973
X60.276 Y32.64 Z-1.941
X60.273 Y32.672 Z-1.9
X60.272 Y32.692 Z-1.852
X60.271 Y32.698 Z-1.8
X59.873 Y32.664
Z-2.8 F60
Y32.657 Z-2.852
X59.875 Y32.637 Z-2.9
X59.878 Y32.606 Z-2.941
X59.881 Y32.564 Z-2.973
X59.885 Y32.516 Z-2.993
X59.89 Y32.465 Z-3
X59.907 Y32.265 F120
G3 X60.123 Y32.083 I0.199 J0.017
G2 X60.523 Y32.037 I0.086 J-0.996 F240
G3 X76.561 Y48.075 I3.977 J12.061
G2 X76.515 Y48.474 I0.95 J0.313
X84.378 Y49.108 I3.985 J-0.344
X85 Y44.039 I-19.878 J-5.01
X59.49 Y24.22 I-20.5 J0.059
X60.123 Y32.083 I0.978 J3.879
G3 X60.305 Y32.3 I-0.017 J0.199 F480
G1 X60.288 Y32.499
X60.284 Y32.551 Z-2.993
X60.28 Y32.599 Z-2.973
X60.276 Y32.64 Z-2.941
X60.273 Y32.672 Z-2.9
X60.272 Y32.692 Z-2.852
X60.271 Y32.698 Z-2.8
X59.873 Y32.664
Z-3.8 F60
Y32.657 Z-3.852
X59.875 Y32.637 Z-3.9
X59.878 Y32.606 Z-3.941
X59.881 Y32.564 Z-3.973
X59.885 Y32.516 Z-3.993
X59.89 Y32.465 Z-4
X59.907 Y32.265 F120
G3 X60.123 Y32.083 I0.199 J0.017
G2 X60.523 Y32.037 I0.086 J-0.996 F240
G3 X76.561 Y48.075 I3.977 J12.061
G2 X76.515 Y48.474 I0.95 J0.313
X84.378 Y49.108 I3.985 J-0.344
X85 Y44.039 I-19.878 J-5.01
X59.49 Y24.22 I-20.5 J0.059
X60.123 Y32.083 I0.978 J3.879
G3 X60.305 Y32.3 I-0.017 J0.199 F480
G1 X60.288 Y32.499
X60.284 Y32.551 Z-3.993
X60.28 Y32.599 Z-3.973
X60.276 Y32.64 Z-3.941
X60.273 Y32.672 Z-3.9
X60.272 Y32.692 Z-3.852
X60.271 Y32.698 Z-3.8
X59.873 Y32.664
Z-4.38 F60
Y32.657 Z-4.432
X59.875 Y32.637 Z-4.48
X59.878 Y32.606 Z-4.521
X59.881 Y32.564 Z-4.553
X59.885 Y32.516 Z-4.573
X59.89 Y32.465 Z-4.58
X59.907 Y32.265 F120
G3 X60.123 Y32.083 I0.199 J0.017
G2 X60.523 Y32.037 I0.086 J-0.996 F240
G3 X76.561 Y48.075 I3.977 J12.061
G2 X76.515 Y48.474 I0.95 J0.313
X84.378 Y49.108 I3.985 J-0.344
X85 Y44.039 I-19.878 J-5.01
X59.49 Y24.22 I-20.5 J0.059
X60.123 Y32.083 I0.978 J3.879
G3 X60.305 Y32.3 I-0.017 J0.199 F480
G1 X60.288 Y32.499
X60.284 Y32.551 Z-4.573
X60.28 Y32.599 Z-4.553
X60.276 Y32.64 Z-4.521
X60.273 Y32.672 Z-4.48
X60.272 Y32.692 Z-4.432
X60.271 Y32.698 Z-4.38
G0 Z5
X114.73
Z2
G1 Z-0.8 F60
X114.729 Y32.692 Z-0.852
X114.728 Y32.672 Z-0.9
X114.725 Y32.64 Z-0.941
X114.721 Y32.599 Z-0.973
X114.717 Y32.551 Z-0.993
X114.713 Y32.499 Z-1
X114.695 Y32.3 F120
G3 X114.877 Y32.083 I0.199 J-0.017
G2 X115.509 Y24.22 I-0.345 J-3.985 F240
X90.622 Y49.108 I-5.009 J19.878
X98.485 Y48.474 I3.879 J-0.977
X98.439 Y48.075 I-0.996 J-0.086
G3 X114.478 Y32.037 I12.061 J-3.977
G2 X114.877 Y32.083 I0.313 J-0.95
G3 X115.094 Y32.265 I0.017 J0.199 F480
G1 X115.111 Y32.465
X115.116 Y32.516 Z-0.993
X115.12 Y32.564 Z-0.973
X115.123 Y32.606 Z-0.941
X115.126 Y32.637 Z-0.9
X115.128 Y32.657 Z-0.852
Y32.664 Z-0.8
X114.73 Y32.698
Z-1.8 F60
X114.729 Y32.692 Z-1.852
X114.728 Y32.672 Z-1.9
X114.725 Y32.64 Z-1.941
X114.721 Y32.599 Z-1.973
X114.717 Y32.551 Z-1.993
X114.713 Y32.499 Z-2
X114.695 Y32.3 F120
G3 X114.877 Y32.083 I0.199 J-0.017
G2 X115.509 Y24.22 I-0.345 J-3.985 F240
X90.622 Y49.108 I-5.009 J19.878
X98.485 Y48.474 I3.879 J-0.977
X98.439 Y48.075 I-0.996 J-0.086
G3 X114.478 Y32.037 I12.061 J-3.977
G2 X114.877 Y32.083 I0.313 J-0.95
G3 X115.094 Y32.265 I0.017 J0.199 F480
G1 X115.111 Y32.465
X115.116 Y32.516 Z-1.993
X115.12 Y32.564 Z-1.973
X115.123 Y32.606 Z-1.941
X115.126 Y32.637 Z-1.9
X115.128 Y32.657 Z-1.852
Y32.664 Z-1.8
X114.73 Y32.698
Z-2.8 F60
X114.729 Y32.692 Z-2.852
X114.728 Y32.672 Z-2.9
X114.725 Y32.64 Z-2.941
X114.721 Y32.599 Z-2.973
X114.717 Y32.551 Z-2.993
X114.713 Y32.499 Z-3
X114.695 Y32.3 F120
G3 X114.877 Y32.083 I0.199 J-0.017
G2 X115.509 Y24.22 I-0.345 J-3.985 F240
X90.622 Y49.108 I-5.009 J19.878
X98.485 Y48.474 I3.879 J-0.977
X98.439 Y48.075 I-0.996 J-0.086
G3 X114.478 Y32.037 I12.061 J-3.977
G2 X114.877 Y32.083 I0.313 J-0.95
G3 X115.094 Y32.265 I0.017 J0.199 F480
G1 X115.111 Y32.465
X115.116 Y32.516 Z-2.993
X115.12 Y32.564 Z-2.973
X115.123 Y32.606 Z-2.941
X115.126 Y32.637 Z-2.9
X115.128 Y32.657 Z-2.852
Y32.664 Z-2.8
X114.73 Y32.698
Z-3.8 F60
X114.729 Y32.692 Z-3.852
X114.728 Y32.672 Z-3.9
X114.725 Y32.64 Z-3.941
X114.721 Y32.599 Z-3.973
X114.717 Y32.551 Z-3.993
X114.713 Y32.499 Z-4
X114.695 Y32.3 F120
G3 X114.877 Y32.083 I0.199 J-0.017
G2 X115.509 Y24.22 I-0.345 J-3.985 F240
X90.622 Y49.108 I-5.009 J19.878
X98.485 Y48.474 I3.879 J-0.977
X98.439 Y48.075 I-0.996 J-0.086
G3 X114.478 Y32.037 I12.061 J-3.977
G2 X114.877 Y32.083 I0.313 J-0.95
G3 X115.094 Y32.265 I0.017 J0.199 F480
G1 X115.111 Y32.465
X115.116 Y32.516 Z-3.993
X115.12 Y32.564 Z-3.973
X115.123 Y32.606 Z-3.941
X115.126 Y32.637 Z-3.9
X115.128 Y32.657 Z-3.852
Y32.664 Z-3.8
X114.73 Y32.698
Z-4.38 F60
X114.729 Y32.692 Z-4.432
X114.728 Y32.672 Z-4.48
X114.725 Y32.64 Z-4.521
X114.721 Y32.599 Z-4.553
X114.717 Y32.551 Z-4.573
X114.713 Y32.499 Z-4.58
X114.695 Y32.3 F120
G3 X114.877 Y32.083 I0.199 J-0.017
G2 X115.509 Y24.22 I-0.345 J-3.985 F240
X90.622 Y49.108 I-5.009 J19.878
X98.485 Y48.474 I3.879 J-0.977
X98.439 Y48.075 I-0.996 J-0.086
G3 X114.478 Y32.037 I12.061 J-3.977
G2 X114.877 Y32.083 I0.313 J-0.95
G3 X115.094 Y32.265 I0.017 J0.199 F480
G1 X115.111 Y32.465
X115.116 Y32.516 Z-4.573
X115.12 Y32.564 Z-4.553
X115.123 Y32.606 Z-4.521
X115.126 Y32.637 Z-4.48
X115.128 Y32.657 Z-4.432
Y32.664 Z-4.38
G0 Z5
X104.227 Y37.932
Z2
G1 Z-0.8 F60
Y37.939 Z-0.852
X104.229 Y37.959 Z-0.9
X104.232 Y37.99 Z-0.941
X104.235 Y38.032 Z-0.973
X104.239 Y38.08 Z-0.993
X104.244 Y38.131 Z-1
X104.261 Y38.33 F120
G3 X104.079 Y38.547 I-0.199 J0.017
G2 X103.446 Y46.411 I0.344 J3.985 F240
X125.656 Y37.685 I5.01 J-19.879
X128.334 Y21.522 I-17.201 J-11.153
X120.47 Y22.156 I-3.879 J0.978
X120.516 Y22.555 I0.996 J0.086
G3 X104.478 Y38.593 I-12.061 J3.977
G2 X104.079 Y38.547 I-0.313 J0.95
G3 X103.863 Y38.365 I-0.017 J-0.199 F480
G1 X103.845 Y38.166
X103.841 Y38.114 Z-0.993
X103.837 Y38.066 Z-0.973
X103.833 Y38.025 Z-0.941
X103.83 Y37.993 Z-0.9
X103.829 Y37.973 Z-0.852
X103.828 Y37.966 Z-0.8
X104.227 Y37.932
Z-1.8 F60
Y37.939 Z-1.852
X104.229 Y37.959 Z-1.9
X104.232 Y37.99 Z-1.941
X104.235 Y38.032 Z-1.973
X104.239 Y38.08 Z-1.993
X104.244 Y38.131 Z-2
X104.261 Y38.33 F120
G3 X104.079 Y38.547 I-0.199 J0.017
G2 X103.446 Y46.411 I0.344 J3.985 F240
X125.656 Y37.685 I5.01 J-19.879
X128.334 Y21.522 I-17.201 J-11.153
X120.47 Y22.156 I-3.879 J0.978
X120.516 Y22.555 I0.996 J0.086
G3 X104.478 Y38.593 I-12.061 J3.977
G2 X104.079 Y38.547 I-0.313 J0.95
G3 X103.863 Y38.365 I-0.017 J-0.199 F480
G1 X103.845 Y38.166
X103.841 Y38.114 Z-1.993
X103.837 Y38.066 Z-1.973
X103.833 Y38.025 Z-1.941
X103.83 Y37.993 Z-1.9
X103.829 Y37.973 Z-1.852
X103.828 Y37.966 Z-1.8
X104.227 Y37.932
Z-2.8 F60
Y37.939 Z-2.852
X104.229 Y37.959 Z-2.9
X104.232 Y37.99 Z-2.941
X104.235 Y38.032 Z-2.973
X104.239 Y38.08 Z-2.993
X104.244 Y38.131 Z-3
X104.261 Y38.33 F120
G3 X104.079 Y38.547 I-0.199 J0.017
G2 X103.446 Y46.411 I0.344 J3.985 F240
X125.656 Y37.685 I5.01 J-19.879
X128.334 Y21.522 I-17.201 J-11.153
X120.47 Y22.156 I-3.879 J0.978
X120.516 Y22.555 I0.996 J0.086
G3 X104.478 Y38.593 I-12.061 J3.977
G2 X104.079 Y38.547 I-0.313 J0.95
G3 X103.863 Y38.365 I-0.017 J-0.199 F480
G1 X103.845 Y38.166
X103.841 Y38.114 Z-2.993
X103.837 Y38.066 Z-2.973
X103.833 Y38.025 Z-2.941
X103.83 Y37.993 Z-2.9
X103.829 Y37.973 Z-2.852
X103.828 Y37.966 Z-2.8
X104.227 Y37.932
Z-3.8 F60
Y37.939 Z-3.852
X104.229 Y37.959 Z-3.9
X104.232 Y37.99 Z-3.941
X104.235 Y38.032 Z-3.973
X104.239 Y38.08 Z-3.993
X104.244 Y38.131 Z-4
X104.261 Y38.33 F120
G3 X104.079 Y38.547 I-0.199 J0.017
G2 X103.446 Y46.411 I0.344 J3.985 F240
X125.656 Y37.685 I5.01 J-19.879
X128.334 Y21.522 I-17.201 J-11.153
X120.47 Y22.156 I-3.879 J0.978
X120.516 Y22.555 I0.996 J0.086
G3 X104.478 Y38.593 I-12.061 J3.977
G2 X104.079 Y38.547 I-0.313 J0.95
G3 X103.863 Y38.365 I-0.017 J-0.199 F480
G1 X103.845 Y38.166
X103.841 Y38.114 Z-3.993
X103.837 Y38.066 Z-3.973
X103.833 Y38.025 Z-3.941
X103.83 Y37.993 Z-3.9
X103.829 Y37.973 Z-3.852
X103.828 Y37.966 Z-3.8
X104.227 Y37.932
Z-4.38 F60
Y37.939 Z-4.432
X104.229 Y37.959 Z-4.48
X104.232 Y37.99 Z-4.521
X104.235 Y38.032 Z-4.553
X104.239 Y38.08 Z-4.573
X104.244 Y38.131 Z-4.58
X104.261 Y38.33 F120
G3 X104.079 Y38.547 I-0.199 J0.017
G2 X103.446 Y46.411 I0.344 J3.985 F240
X125.656 Y37.685 I5.01 J-19.879
X128.334 Y21.522 I-17.201 J-11.153
X120.47 Y22.156 I-3.879 J0.978
X120.516 Y22.555 I0.996 J0.086
G3 X104.478 Y38.593 I-12.061 J3.977
G2 X104.079 Y38.547 I-0.313 J0.95
G3 X103.863 Y38.365 I-0.017 J-0.199 F480
G1 X103.845 Y38.166
X103.841 Y38.114 Z-4.573
X103.837 Y38.066 Z-4.553
X103.833 Y38.025 Z-4.521
X103.83 Y37.993 Z-4.48
X103.829 Y37.973 Z-4.432
X103.828 Y37.966 Z-4.38
G0 Z15

M9
M30
