(MOTOR-PROTECTORS)
(T11  D=2 CR=0 - ZMIN=-4.58 - FLAT END MILL)
G90 G94 G91.1 G40 G49 G17
G21

(NUT POCKETS)
M5
M9
T11
(DIAMOND OR SPIRAL)
S16000 M3
G54
M8
G0 X11.753 Y32.165
G43 Z15 H1
Z2
G1 Z-0.8 F60
G3 X11.757 Y32.138 Z-0.9 I0.2 J0.012
X11.784 Y32.071 Z-0.973 I0.196 J0.039
X11.855 Y32.002 Z-1 I0.169 J0.107
G1 X11.936 Y31.958 F240
G3 X12.252 Y31.963 I0.154 J0.275
X12.414 Y32.243 I-0.153 J0.276
G1 X12.412 Y32.369
G3 X12.25 Y32.64 I-0.315 J-0.005
G1 X12.19 Y32.673
G3 X11.875 Y32.669 I-0.154 J-0.275
G1 X11.816 Y32.634
G3 X11.663 Y32.358 I0.162 J-0.271
G1 X11.664 Y32.29
G3 X11.826 Y32.019 I0.315 J0.005
G1 X11.855 Y32.002
G2 X12.019 Y31.502 I-0.189 J-0.339
G3 X12.415 Y31.154 I0.25 J-0.114
G2 X13.301 Y31.665 I8.085 J-12.989
X13.191 Y32.105 I0.89 J0.455
G1 X13.184 Y32.588
G2 X13.311 Y33.09 I1 J0.015
X12.809 Y33.216 I-0.015 J1
G1 X12.387 Y33.452
G2 X12.016 Y33.812 I0.487 J0.873
X11.655 Y33.441 I-0.873 J0.487
G1 X11.241 Y33.193
G2 X10.743 Y33.052 I-0.513 J0.858
X10.884 Y32.554 I-0.859 J-0.513
G1 X10.892 Y32.071
G2 X10.765 Y31.569 I-1 J-0.015
X11.267 Y31.443 I0.015 J-1
G1 X11.688 Y31.208
G2 X12.024 Y30.903 I-0.487 J-0.873
X12.415 Y31.154 I8.475 J-12.738
G3 X12.494 Y31.401 I-0.106 J0.17
G1 X12.137 Y32.254
G3 X11.753 Y32.165 I-0.185 J-0.077
G1 Z-1.8 F60
G3 X11.757 Y32.138 Z-1.9 I0.2 J0.012
X11.784 Y32.071 Z-1.973 I0.196 J0.039
X11.855 Y32.002 Z-2 I0.169 J0.107
G1 X11.936 Y31.958 F240
G3 X12.252 Y31.963 I0.154 J0.275
X12.414 Y32.243 I-0.153 J0.276
G1 X12.412 Y32.369
G3 X12.25 Y32.64 I-0.315 J-0.005
G1 X12.19 Y32.673
G3 X11.875 Y32.669 I-0.154 J-0.275
G1 X11.816 Y32.634
G3 X11.663 Y32.358 I0.162 J-0.271
G1 X11.664 Y32.29
G3 X11.826 Y32.019 I0.315 J0.005
G1 X11.855 Y32.002
G2 X12.019 Y31.502 I-0.189 J-0.339
G3 X12.415 Y31.154 I0.25 J-0.114
G2 X13.301 Y31.665 I8.085 J-12.989
X13.191 Y32.105 I0.89 J0.455
G1 X13.184 Y32.588
G2 X13.311 Y33.09 I1 J0.015
X12.809 Y33.216 I-0.015 J1
G1 X12.387 Y33.452
G2 X12.016 Y33.812 I0.487 J0.873
X11.655 Y33.441 I-0.873 J0.487
G1 X11.241 Y33.193
G2 X10.743 Y33.052 I-0.513 J0.858
X10.884 Y32.554 I-0.859 J-0.513
G1 X10.892 Y32.071
G2 X10.765 Y31.569 I-1 J-0.015
X11.267 Y31.443 I0.015 J-1
G1 X11.688 Y31.208
G2 X12.024 Y30.903 I-0.487 J-0.873
X12.415 Y31.154 I8.475 J-12.738
G3 X12.494 Y31.401 I-0.106 J0.17
G1 X12.137 Y32.254
G3 X11.753 Y32.165 I-0.185 J-0.077
G1 Z-2.7 F60
G3 X11.757 Y32.138 Z-2.8 I0.2 J0.012
X11.784 Y32.071 Z-2.873 I0.196 J0.039
X11.855 Y32.002 Z-2.9 I0.169 J0.107
G1 X11.936 Y31.958 F240
G3 X12.252 Y31.963 I0.154 J0.275
X12.414 Y32.243 I-0.153 J0.276
G1 X12.412 Y32.369
G3 X12.25 Y32.64 I-0.315 J-0.005
G1 X12.19 Y32.673
G3 X11.875 Y32.669 I-0.154 J-0.275
G1 X11.816 Y32.634
G3 X11.663 Y32.358 I0.162 J-0.271
G1 X11.664 Y32.29
G3 X11.826 Y32.019 I0.315 J0.005
G1 X11.855 Y32.002
G2 X12.019 Y31.502 I-0.189 J-0.339
G3 X12.415 Y31.154 I0.25 J-0.114
G2 X13.301 Y31.665 I8.085 J-12.989
X13.191 Y32.105 I0.89 J0.455
G1 X13.184 Y32.588
G2 X13.311 Y33.09 I1 J0.015
X12.809 Y33.216 I-0.015 J1
G1 X12.387 Y33.452
G2 X12.016 Y33.812 I0.487 J0.873
X11.655 Y33.441 I-0.873 J0.487
G1 X11.241 Y33.193
G2 X10.743 Y33.052 I-0.513 J0.858
X10.884 Y32.554 I-0.859 J-0.513
G1 X10.892 Y32.071
G2 X10.765 Y31.569 I-1 J-0.015
X11.267 Y31.443 I0.015 J-1
G1 X11.688 Y31.208
G2 X12.024 Y30.903 I-0.487 J-0.873
X12.415 Y31.154 I8.475 J-12.738
G3 X12.483 Y31.225 Z-2.873 I-0.106 J0.17 F480
X12.507 Y31.294 Z-2.8 I-0.174 J0.098
X12.509 Y31.321 Z-2.7 I-0.198 J0.029
G0 Z5
X3.996 Y17.836
Z2
G1 Z-0.8 F60
G3 X4.02 Y17.825 Z-0.9 I0.092 J0.178
X4.092 Y17.814 Z-0.973 I0.067 J0.188
X4.187 Y17.84 Z-1 I-0.005 J0.2
G1 X4.267 Y17.886 F240
G3 X4.424 Y18.16 I-0.158 J0.273
X4.267 Y18.443 I-0.315 J0.01
G1 X4.158 Y18.506
G3 X3.842 I-0.158 J-0.273
G1 X3.783 Y18.472
G3 X3.625 Y18.199 I0.158 J-0.273
G1 Y18.131
G3 X3.783 Y17.858 I0.315 J0
G1 X3.842 Y17.823
G3 X4.158 I0.158 J0.273
G1 X4.187 Y17.84
G2 X4.701 Y17.724 I0.194 J-0.336
G3 X5.203 Y17.885 I0.227 J0.156
G2 X5.218 Y18.908 I15.297 J0.279
X4.784 Y19.04 I0.066 J0.998
G1 X4.366 Y19.281
G2 X4 Y19.647 I0.5 J0.866
X3.634 Y19.281 I-0.866 J0.5
G1 X3.216 Y19.04
G2 X2.716 Y18.906 I-0.5 J0.866
X2.85 Y18.406 I-0.866 J-0.5
G1 Y17.924
G2 X2.716 Y17.424 I-1 J0
X3.216 Y17.29 I0 J-1
G1 X3.634 Y17.048
G2 X4 Y16.682 I-0.5 J-0.866
X4.366 Y17.048 I0.866 J-0.5
G1 X4.784 Y17.29
G2 X5.218 Y17.421 I0.5 J-0.866
X5.203 Y17.885 I15.282 J0.743
G3 X5.031 Y18.08 I-0.2 J-0.004
G1 X4.116 Y18.212
G3 X3.996 Y17.836 I-0.029 J-0.198
G1 Z-1.8 F60
G3 X4.02 Y17.825 Z-1.9 I0.092 J0.178
X4.092 Y17.814 Z-1.973 I0.067 J0.188
X4.187 Y17.84 Z-2 I-0.005 J0.2
G1 X4.267 Y17.886 F240
G3 X4.424 Y18.16 I-0.158 J0.273
X4.267 Y18.443 I-0.315 J0.01
G1 X4.158 Y18.506
G3 X3.842 I-0.158 J-0.273
G1 X3.783 Y18.472
G3 X3.625 Y18.199 I0.158 J-0.273
G1 Y18.131
G3 X3.783 Y17.858 I0.315 J0
G1 X3.842 Y17.823
G3 X4.158 I0.158 J0.273
G1 X4.187 Y17.84
G2 X4.701 Y17.724 I0.194 J-0.336
G3 X5.203 Y17.885 I0.227 J0.156
G2 X5.218 Y18.908 I15.297 J0.279
X4.784 Y19.04 I0.066 J0.998
G1 X4.366 Y19.281
G2 X4 Y19.647 I0.5 J0.866
X3.634 Y19.281 I-0.866 J0.5
G1 X3.216 Y19.04
G2 X2.716 Y18.906 I-0.5 J0.866
X2.85 Y18.406 I-0.866 J-0.5
G1 Y17.924
G2 X2.716 Y17.424 I-1 J0
X3.216 Y17.29 I0 J-1
G1 X3.634 Y17.048
G2 X4 Y16.682 I-0.5 J-0.866
X4.366 Y17.048 I0.866 J-0.5
G1 X4.784 Y17.29
G2 X5.218 Y17.421 I0.5 J-0.866
X5.203 Y17.885 I15.282 J0.743
G3 X5.031 Y18.08 I-0.2 J-0.004
G1 X4.116 Y18.212
G3 X3.996 Y17.836 I-0.029 J-0.198
G1 Z-2.7 F60
G3 X4.02 Y17.825 Z-2.8 I0.092 J0.178
X4.092 Y17.814 Z-2.873 I0.067 J0.188
X4.187 Y17.84 Z-2.9 I-0.005 J0.2
G1 X4.267 Y17.886 F240
G3 X4.424 Y18.16 I-0.158 J0.273
X4.267 Y18.443 I-0.315 J0.01
G1 X4.158 Y18.506
G3 X3.842 I-0.158 J-0.273
G1 X3.783 Y18.472
G3 X3.625 Y18.199 I0.158 J-0.273
G1 Y18.131
G3 X3.783 Y17.858 I0.315 J0
G1 X3.842 Y17.823
G3 X4.158 I0.158 J0.273
G1 X4.187 Y17.84
G2 X4.701 Y17.724 I0.194 J-0.336
G3 X5.203 Y17.885 I0.227 J0.156
G2 X5.218 Y18.908 I15.297 J0.279
X4.784 Y19.04 I0.066 J0.998
G1 X4.366 Y19.281
G2 X4 Y19.647 I0.5 J0.866
X3.634 Y19.281 I-0.866 J0.5
G1 X3.216 Y19.04
G2 X2.716 Y18.906 I-0.5 J0.866
X2.85 Y18.406 I-0.866 J-0.5
G1 Y17.924
G2 X2.716 Y17.424 I-1 J0
X3.216 Y17.29 I0 J-1
G1 X3.634 Y17.048
G2 X4 Y16.682 I-0.5 J-0.866
X4.366 Y17.048 I0.866 J-0.5
G1 X4.784 Y17.29
G2 X5.218 Y17.421 I0.5 J-0.866
X5.203 Y17.885 I15.282 J0.743
G3 X5.176 Y17.981 Z-2.873 I-0.2 J-0.004 F480
X5.129 Y18.036 Z-2.8 I-0.174 J-0.099
X5.108 Y18.052 Z-2.7 I-0.127 J-0.155
G0 Z5
X12.047 Y4.329
Z2
G1 Z-0.8 F60
G3 X12.023 Y4.34 Z-0.9 I-0.094 J-0.176
X11.951 Y4.352 Z-0.973 I-0.07 J-0.187
X11.855 Y4.327 Z-1 I0.002 J-0.2
G1 X11.826 Y4.31 F240
G3 X11.664 Y4.04 I0.154 J-0.275
G1 X11.663 Y3.971
G3 X11.816 Y3.696 I0.315 J-0.005
G1 X11.875 Y3.661
G3 X12.19 Y3.656 I0.162 J0.271
G1 X12.25 Y3.69
G3 X12.412 Y3.96 I-0.154 J0.275
G1 X12.414 Y4.086
G3 X12.259 Y4.362 I-0.315 J0.005
X11.936 Y4.372 I-0.17 J-0.266
G1 X11.855 Y4.327
G2 X11.355 Y4.388 I-0.209 J0.374
G3 X10.891 Y4.19 I-0.188 J-0.202
G1 X10.884 Y3.776
G2 X10.743 Y3.278 I-1 J0.015
X11.241 Y3.137 I-0.015 J-1
G1 X11.655 Y2.889
G2 X12.016 Y2.518 I-0.513 J-0.858
X12.387 Y2.878 I0.858 J-0.513
G1 X12.809 Y3.113
G2 X13.311 Y3.24 I0.487 J-0.873
X13.184 Y3.742 I0.873 J0.487
G1 X13.191 Y4.224
G2 X13.301 Y4.664 I1 J-0.015
X12.024 Y5.427 I7.199 J13.501
X11.688 Y5.122 I-0.823 J0.568
G1 X11.267 Y4.887
G2 X10.765 Y4.76 I-0.487 J0.873
X10.892 Y4.258 I-0.873 J-0.487
G1 X10.891 Y4.19
G3 X11.083 Y3.987 I0.2 J-0.003
G1 X11.945 Y3.953
G3 X12.047 Y4.329 I0.008 J0.2
G1 Z-1.8 F60
G3 X12.023 Y4.34 Z-1.9 I-0.094 J-0.176
X11.951 Y4.352 Z-1.973 I-0.07 J-0.187
X11.855 Y4.327 Z-2 I0.002 J-0.2
G1 X11.826 Y4.31 F240
G3 X11.664 Y4.04 I0.154 J-0.275
G1 X11.663 Y3.971
G3 X11.816 Y3.696 I0.315 J-0.005
G1 X11.875 Y3.661
G3 X12.19 Y3.656 I0.162 J0.271
G1 X12.25 Y3.69
G3 X12.412 Y3.96 I-0.154 J0.275
G1 X12.414 Y4.086
G3 X12.259 Y4.362 I-0.315 J0.005
X11.936 Y4.372 I-0.17 J-0.266
G1 X11.855 Y4.327
G2 X11.355 Y4.388 I-0.209 J0.374
G3 X10.891 Y4.19 I-0.188 J-0.202
G1 X10.884 Y3.776
G2 X10.743 Y3.278 I-1 J0.015
X11.241 Y3.137 I-0.015 J-1
G1 X11.655 Y2.889
G2 X12.016 Y2.518 I-0.513 J-0.858
X12.387 Y2.878 I0.858 J-0.513
G1 X12.809 Y3.113
G2 X13.311 Y3.24 I0.487 J-0.873
X13.184 Y3.742 I0.873 J0.487
G1 X13.191 Y4.224
G2 X13.301 Y4.664 I1 J-0.015
X12.024 Y5.427 I7.199 J13.501
X11.688 Y5.122 I-0.823 J0.568
G1 X11.267 Y4.887
G2 X10.765 Y4.76 I-0.487 J0.873
X10.892 Y4.258 I-0.873 J-0.487
G1 X10.891 Y4.19
G3 X11.083 Y3.987 I0.2 J-0.003
G1 X11.945 Y3.953
G3 X12.047 Y4.329 I0.008 J0.2
G1 Z-2.7 F60
G3 X12.023 Y4.34 Z-2.8 I-0.094 J-0.176
X11.951 Y4.352 Z-2.873 I-0.07 J-0.187
X11.855 Y4.327 Z-2.9 I0.002 J-0.2
G1 X11.826 Y4.31 F240
G3 X11.664 Y4.04 I0.154 J-0.275
G1 X11.663 Y3.971
G3 X11.816 Y3.696 I0.315 J-0.005
G1 X11.875 Y3.661
G3 X12.19 Y3.656 I0.162 J0.271
G1 X12.25 Y3.69
G3 X12.412 Y3.96 I-0.154 J0.275
G1 X12.414 Y4.086
G3 X12.259 Y4.362 I-0.315 J0.005
X11.936 Y4.372 I-0.17 J-0.266
G1 X11.855 Y4.327
G2 X11.355 Y4.388 I-0.209 J0.374
G3 X10.891 Y4.19 I-0.188 J-0.202
G1 X10.884 Y3.776
G2 X10.743 Y3.278 I-1 J0.015
X11.241 Y3.137 I-0.015 J-1
G1 X11.655 Y2.889
G2 X12.016 Y2.518 I-0.513 J-0.858
X12.387 Y2.878 I0.858 J-0.513
G1 X12.809 Y3.113
G2 X13.311 Y3.24 I0.487 J-0.873
X13.184 Y3.742 I0.873 J0.487
G1 X13.191 Y4.224
G2 X13.301 Y4.664 I1 J-0.015
X12.024 Y5.427 I7.199 J13.501
X11.688 Y5.122 I-0.823 J0.568
G1 X11.267 Y4.887
G2 X10.765 Y4.76 I-0.487 J0.873
X10.892 Y4.258 I-0.873 J-0.487
G1 X10.891 Y4.19
G3 X10.914 Y4.094 Z-2.873 I0.2 J-0.003 F480
X10.959 Y4.036 Z-2.8 I0.177 J0.093
X10.98 Y4.02 Z-2.7 I0.132 J0.15
G0 Z15

(SCREW HOLES)
M8
G0 X11.939 Y4.337
Z15
Z2
G1 Z-0.9 F60
Z-3.7
G3 X11.913 Y4.341 Z-3.8 I-0.043 J-0.195
X11.84 Y4.333 Z-3.873 I-0.016 J-0.199
X11.755 Y4.283 Z-3.9 I0.056 J-0.192
X12.321 Y3.717 I0.283 J-0.283 F240
X11.755 Y4.283 I-0.283 J0.283
X11.802 Y4.203 I0.034 J-0.034
G1 X11.942 Y4.244
G3 X11.939 Y4.337 I-0.013 J0.046
G1 Z-4.38 F60
G3 X11.913 Y4.341 Z-4.48 I-0.043 J-0.195
X11.84 Y4.333 Z-4.553 I-0.016 J-0.199
X11.755 Y4.283 Z-4.58 I0.056 J-0.192
X12.321 Y3.717 I0.283 J-0.283 F240
X11.755 Y4.283 I-0.283 J0.283
X11.704 Y4.198 Z-4.553 I0.141 J-0.141 F480
X11.697 Y4.125 Z-4.48 I0.192 J-0.056
X11.701 Y4.099 Z-4.38 I0.199 J0.016
G0 Z5
X3.901 Y18.502
Z2
G1 Z-0.9 F60
Z-3.7
G3 X3.875 Y18.506 Z-3.8 I-0.043 J-0.195
X3.802 Y18.498 Z-3.873 I-0.016 J-0.199
X3.717 Y18.448 Z-3.9 I0.056 J-0.192
X4.283 Y17.882 I0.283 J-0.283 F240
X3.717 Y18.448 I-0.283 J0.283
X3.765 Y18.368 I0.034 J-0.034
G1 X3.904 Y18.409
G3 X3.901 Y18.502 I-0.013 J0.046
G1 Z-4.38 F60
G3 X3.875 Y18.506 Z-4.48 I-0.043 J-0.195
X3.802 Y18.498 Z-4.553 I-0.016 J-0.199
X3.717 Y18.448 Z-4.58 I0.056 J-0.192
X4.283 Y17.882 I0.283 J-0.283 F240
X3.717 Y18.448 I-0.283 J0.283
X3.667 Y18.362 Z-4.553 I0.141 J-0.141 F480
X3.659 Y18.29 Z-4.48 I0.192 J-0.056
X3.663 Y18.264 Z-4.38 I0.199 J0.016
G0 Z5
X11.939 Y32.666
Z2
G1 Z-0.9 F60
Z-3.7
G3 X11.913 Y32.67 Z-3.8 I-0.043 J-0.195
X11.84 Y32.663 Z-3.873 I-0.016 J-0.199
X11.755 Y32.612 Z-3.9 I0.056 J-0.192
X12.321 Y32.047 I0.283 J-0.283 F240
X11.755 Y32.612 I-0.283 J0.283
X11.802 Y32.532 I0.034 J-0.034
G1 X11.942 Y32.574
G3 X11.939 Y32.666 I-0.013 J0.046
G1 Z-4.38 F60
G3 X11.913 Y32.67 Z-4.48 I-0.043 J-0.195
X11.84 Y32.663 Z-4.553 I-0.016 J-0.199
X11.755 Y32.612 Z-4.58 I0.056 J-0.192
X12.321 Y32.047 I0.283 J-0.283 F240
X11.755 Y32.612 I-0.283 J0.283
X11.705 Y32.527 Z-4.553 I0.141 J-0.141 F480
X11.697 Y32.455 Z-4.48 I0.192 J-0.056
X11.701 Y32.428 Z-4.38 I0.199 J0.016
G0 Z15

(CUTOUTS)
M8
G0 X9.524 Y0.143
Z15
Z2
G1 Z-0.8 F60
X9.527 Y0.149 Z-0.852
X9.538 Y0.166 Z-0.9
X9.555 Y0.193 Z-0.941
X9.576 Y0.228 Z-0.973
X9.602 Y0.269 Z-0.993
X9.629 Y0.313 Z-1
X9.735 Y0.483 F120
G3 X9.671 Y0.758 I-0.17 J0.106
G2 X8.624 Y1.455 I10.829 J17.407 F240
X9.986 Y35.763 I11.876 J16.709
X15.797 Y30.963 I2.051 J-3.434
X15.252 Y30.386 I-0.94 J0.342
G3 Y5.944 I5.248 J-12.221
G2 X15.797 Y5.367 I-0.395 J-0.919
X9.986 Y0.566 I-3.759 J-1.367
X9.671 Y0.758 I10.513 J17.599
G3 X9.395 Y0.694 I-0.106 J-0.17 F480
G1 X9.29 Y0.524
X9.262 Y0.481 Z-0.993
X9.237 Y0.44 Z-0.973
X9.215 Y0.404 Z-0.941
X9.198 Y0.377 Z-0.9
X9.188 Y0.36 Z-0.852
X9.184 Y0.355 Z-0.8
X9.524 Y0.143
Z-1.8 F60
X9.527 Y0.149 Z-1.852
X9.538 Y0.166 Z-1.9
X9.555 Y0.193 Z-1.941
X9.576 Y0.228 Z-1.973
X9.602 Y0.269 Z-1.993
X9.629 Y0.313 Z-2
X9.735 Y0.483 F120
G3 X9.671 Y0.758 I-0.17 J0.106
G2 X8.624 Y1.455 I10.829 J17.407 F240
X9.986 Y35.763 I11.876 J16.709
X15.797 Y30.963 I2.051 J-3.434
X15.252 Y30.386 I-0.94 J0.342
G3 Y5.944 I5.248 J-12.221
G2 X15.797 Y5.367 I-0.395 J-0.919
X9.986 Y0.566 I-3.759 J-1.367
X9.671 Y0.758 I10.513 J17.599
G3 X9.395 Y0.694 I-0.106 J-0.17 F480
G1 X9.29 Y0.524
X9.262 Y0.481 Z-1.993
X9.237 Y0.44 Z-1.973
X9.215 Y0.404 Z-1.941
X9.198 Y0.377 Z-1.9
X9.188 Y0.36 Z-1.852
X9.184 Y0.355 Z-1.8
X9.524 Y0.143
Z-2.8 F60
X9.527 Y0.149 Z-2.852
X9.538 Y0.166 Z-2.9
X9.555 Y0.193 Z-2.941
X9.576 Y0.228 Z-2.973
X9.602 Y0.269 Z-2.993
X9.629 Y0.313 Z-3
X9.735 Y0.483 F120
G3 X9.671 Y0.758 I-0.17 J0.106
G2 X8.624 Y1.455 I10.829 J17.407 F240
X9.986 Y35.763 I11.876 J16.709
X15.797 Y30.963 I2.051 J-3.434
X15.252 Y30.386 I-0.94 J0.342
G3 Y5.944 I5.248 J-12.221
G2 X15.797 Y5.367 I-0.395 J-0.919
X9.986 Y0.566 I-3.759 J-1.367
X9.671 Y0.758 I10.513 J17.599
G3 X9.395 Y0.694 I-0.106 J-0.17 F480
G1 X9.29 Y0.524
X9.262 Y0.481 Z-2.993
X9.237 Y0.44 Z-2.973
X9.215 Y0.404 Z-2.941
X9.198 Y0.377 Z-2.9
X9.188 Y0.36 Z-2.852
X9.184 Y0.355 Z-2.8
X9.524 Y0.143
Z-3.8 F60
X9.527 Y0.149 Z-3.852
X9.538 Y0.166 Z-3.9
X9.555 Y0.193 Z-3.941
X9.576 Y0.228 Z-3.973
X9.602 Y0.269 Z-3.993
X9.629 Y0.313 Z-4
X9.735 Y0.483 F120
G3 X9.671 Y0.758 I-0.17 J0.106
G2 X8.624 Y1.455 I10.829 J17.407 F240
X9.986 Y35.763 I11.876 J16.709
X15.797 Y30.963 I2.051 J-3.434
X15.252 Y30.386 I-0.94 J0.342
G3 Y5.944 I5.248 J-12.221
G2 X15.797 Y5.367 I-0.395 J-0.919
X9.986 Y0.566 I-3.759 J-1.367
X9.671 Y0.758 I10.513 J17.599
G3 X9.395 Y0.694 I-0.106 J-0.17 F480
G1 X9.29 Y0.524
X9.262 Y0.481 Z-3.993
X9.237 Y0.44 Z-3.973
X9.215 Y0.404 Z-3.941
X9.198 Y0.377 Z-3.9
X9.188 Y0.36 Z-3.852
X9.184 Y0.355 Z-3.8
X9.524 Y0.143
Z-4.38 F60
X9.527 Y0.149 Z-4.432
X9.538 Y0.166 Z-4.48
X9.555 Y0.193 Z-4.521
X9.576 Y0.228 Z-4.553
X9.602 Y0.269 Z-4.573
X9.629 Y0.313 Z-4.58
X9.735 Y0.483 F120
G3 X9.671 Y0.758 I-0.17 J0.106
G2 X8.624 Y1.455 I10.829 J17.407 F240
X9.986 Y35.763 I11.876 J16.709
X15.797 Y30.963 I2.051 J-3.434
X15.252 Y30.386 I-0.94 J0.342
G3 Y5.944 I5.248 J-12.221
G2 X15.797 Y5.367 I-0.395 J-0.919
X9.986 Y0.566 I-3.759 J-1.367
X9.671 Y0.758 I10.513 J17.599
G3 X9.395 Y0.694 I-0.106 J-0.17 F480
G1 X9.29 Y0.524
X9.262 Y0.481 Z-4.573
X9.237 Y0.44 Z-4.553
X9.215 Y0.404 Z-4.521
X9.198 Y0.377 Z-4.48
X9.188 Y0.36 Z-4.432
X9.184 Y0.355 Z-4.38
G0 Z15

M9
M30
