(MOTOR-PROTECTORS)
(T11  D=2 CR=0 - ZMIN=-4.58 - FLAT END MILL)
G90 G94 G91.1 G40 G49 G17
G21

(NUT POCKETS)
M5
M9
T11
(DIAMOND OR SPIRAL)
S16000 M3
G54
M8
G0 X4.165 Y11.753
G43 Z15 H1
Z2
G1 Z-0.8 F60
G3 X4.191 Y11.757 Z-0.9 I-0.012 J0.2
X4.259 Y11.784 Z-0.973 I-0.039 J0.196
X4.327 Y11.855 Z-1 I-0.107 J0.169
G1 X4.372 Y11.936 F240
G3 X4.367 Y12.252 I-0.275 J0.154
X4.086 Y12.414 I-0.276 J-0.153
G1 X3.96 Y12.412
G3 X3.69 Y12.25 I0.005 J-0.315
G1 X3.656 Y12.19
G3 X3.661 Y11.875 I0.275 J-0.154
G1 X3.696 Y11.816
G3 X3.971 Y11.663 I0.271 J0.162
G1 X4.04 Y11.664
G3 X4.31 Y11.826 I-0.005 J0.315
G1 X4.327 Y11.855
G2 X4.828 Y12.019 I0.339 J-0.189
G3 X5.176 Y12.415 I0.114 J0.25
G2 X4.664 Y13.301 I12.989 J8.085
X4.224 Y13.191 I-0.455 J0.89
G1 X3.742 Y13.184
G2 X3.24 Y13.311 I-0.015 J1
X3.113 Y12.809 I-1 J-0.015
G1 X2.878 Y12.387
G2 X2.518 Y12.016 I-0.873 J0.487
X2.889 Y11.655 I-0.487 J-0.873
G1 X3.137 Y11.241
G2 X3.278 Y10.743 I-0.858 J-0.513
X3.776 Y10.884 I0.513 J-0.858
G1 X4.258 Y10.892
G2 X4.76 Y10.765 I0.015 J-1
X4.887 Y11.267 I1 J0.015
G1 X5.122 Y11.688
G2 X5.427 Y12.024 I0.873 J-0.487
X5.176 Y12.415 I12.738 J8.476
G3 X4.929 Y12.494 I-0.17 J-0.106
G1 X4.075 Y12.137
G3 X4.165 Y11.753 I0.077 J-0.185
G1 Z-1.8 F60
G3 X4.191 Y11.757 Z-1.9 I-0.012 J0.2
X4.259 Y11.784 Z-1.973 I-0.039 J0.196
X4.327 Y11.855 Z-2 I-0.107 J0.169
G1 X4.372 Y11.936 F240
G3 X4.367 Y12.252 I-0.275 J0.154
X4.086 Y12.414 I-0.276 J-0.153
G1 X3.96 Y12.412
G3 X3.69 Y12.25 I0.005 J-0.315
G1 X3.656 Y12.19
G3 X3.661 Y11.875 I0.275 J-0.154
G1 X3.696 Y11.816
G3 X3.971 Y11.663 I0.271 J0.162
G1 X4.04 Y11.664
G3 X4.31 Y11.826 I-0.005 J0.315
G1 X4.327 Y11.855
G2 X4.828 Y12.019 I0.339 J-0.189
G3 X5.176 Y12.415 I0.114 J0.25
G2 X4.664 Y13.301 I12.989 J8.085
X4.224 Y13.191 I-0.455 J0.89
G1 X3.742 Y13.184
G2 X3.24 Y13.311 I-0.015 J1
X3.113 Y12.809 I-1 J-0.015
G1 X2.878 Y12.387
G2 X2.518 Y12.016 I-0.873 J0.487
X2.889 Y11.655 I-0.487 J-0.873
G1 X3.137 Y11.241
G2 X3.278 Y10.743 I-0.858 J-0.513
X3.776 Y10.884 I0.513 J-0.858
G1 X4.258 Y10.892
G2 X4.76 Y10.765 I0.015 J-1
X4.887 Y11.267 I1 J0.015
G1 X5.122 Y11.688
G2 X5.427 Y12.024 I0.873 J-0.487
X5.176 Y12.415 I12.738 J8.476
G3 X4.929 Y12.494 I-0.17 J-0.106
G1 X4.075 Y12.137
G3 X4.165 Y11.753 I0.077 J-0.185
G1 Z-2.7 F60
G3 X4.191 Y11.757 Z-2.8 I-0.012 J0.2
X4.259 Y11.784 Z-2.873 I-0.039 J0.196
X4.327 Y11.855 Z-2.9 I-0.107 J0.169
G1 X4.372 Y11.936 F240
G3 X4.367 Y12.252 I-0.275 J0.154
X4.086 Y12.414 I-0.276 J-0.153
G1 X3.96 Y12.412
G3 X3.69 Y12.25 I0.005 J-0.315
G1 X3.656 Y12.19
G3 X3.661 Y11.875 I0.275 J-0.154
G1 X3.696 Y11.816
G3 X3.971 Y11.663 I0.271 J0.162
G1 X4.04 Y11.664
G3 X4.31 Y11.826 I-0.005 J0.315
G1 X4.327 Y11.855
G2 X4.828 Y12.019 I0.339 J-0.189
G3 X5.176 Y12.415 I0.114 J0.25
G2 X4.664 Y13.301 I12.989 J8.085
X4.224 Y13.191 I-0.455 J0.89
G1 X3.742 Y13.184
G2 X3.24 Y13.311 I-0.015 J1
X3.113 Y12.809 I-1 J-0.015
G1 X2.878 Y12.387
G2 X2.518 Y12.016 I-0.873 J0.487
X2.889 Y11.655 I-0.487 J-0.873
G1 X3.137 Y11.241
G2 X3.278 Y10.743 I-0.858 J-0.513
X3.776 Y10.884 I0.513 J-0.858
G1 X4.258 Y10.892
G2 X4.76 Y10.765 I0.015 J-1
X4.887 Y11.267 I1 J0.015
G1 X5.122 Y11.688
G2 X5.427 Y12.024 I0.873 J-0.487
X5.176 Y12.415 I12.738 J8.476
G3 X5.104 Y12.483 Z-2.873 I-0.17 J-0.106 F480
X5.035 Y12.507 Z-2.8 I-0.098 J-0.174
X5.009 Y12.509 Z-2.7 I-0.029 J-0.198
G0 Z5
X18.004 Y4.287
Z2
G1 Z-0.8 F60
G3 X17.978 Y4.284 Z-0.9 I0.009 J-0.2
X17.91 Y4.258 Z-0.973 I0.036 J-0.197
X17.84 Y4.187 Z-1 I0.104 J-0.171
G1 X17.823 Y4.158 F240
G3 Y3.842 I0.273 J-0.158
G1 X17.858 Y3.783
G3 X18.131 Y3.625 I0.273 J0.158
G1 X18.199
G3 X18.472 Y3.783 I0 J0.315
G1 X18.506 Y3.842
G3 Y4.158 I-0.273 J0.158
G1 X18.443 Y4.267
G3 X18.169 Y4.424 I-0.273 J-0.158
X17.886 Y4.267 I-0.01 J-0.315
G1 X17.84 Y4.187
G2 X17.379 Y3.982 I-0.371 J0.214
G3 X17.083 Y3.575 I-0.058 J-0.27
G1 X17.29 Y3.216
G2 X17.424 Y2.716 I-0.866 J-0.5
X17.924 Y2.85 I0.5 J-0.866
G1 X18.406
G2 X18.906 Y2.716 I0 J-1
X19.04 Y3.216 I1 J0
G1 X19.281 Y3.634
G2 X19.647 Y4 I0.866 J-0.5
X19.281 Y4.366 I0.5 J0.866
G1 X19.04 Y4.784
G2 X18.908 Y5.218 I0.866 J0.5
X17.421 I-0.743 J15.282
X17.29 Y4.784 I-0.998 J0.066
G1 X17.048 Y4.366
G2 X16.682 Y4 I-0.866 J0.5
X17.048 Y3.634 I-0.5 J-0.866
G1 X17.083 Y3.575
G3 X17.351 Y3.499 I0.173 J0.1
G1 X18.109 Y3.912
G3 X18.004 Y4.287 I-0.096 J0.176
G1 Z-1.8 F60
G3 X17.978 Y4.284 Z-1.9 I0.009 J-0.2
X17.91 Y4.258 Z-1.973 I0.036 J-0.197
X17.84 Y4.187 Z-2 I0.104 J-0.171
G1 X17.823 Y4.158 F240
G3 Y3.842 I0.273 J-0.158
G1 X17.858 Y3.783
G3 X18.131 Y3.625 I0.273 J0.158
G1 X18.199
G3 X18.472 Y3.783 I0 J0.315
G1 X18.506 Y3.842
G3 Y4.158 I-0.273 J0.158
G1 X18.443 Y4.267
G3 X18.169 Y4.424 I-0.273 J-0.158
X17.886 Y4.267 I-0.01 J-0.315
G1 X17.84 Y4.187
G2 X17.379 Y3.982 I-0.371 J0.214
G3 X17.083 Y3.575 I-0.058 J-0.27
G1 X17.29 Y3.216
G2 X17.424 Y2.716 I-0.866 J-0.5
X17.924 Y2.85 I0.5 J-0.866
G1 X18.406
G2 X18.906 Y2.716 I0 J-1
X19.04 Y3.216 I1 J0
G1 X19.281 Y3.634
G2 X19.647 Y4 I0.866 J-0.5
X19.281 Y4.366 I0.5 J0.866
G1 X19.04 Y4.784
G2 X18.908 Y5.218 I0.866 J0.5
X17.421 I-0.743 J15.282
X17.29 Y4.784 I-0.998 J0.066
G1 X17.048 Y4.366
G2 X16.682 Y4 I-0.866 J0.5
X17.048 Y3.634 I-0.5 J-0.866
G1 X17.083 Y3.575
G3 X17.351 Y3.499 I0.173 J0.1
G1 X18.109 Y3.912
G3 X18.004 Y4.287 I-0.096 J0.176
G1 Z-2.7 F60
G3 X17.978 Y4.284 Z-2.8 I0.009 J-0.2
X17.91 Y4.258 Z-2.873 I0.036 J-0.197
X17.84 Y4.187 Z-2.9 I0.104 J-0.171
G1 X17.823 Y4.158 F240
G3 Y3.842 I0.273 J-0.158
G1 X17.858 Y3.783
G3 X18.131 Y3.625 I0.273 J0.158
G1 X18.199
G3 X18.472 Y3.783 I0 J0.315
G1 X18.506 Y3.842
G3 Y4.158 I-0.273 J0.158
G1 X18.443 Y4.267
G3 X18.169 Y4.424 I-0.273 J-0.158
X17.886 Y4.267 I-0.01 J-0.315
G1 X17.84 Y4.187
G2 X17.379 Y3.982 I-0.371 J0.214
G3 X17.083 Y3.575 I-0.058 J-0.27
G1 X17.29 Y3.216
G2 X17.424 Y2.716 I-0.866 J-0.5
X17.924 Y2.85 I0.5 J-0.866
G1 X18.406
G2 X18.906 Y2.716 I0 J-1
X19.04 Y3.216 I1 J0
G1 X19.281 Y3.634
G2 X19.647 Y4 I0.866 J-0.5
X19.281 Y4.366 I0.5 J0.866
G1 X19.04 Y4.784
G2 X18.908 Y5.218 I0.866 J0.5
X17.421 I-0.743 J15.282
X17.29 Y4.784 I-0.998 J0.066
G1 X17.048 Y4.366
G2 X16.682 Y4 I-0.866 J0.5
X17.048 Y3.634 I-0.5 J-0.866
G1 X17.083 Y3.575
G3 X17.152 Y3.504 Z-2.873 I0.173 J0.1 F480
X17.22 Y3.478 Z-2.8 I0.104 J0.171
X17.246 Y3.475 Z-2.7 I0.036 J0.197
G0 Z5
X32.486 Y11.748
Z2
G1 Z-0.8 F60
G3 X32.512 Y11.751 Z-0.9 I-0.006 J0.2
X32.581 Y11.776 Z-0.973 I-0.033 J0.197
X32.651 Y11.846 Z-1 I-0.102 J0.172
G1 X32.669 Y11.875 F240
G3 X32.673 Y12.19 I-0.271 J0.162
G1 X32.64 Y12.25
G3 X32.369 Y12.412 I-0.275 J-0.154
G1 X32.243 Y12.414
G3 X31.968 Y12.259 I-0.005 J-0.315
X31.958 Y11.936 I0.266 J-0.17
G1 X32.019 Y11.826
G3 X32.29 Y11.664 I0.275 J0.154
G1 X32.358 Y11.663
G3 X32.634 Y11.816 I0.005 J0.315
G1 X32.651 Y11.846
G2 X33.115 Y12.044 I0.368 J-0.22
G3 X33.418 Y12.447 I0.062 J0.269
G1 X33.216 Y12.809
G2 X33.09 Y13.311 I0.873 J0.487
X32.588 Y13.184 I-0.487 J0.873
G1 X32.105 Y13.191
G2 X31.665 Y13.301 I0.015 J1
X30.903 Y12.024 I-13.501 J7.199
X31.208 Y11.688 I-0.568 J-0.823
G1 X31.443 Y11.267
G2 X31.569 Y10.765 I-0.873 J-0.487
X32.071 Y10.892 I0.487 J-0.873
G1 X32.554 Y10.884
G2 X33.052 Y10.743 I-0.015 J-1
X33.193 Y11.241 I1 J-0.015
G1 X33.441 Y11.655
G2 X33.812 Y12.016 I0.858 J-0.513
X33.452 Y12.387 I0.513 J0.858
G1 X33.418 Y12.447
G3 X33.15 Y12.527 I-0.175 J-0.097
G1 X32.386 Y12.125
G3 X32.486 Y11.748 I0.093 J-0.177
G1 Z-1.8 F60
G3 X32.512 Y11.751 Z-1.9 I-0.006 J0.2
X32.581 Y11.776 Z-1.973 I-0.033 J0.197
X32.651 Y11.846 Z-2 I-0.102 J0.172
G1 X32.669 Y11.875 F240
G3 X32.673 Y12.19 I-0.271 J0.162
G1 X32.64 Y12.25
G3 X32.369 Y12.412 I-0.275 J-0.154
G1 X32.243 Y12.414
G3 X31.968 Y12.259 I-0.005 J-0.315
X31.958 Y11.936 I0.266 J-0.17
G1 X32.019 Y11.826
G3 X32.29 Y11.664 I0.275 J0.154
G1 X32.358 Y11.663
G3 X32.634 Y11.816 I0.005 J0.315
G1 X32.651 Y11.846
G2 X33.115 Y12.044 I0.368 J-0.22
G3 X33.418 Y12.447 I0.062 J0.269
G1 X33.216 Y12.809
G2 X33.09 Y13.311 I0.873 J0.487
X32.588 Y13.184 I-0.487 J0.873
G1 X32.105 Y13.191
G2 X31.665 Y13.301 I0.015 J1
X30.903 Y12.024 I-13.501 J7.199
X31.208 Y11.688 I-0.568 J-0.823
G1 X31.443 Y11.267
G2 X31.569 Y10.765 I-0.873 J-0.487
X32.071 Y10.892 I0.487 J-0.873
G1 X32.554 Y10.884
G2 X33.052 Y10.743 I-0.015 J-1
X33.193 Y11.241 I1 J-0.015
G1 X33.441 Y11.655
G2 X33.812 Y12.016 I0.858 J-0.513
X33.452 Y12.387 I0.513 J0.858
G1 X33.418 Y12.447
G3 X33.15 Y12.527 I-0.175 J-0.097
G1 X32.386 Y12.125
G3 X32.486 Y11.748 I0.093 J-0.177
G1 Z-2.7 F60
G3 X32.512 Y11.751 Z-2.8 I-0.006 J0.2
X32.581 Y11.776 Z-2.873 I-0.033 J0.197
X32.651 Y11.846 Z-2.9 I-0.102 J0.172
G1 X32.669 Y11.875 F240
G3 X32.673 Y12.19 I-0.271 J0.162
G1 X32.64 Y12.25
G3 X32.369 Y12.412 I-0.275 J-0.154
G1 X32.243 Y12.414
G3 X31.968 Y12.259 I-0.005 J-0.315
X31.958 Y11.936 I0.266 J-0.17
G1 X32.019 Y11.826
G3 X32.29 Y11.664 I0.275 J0.154
G1 X32.358 Y11.663
G3 X32.634 Y11.816 I0.005 J0.315
G1 X32.651 Y11.846
G2 X33.115 Y12.044 I0.368 J-0.22
G3 X33.418 Y12.447 I0.062 J0.269
G1 X33.216 Y12.809
G2 X33.09 Y13.311 I0.873 J0.487
X32.588 Y13.184 I-0.487 J0.873
G1 X32.105 Y13.191
G2 X31.665 Y13.301 I0.015 J1
X30.903 Y12.024 I-13.501 J7.199
X31.208 Y11.688 I-0.568 J-0.823
G1 X31.443 Y11.267
G2 X31.569 Y10.765 I-0.873 J-0.487
X32.071 Y10.892 I0.487 J-0.873
G1 X32.554 Y10.884
G2 X33.052 Y10.743 I-0.015 J-1
X33.193 Y11.241 I1 J-0.015
G1 X33.441 Y11.655
G2 X33.812 Y12.016 I0.858 J-0.513
X33.452 Y12.387 I0.513 J0.858
G1 X33.418 Y12.447
G3 X33.35 Y12.519 Z-2.873 I-0.175 J-0.097 F480
X33.282 Y12.546 Z-2.8 I-0.107 J-0.169
X33.256 Y12.549 Z-2.7 I-0.039 J-0.196
G0 Z5
X32.486 Y23.948
Z2
G1 Z-0.8 F60
G3 X32.512 Y23.951 Z-0.9 I-0.006 J0.2
X32.581 Y23.976 Z-0.973 I-0.033 J0.197
X32.651 Y24.046 Z-1 I-0.102 J0.172
G1 X32.669 Y24.075 F240
G3 X32.673 Y24.39 I-0.271 J0.162
G1 X32.64 Y24.45
G3 X32.369 Y24.612 I-0.275 J-0.154
G1 X32.243 Y24.614
G3 X31.968 Y24.459 I-0.005 J-0.315
X31.958 Y24.136 I0.266 J-0.17
G1 X32.019 Y24.026
G3 X32.29 Y23.864 I0.275 J0.154
G1 X32.358 Y23.863
G3 X32.633 Y24.016 I0.005 J0.315
G1 X32.651 Y24.046
G2 X33.115 Y24.244 I0.368 J-0.22
G3 X33.418 Y24.647 I0.062 J0.269
G1 X33.216 Y25.009
G2 X33.09 Y25.511 I0.873 J0.487
X32.588 Y25.384 I-0.487 J0.873
G1 X32.105 Y25.391
G2 X31.665 Y25.501 I0.015 J1
X30.903 Y24.224 I-13.501 J7.199
X31.208 Y23.888 I-0.568 J-0.823
G1 X31.443 Y23.467
G2 X31.569 Y22.965 I-0.873 J-0.487
X32.071 Y23.091 I0.487 J-0.873
G1 X32.554 Y23.084
G2 X33.052 Y22.943 I-0.015 J-1
X33.193 Y23.441 I1 J-0.015
G1 X33.441 Y23.855
G2 X33.812 Y24.216 I0.858 J-0.513
X33.452 Y24.587 I0.513 J0.858
G1 X33.418 Y24.647
G3 X33.15 Y24.727 I-0.175 J-0.097
G1 X32.386 Y24.325
G3 X32.486 Y23.948 I0.093 J-0.177
G1 Z-1.8 F60
G3 X32.512 Y23.951 Z-1.9 I-0.006 J0.2
X32.581 Y23.976 Z-1.973 I-0.033 J0.197
X32.651 Y24.046 Z-2 I-0.102 J0.172
G1 X32.669 Y24.075 F240
G3 X32.673 Y24.39 I-0.271 J0.162
G1 X32.64 Y24.45
G3 X32.369 Y24.612 I-0.275 J-0.154
G1 X32.243 Y24.614
G3 X31.968 Y24.459 I-0.005 J-0.315
X31.958 Y24.136 I0.266 J-0.17
G1 X32.019 Y24.026
G3 X32.29 Y23.864 I0.275 J0.154
G1 X32.358 Y23.863
G3 X32.633 Y24.016 I0.005 J0.315
G1 X32.651 Y24.046
G2 X33.115 Y24.244 I0.368 J-0.22
G3 X33.418 Y24.647 I0.062 J0.269
G1 X33.216 Y25.009
G2 X33.09 Y25.511 I0.873 J0.487
X32.588 Y25.384 I-0.487 J0.873
G1 X32.105 Y25.391
G2 X31.665 Y25.501 I0.015 J1
X30.903 Y24.224 I-13.501 J7.199
X31.208 Y23.888 I-0.568 J-0.823
G1 X31.443 Y23.467
G2 X31.569 Y22.965 I-0.873 J-0.487
X32.071 Y23.091 I0.487 J-0.873
G1 X32.554 Y23.084
G2 X33.052 Y22.943 I-0.015 J-1
X33.193 Y23.441 I1 J-0.015
G1 X33.441 Y23.855
G2 X33.812 Y24.216 I0.858 J-0.513
X33.452 Y24.587 I0.513 J0.858
G1 X33.418 Y24.647
G3 X33.15 Y24.727 I-0.175 J-0.097
G1 X32.386 Y24.325
G3 X32.486 Y23.948 I0.093 J-0.177
G1 Z-2.7 F60
G3 X32.512 Y23.951 Z-2.8 I-0.006 J0.2
X32.581 Y23.976 Z-2.873 I-0.033 J0.197
X32.651 Y24.046 Z-2.9 I-0.102 J0.172
G1 X32.669 Y24.075 F240
G3 X32.673 Y24.39 I-0.271 J0.162
G1 X32.64 Y24.45
G3 X32.369 Y24.612 I-0.275 J-0.154
G1 X32.243 Y24.614
G3 X31.968 Y24.459 I-0.005 J-0.315
X31.958 Y24.136 I0.266 J-0.17
G1 X32.019 Y24.026
G3 X32.29 Y23.864 I0.275 J0.154
G1 X32.358 Y23.863
G3 X32.633 Y24.016 I0.005 J0.315
G1 X32.651 Y24.046
G2 X33.115 Y24.244 I0.368 J-0.22
G3 X33.418 Y24.647 I0.062 J0.269
G1 X33.216 Y25.009
G2 X33.09 Y25.511 I0.873 J0.487
X32.588 Y25.384 I-0.487 J0.873
G1 X32.105 Y25.391
G2 X31.665 Y25.501 I0.015 J1
X30.903 Y24.224 I-13.501 J7.199
X31.208 Y23.888 I-0.568 J-0.823
G1 X31.443 Y23.467
G2 X31.569 Y22.965 I-0.873 J-0.487
X32.071 Y23.091 I0.487 J-0.873
G1 X32.554 Y23.084
G2 X33.052 Y22.943 I-0.015 J-1
X33.193 Y23.441 I1 J-0.015
G1 X33.441 Y23.855
G2 X33.812 Y24.216 I0.858 J-0.513
X33.452 Y24.587 I0.513 J0.858
G1 X33.418 Y24.647
G3 X33.35 Y24.719 Z-2.873 I-0.175 J-0.097 F480
X33.282 Y24.746 Z-2.8 I-0.107 J-0.169
X33.256 Y24.749 Z-2.7 I-0.039 J-0.196
G0 Z5
X18.494 Y16.196
Z2
G1 Z-0.8 F60
G3 X18.504 Y16.22 Z-0.9 I-0.178 J0.092
X18.516 Y16.292 Z-0.973 I-0.188 J0.067
X18.489 Y16.387 Z-1 I-0.2 J-0.005
G1 X18.443 Y16.467 F240
G3 X18.169 Y16.624 I-0.273 J-0.158
X17.886 Y16.467 I-0.01 J-0.315
G1 X17.823 Y16.358
G3 Y16.042 I0.273 J-0.158
G1 X17.858 Y15.983
G3 X18.131 Y15.825 I0.273 J0.158
G1 X18.199
G3 X18.472 Y15.983 I0 J0.315
G1 X18.506 Y16.042
G3 Y16.358 I-0.273 J0.158
G1 X18.489 Y16.387
G2 X18.605 Y16.901 I0.336 J0.194
G3 X18.444 Y17.403 I-0.156 J0.227
G2 X17.421 Y17.418 I-0.28 J15.297
X17.29 Y16.984 I-0.998 J0.066
G1 X17.048 Y16.566
G2 X16.682 Y16.2 I-0.866 J0.5
X17.048 Y15.834 I-0.5 J-0.866
G1 X17.29 Y15.416
G2 X17.424 Y14.916 I-0.866 J-0.5
X17.924 Y15.05 I0.5 J-0.866
G1 X18.406
G2 X18.906 Y14.916 I0 J-1
X19.04 Y15.416 I1 J0
G1 X19.281 Y15.834
G2 X19.647 Y16.2 I0.866 J-0.5
X19.281 Y16.566 I0.5 J0.866
G1 X19.04 Y16.984
G2 X18.908 Y17.418 I0.866 J0.5
X18.444 Y17.403 I-0.743 J15.282
G3 X18.25 Y17.231 I0.004 J-0.2
G1 X18.118 Y16.316
G3 X18.494 Y16.196 I0.198 J-0.029
G1 Z-1.8 F60
G3 X18.504 Y16.22 Z-1.9 I-0.178 J0.092
X18.516 Y16.292 Z-1.973 I-0.188 J0.067
X18.489 Y16.387 Z-2 I-0.2 J-0.005
G1 X18.443 Y16.467 F240
G3 X18.169 Y16.624 I-0.273 J-0.158
X17.886 Y16.467 I-0.01 J-0.315
G1 X17.823 Y16.358
G3 Y16.042 I0.273 J-0.158
G1 X17.858 Y15.983
G3 X18.131 Y15.825 I0.273 J0.158
G1 X18.199
G3 X18.472 Y15.983 I0 J0.315
G1 X18.506 Y16.042
G3 Y16.358 I-0.273 J0.158
G1 X18.489 Y16.387
G2 X18.605 Y16.901 I0.336 J0.194
G3 X18.444 Y17.403 I-0.156 J0.227
G2 X17.421 Y17.418 I-0.28 J15.297
X17.29 Y16.984 I-0.998 J0.066
G1 X17.048 Y16.566
G2 X16.682 Y16.2 I-0.866 J0.5
X17.048 Y15.834 I-0.5 J-0.866
G1 X17.29 Y15.416
G2 X17.424 Y14.916 I-0.866 J-0.5
X17.924 Y15.05 I0.5 J-0.866
G1 X18.406
G2 X18.906 Y14.916 I0 J-1
X19.04 Y15.416 I1 J0
G1 X19.281 Y15.834
G2 X19.647 Y16.2 I0.866 J-0.5
X19.281 Y16.566 I0.5 J0.866
G1 X19.04 Y16.984
G2 X18.908 Y17.418 I0.866 J0.5
X18.444 Y17.403 I-0.743 J15.282
G3 X18.25 Y17.231 I0.004 J-0.2
G1 X18.118 Y16.316
G3 X18.494 Y16.196 I0.198 J-0.029
G1 Z-2.7 F60
G3 X18.504 Y16.22 Z-2.8 I-0.178 J0.092
X18.516 Y16.292 Z-2.873 I-0.188 J0.067
X18.489 Y16.387 Z-2.9 I-0.2 J-0.005
G1 X18.443 Y16.467 F240
G3 X18.169 Y16.624 I-0.273 J-0.158
X17.886 Y16.467 I-0.01 J-0.315
G1 X17.823 Y16.358
G3 Y16.042 I0.273 J-0.158
G1 X17.858 Y15.983
G3 X18.131 Y15.825 I0.273 J0.158
G1 X18.199
G3 X18.472 Y15.983 I0 J0.315
G1 X18.506 Y16.042
G3 Y16.358 I-0.273 J0.158
G1 X18.489 Y16.387
G2 X18.605 Y16.901 I0.336 J0.194
G3 X18.444 Y17.403 I-0.156 J0.227
G2 X17.421 Y17.418 I-0.28 J15.297
X17.29 Y16.984 I-0.998 J0.066
G1 X17.048 Y16.566
G2 X16.682 Y16.2 I-0.866 J0.5
X17.048 Y15.834 I-0.5 J-0.866
G1 X17.29 Y15.416
G2 X17.424 Y14.916 I-0.866 J-0.5
X17.924 Y15.05 I0.5 J-0.866
G1 X18.406
G2 X18.906 Y14.916 I0 J-1
X19.04 Y15.416 I1 J0
G1 X19.281 Y15.834
G2 X19.647 Y16.2 I0.866 J-0.5
X19.281 Y16.566 I0.5 J0.866
G1 X19.04 Y16.984
G2 X18.908 Y17.418 I0.866 J0.5
X18.444 Y17.403 I-0.743 J15.282
G3 X18.349 Y17.376 Z-2.873 I0.004 J-0.2 F480
X18.293 Y17.329 Z-2.8 I0.099 J-0.174
X18.278 Y17.308 Z-2.7 I0.155 J-0.127
G0 Z5
X3.835 Y24.522
Z2
G1 Z-0.8 F60
G3 X3.809 Y24.519 Z-0.9 I0.012 J-0.2
X3.741 Y24.492 Z-0.973 I0.039 J-0.196
X3.673 Y24.42 Z-1 I0.107 J-0.169
G1 X3.656 Y24.39 F240
G3 X3.661 Y24.075 I0.275 J-0.154
G1 X3.696 Y24.016
G3 X3.971 Y23.863 I0.271 J0.162
G1 X4.04 Y23.864
G3 X4.31 Y24.026 I-0.005 J0.315
G1 X4.372 Y24.136
G3 X4.367 Y24.452 I-0.275 J0.154
X4.086 Y24.614 I-0.276 J-0.153
G1 X3.96 Y24.612
G3 X3.69 Y24.45 I0.005 J-0.315
G1 X3.673 Y24.42
G2 X3.215 Y24.209 I-0.374 J0.209
G3 X2.924 Y23.796 I-0.054 J-0.271
G1 X3.137 Y23.441
G2 X3.278 Y22.943 I-0.858 J-0.513
X3.776 Y23.084 I0.513 J-0.859
G1 X4.258 Y23.091
G2 X4.76 Y22.965 I0.015 J-1
X4.887 Y23.467 I1 J0.015
G1 X5.122 Y23.888
G2 X5.427 Y24.224 I0.873 J-0.487
X4.664 Y25.501 I12.738 J8.476
X4.224 Y25.391 I-0.455 J0.89
G1 X3.742 Y25.384
G2 X3.24 Y25.511 I-0.015 J1
X3.113 Y25.009 I-1 J-0.015
G1 X2.878 Y24.587
G2 X2.518 Y24.216 I-0.873 J0.487
X2.889 Y23.855 I-0.487 J-0.873
G1 X2.924 Y23.796
G3 X3.194 Y23.725 I0.172 J0.103
G1 X3.946 Y24.149
G3 X3.835 Y24.522 I-0.098 J0.174
G1 Z-1.8 F60
G3 X3.809 Y24.519 Z-1.9 I0.012 J-0.2
X3.741 Y24.492 Z-1.973 I0.039 J-0.196
X3.673 Y24.42 Z-2 I0.107 J-0.169
G1 X3.656 Y24.39 F240
G3 X3.661 Y24.075 I0.275 J-0.154
G1 X3.696 Y24.016
G3 X3.971 Y23.863 I0.271 J0.162
G1 X4.04 Y23.864
G3 X4.31 Y24.026 I-0.005 J0.315
G1 X4.372 Y24.136
G3 X4.367 Y24.452 I-0.275 J0.154
X4.086 Y24.614 I-0.276 J-0.153
G1 X3.96 Y24.612
G3 X3.69 Y24.45 I0.005 J-0.315
G1 X3.673 Y24.42
G2 X3.215 Y24.209 I-0.374 J0.209
G3 X2.924 Y23.796 I-0.054 J-0.271
G1 X3.137 Y23.441
G2 X3.278 Y22.943 I-0.858 J-0.513
X3.776 Y23.084 I0.513 J-0.859
G1 X4.258 Y23.091
G2 X4.76 Y22.965 I0.015 J-1
X4.887 Y23.467 I1 J0.015
G1 X5.122 Y23.888
G2 X5.427 Y24.224 I0.873 J-0.487
X4.664 Y25.501 I12.738 J8.476
X4.224 Y25.391 I-0.455 J0.89
G1 X3.742 Y25.384
G2 X3.24 Y25.511 I-0.015 J1
X3.113 Y25.009 I-1 J-0.015
G1 X2.878 Y24.587
G2 X2.518 Y24.216 I-0.873 J0.487
X2.889 Y23.855 I-0.487 J-0.873
G1 X2.924 Y23.796
G3 X3.194 Y23.725 I0.172 J0.103
G1 X3.946 Y24.149
G3 X3.835 Y24.522 I-0.098 J0.174
G1 Z-2.7 F60
G3 X3.809 Y24.519 Z-2.8 I0.012 J-0.2
X3.741 Y24.492 Z-2.873 I0.039 J-0.196
X3.673 Y24.42 Z-2.9 I0.107 J-0.169
G1 X3.656 Y24.39 F240
G3 X3.661 Y24.075 I0.275 J-0.154
G1 X3.696 Y24.016
G3 X3.971 Y23.863 I0.271 J0.162
G1 X4.04 Y23.864
G3 X4.31 Y24.026 I-0.005 J0.315
G1 X4.372 Y24.136
G3 X4.367 Y24.452 I-0.275 J0.154
X4.086 Y24.614 I-0.276 J-0.153
G1 X3.96 Y24.612
G3 X3.69 Y24.45 I0.005 J-0.315
G1 X3.673 Y24.42
G2 X3.215 Y24.209 I-0.374 J0.209
G3 X2.924 Y23.796 I-0.054 J-0.271
G1 X3.137 Y23.441
G2 X3.278 Y22.943 I-0.858 J-0.513
X3.776 Y23.084 I0.513 J-0.859
G1 X4.258 Y23.091
G2 X4.76 Y22.965 I0.015 J-1
X4.887 Y23.467 I1 J0.015
G1 X5.122 Y23.888
G2 X5.427 Y24.224 I0.873 J-0.487
X4.664 Y25.501 I12.738 J8.476
X4.224 Y25.391 I-0.455 J0.89
G1 X3.742 Y25.384
G2 X3.24 Y25.511 I-0.015 J1
X3.113 Y25.009 I-1 J-0.015
G1 X2.878 Y24.587
G2 X2.518 Y24.216 I-0.873 J0.487
X2.889 Y23.855 I-0.487 J-0.873
G1 X2.924 Y23.796
G3 X2.994 Y23.726 Z-2.873 I0.172 J0.103 F480
X3.063 Y23.702 Z-2.8 I0.101 J0.172
X3.089 Y23.699 Z-2.7 I0.033 J0.197
G0 Z5
X32.502 Y36.718
Z2
G1 Z-0.8 F60
G3 X32.486 Y36.74 Z-0.9 I-0.17 J-0.106
X32.431 Y36.786 Z-0.973 I-0.154 J-0.127
X32.335 Y36.812 Z-1 I-0.098 J-0.174
G1 X32.243 Y36.814 F240
G3 X31.968 Y36.659 I-0.005 J-0.315
X31.958 Y36.336 I0.266 J-0.17
G1 X32.019 Y36.226
G3 X32.29 Y36.064 I0.275 J0.154
G1 X32.358 Y36.063
G3 X32.633 Y36.216 I0.005 J0.315
G1 X32.669 Y36.275
G3 X32.673 Y36.59 I-0.271 J0.162
G1 X32.64 Y36.65
G3 X32.369 Y36.812 I-0.275 J-0.154
G1 X32.335
G2 X31.954 Y37.175 I0.006 J0.388
G3 X31.441 Y37.294 I-0.274 J-0.018
G2 X30.903 Y36.424 I-13.276 J7.605
X31.208 Y36.088 I-0.568 J-0.823
G1 X31.443 Y35.667
G2 X31.569 Y35.165 I-0.873 J-0.487
X32.071 Y35.291 I0.487 J-0.873
G1 X32.554 Y35.284
G2 X33.052 Y35.143 I-0.015 J-1
X33.193 Y35.641 I1 J-0.015
G1 X33.441 Y36.055
G2 X33.812 Y36.416 I0.858 J-0.513
X33.452 Y36.787 I0.513 J0.858
G1 X33.216 Y37.209
G2 X33.09 Y37.711 I0.873 J0.487
X32.588 Y37.584 I-0.487 J0.873
G1 X32.105 Y37.591
G2 X31.665 Y37.701 I0.015 J1
X31.441 Y37.294 I-13.501 J7.199
G3 X31.488 Y37.04 I0.174 J-0.099
G1 X32.206 Y36.457
G3 X32.502 Y36.718 I0.126 J0.155
G1 Z-1.8 F60
G3 X32.486 Y36.74 Z-1.9 I-0.17 J-0.106
X32.431 Y36.786 Z-1.973 I-0.154 J-0.127
X32.335 Y36.812 Z-2 I-0.098 J-0.174
G1 X32.243 Y36.814 F240
G3 X31.968 Y36.659 I-0.005 J-0.315
X31.958 Y36.336 I0.266 J-0.17
G1 X32.019 Y36.226
G3 X32.29 Y36.064 I0.275 J0.154
G1 X32.358 Y36.063
G3 X32.633 Y36.216 I0.005 J0.315
G1 X32.669 Y36.275
G3 X32.673 Y36.59 I-0.271 J0.162
G1 X32.64 Y36.65
G3 X32.369 Y36.812 I-0.275 J-0.154
G1 X32.335
G2 X31.954 Y37.175 I0.006 J0.388
G3 X31.441 Y37.294 I-0.274 J-0.018
G2 X30.903 Y36.424 I-13.276 J7.605
X31.208 Y36.088 I-0.568 J-0.823
G1 X31.443 Y35.667
G2 X31.569 Y35.165 I-0.873 J-0.487
X32.071 Y35.291 I0.487 J-0.873
G1 X32.554 Y35.284
G2 X33.052 Y35.143 I-0.015 J-1
X33.193 Y35.641 I1 J-0.015
G1 X33.441 Y36.055
G2 X33.812 Y36.416 I0.858 J-0.513
X33.452 Y36.787 I0.513 J0.858
G1 X33.216 Y37.209
G2 X33.09 Y37.711 I0.873 J0.487
X32.588 Y37.584 I-0.487 J0.873
G1 X32.105 Y37.591
G2 X31.665 Y37.701 I0.015 J1
X31.441 Y37.294 I-13.501 J7.199
G3 X31.488 Y37.04 I0.174 J-0.099
G1 X32.206 Y36.457
G3 X32.502 Y36.718 I0.126 J0.155
G1 Z-2.7 F60
G3 X32.486 Y36.74 Z-2.8 I-0.17 J-0.106
X32.431 Y36.786 Z-2.873 I-0.154 J-0.127
X32.335 Y36.812 Z-2.9 I-0.098 J-0.174
G1 X32.243 Y36.814 F240
G3 X31.968 Y36.659 I-0.005 J-0.315
X31.958 Y36.336 I0.266 J-0.17
G1 X32.019 Y36.226
G3 X32.29 Y36.064 I0.275 J0.154
G1 X32.358 Y36.063
G3 X32.633 Y36.216 I0.005 J0.315
G1 X32.669 Y36.275
G3 X32.673 Y36.59 I-0.271 J0.162
G1 X32.64 Y36.65
G3 X32.369 Y36.812 I-0.275 J-0.154
G1 X32.335
G2 X31.954 Y37.175 I0.006 J0.388
G3 X31.441 Y37.294 I-0.274 J-0.018
G2 X30.903 Y36.424 I-13.276 J7.605
X31.208 Y36.088 I-0.568 J-0.823
G1 X31.443 Y35.667
G2 X31.569 Y35.165 I-0.873 J-0.487
X32.071 Y35.291 I0.487 J-0.873
G1 X32.554 Y35.284
G2 X33.052 Y35.143 I-0.015 J-1
X33.193 Y35.641 I1 J-0.015
G1 X33.441 Y36.055
G2 X33.812 Y36.416 I0.858 J-0.513
X33.452 Y36.787 I0.513 J0.858
G1 X33.216 Y37.209
G2 X33.09 Y37.711 I0.873 J0.487
X32.588 Y37.584 I-0.487 J0.873
G1 X32.105 Y37.591
G2 X31.665 Y37.701 I0.015 J1
X31.441 Y37.294 I-13.501 J7.199
G3 X31.414 Y37.199 Z-2.873 I0.174 J-0.099 F480
X31.426 Y37.127 Z-2.8 I0.2 J-0.004
X31.437 Y37.103 Z-2.7 I0.188 J0.068
G0 Z5
X18.004 Y28.687
Z2
G1 Z-0.8 F60
G3 X17.978 Y28.684 Z-0.9 I0.009 J-0.2
X17.91 Y28.658 Z-0.973 I0.036 J-0.197
X17.84 Y28.587 Z-1 I0.104 J-0.171
G1 X17.823 Y28.558 F240
G3 Y28.242 I0.273 J-0.158
G1 X17.858 Y28.183
G3 X18.131 Y28.025 I0.273 J0.158
G1 X18.199
G3 X18.472 Y28.183 I0 J0.315
G1 X18.506 Y28.242
G3 Y28.558 I-0.273 J0.158
G1 X18.443 Y28.667
G3 X18.169 Y28.824 I-0.273 J-0.158
X17.886 Y28.667 I-0.01 J-0.315
G1 X17.84 Y28.587
G2 X17.379 Y28.382 I-0.371 J0.214
G3 X17.083 Y27.974 I-0.058 J-0.27
G1 X17.29 Y27.616
G2 X17.424 Y27.116 I-0.866 J-0.5
X17.924 Y27.25 I0.5 J-0.866
G1 X18.406
G2 X18.906 Y27.116 I0 J-1
X19.04 Y27.616 I1 J0
G1 X19.281 Y28.034
G2 X19.647 Y28.4 I0.866 J-0.5
X19.281 Y28.766 I0.5 J0.866
G1 X19.04 Y29.184
G2 X18.908 Y29.618 I0.866 J0.5
X17.421 I-0.743 J15.282
X17.29 Y29.184 I-0.998 J0.066
G1 X17.048 Y28.766
G2 X16.682 Y28.4 I-0.866 J0.5
X17.048 Y28.034 I-0.5 J-0.866
G1 X17.083 Y27.974
G3 X17.351 Y27.899 I0.173 J0.1
G1 X18.109 Y28.312
G3 X18.004 Y28.687 I-0.096 J0.176
G1 Z-1.8 F60
G3 X17.978 Y28.684 Z-1.9 I0.009 J-0.2
X17.91 Y28.658 Z-1.973 I0.036 J-0.197
X17.84 Y28.587 Z-2 I0.104 J-0.171
G1 X17.823 Y28.558 F240
G3 Y28.242 I0.273 J-0.158
G1 X17.858 Y28.183
G3 X18.131 Y28.025 I0.273 J0.158
G1 X18.199
G3 X18.472 Y28.183 I0 J0.315
G1 X18.506 Y28.242
G3 Y28.558 I-0.273 J0.158
G1 X18.443 Y28.667
G3 X18.169 Y28.824 I-0.273 J-0.158
X17.886 Y28.667 I-0.01 J-0.315
G1 X17.84 Y28.587
G2 X17.379 Y28.382 I-0.371 J0.214
G3 X17.083 Y27.974 I-0.058 J-0.27
G1 X17.29 Y27.616
G2 X17.424 Y27.116 I-0.866 J-0.5
X17.924 Y27.25 I0.5 J-0.866
G1 X18.406
G2 X18.906 Y27.116 I0 J-1
X19.04 Y27.616 I1 J0
G1 X19.281 Y28.034
G2 X19.647 Y28.4 I0.866 J-0.5
X19.281 Y28.766 I0.5 J0.866
G1 X19.04 Y29.184
G2 X18.908 Y29.618 I0.866 J0.5
X17.421 I-0.743 J15.282
X17.29 Y29.184 I-0.998 J0.066
G1 X17.048 Y28.766
G2 X16.682 Y28.4 I-0.866 J0.5
X17.048 Y28.034 I-0.5 J-0.866
G1 X17.083 Y27.974
G3 X17.351 Y27.899 I0.173 J0.1
G1 X18.109 Y28.312
G3 X18.004 Y28.687 I-0.096 J0.176
G1 Z-2.7 F60
G3 X17.978 Y28.684 Z-2.8 I0.009 J-0.2
X17.91 Y28.658 Z-2.873 I0.036 J-0.197
X17.84 Y28.587 Z-2.9 I0.104 J-0.171
G1 X17.823 Y28.558 F240
G3 Y28.242 I0.273 J-0.158
G1 X17.858 Y28.183
G3 X18.131 Y28.025 I0.273 J0.158
G1 X18.199
G3 X18.472 Y28.183 I0 J0.315
G1 X18.506 Y28.242
G3 Y28.558 I-0.273 J0.158
G1 X18.443 Y28.667
G3 X18.169 Y28.824 I-0.273 J-0.158
X17.886 Y28.667 I-0.01 J-0.315
G1 X17.84 Y28.587
G2 X17.379 Y28.382 I-0.371 J0.214
G3 X17.083 Y27.974 I-0.058 J-0.27
G1 X17.29 Y27.616
G2 X17.424 Y27.116 I-0.866 J-0.5
X17.924 Y27.25 I0.5 J-0.866
G1 X18.406
G2 X18.906 Y27.116 I0 J-1
X19.04 Y27.616 I1 J0
G1 X19.281 Y28.034
G2 X19.647 Y28.4 I0.866 J-0.5
X19.281 Y28.766 I0.5 J0.866
G1 X19.04 Y29.184
G2 X18.908 Y29.618 I0.866 J0.5
X17.421 I-0.743 J15.282
X17.29 Y29.184 I-0.998 J0.066
G1 X17.048 Y28.766
G2 X16.682 Y28.4 I-0.866 J0.5
X17.048 Y28.034 I-0.5 J-0.866
G1 X17.083 Y27.974
G3 X17.152 Y27.904 Z-2.873 I0.173 J0.1 F480
X17.22 Y27.878 Z-2.8 I0.104 J0.171
X17.246 Y27.875 Z-2.7 I0.036 J0.197
G0 Z5
X4.165 Y36.153
Z2
G1 Z-0.8 F60
G3 X4.191 Y36.157 Z-0.9 I-0.012 J0.2
X4.259 Y36.184 Z-0.973 I-0.039 J0.196
X4.327 Y36.255 Z-1 I-0.107 J0.169
G1 X4.372 Y36.336 F240
G3 X4.367 Y36.652 I-0.275 J0.154
X4.086 Y36.814 I-0.276 J-0.153
G1 X3.96 Y36.812
G3 X3.69 Y36.65 I0.005 J-0.315
G1 X3.656 Y36.59
G3 X3.661 Y36.275 I0.275 J-0.154
G1 X3.696 Y36.216
G3 X3.971 Y36.063 I0.271 J0.162
G1 X4.04 Y36.064
G3 X4.31 Y36.226 I-0.005 J0.315
G1 X4.327 Y36.255
G2 X4.828 Y36.419 I0.339 J-0.189
G3 X5.176 Y36.815 I0.114 J0.25
G2 X4.664 Y37.701 I12.989 J8.085
X4.224 Y37.591 I-0.455 J0.89
G1 X3.742 Y37.584
G2 X3.24 Y37.711 I-0.015 J1
X3.113 Y37.209 I-1 J-0.015
G1 X2.878 Y36.787
G2 X2.518 Y36.416 I-0.873 J0.487
X2.889 Y36.055 I-0.487 J-0.873
G1 X3.137 Y35.641
G2 X3.278 Y35.143 I-0.858 J-0.513
X3.776 Y35.284 I0.513 J-0.859
G1 X4.258 Y35.291
G2 X4.76 Y35.165 I0.015 J-1
X4.887 Y35.667 I1 J0.015
G1 X5.122 Y36.088
G2 X5.427 Y36.424 I0.873 J-0.487
X5.176 Y36.815 I12.738 J8.476
G3 X4.929 Y36.894 I-0.17 J-0.106
G1 X4.075 Y36.537
G3 X4.165 Y36.153 I0.077 J-0.185
G1 Z-1.8 F60
G3 X4.191 Y36.157 Z-1.9 I-0.012 J0.2
X4.259 Y36.184 Z-1.973 I-0.039 J0.196
X4.327 Y36.255 Z-2 I-0.107 J0.169
G1 X4.372 Y36.336 F240
G3 X4.367 Y36.652 I-0.275 J0.154
X4.086 Y36.814 I-0.276 J-0.153
G1 X3.96 Y36.812
G3 X3.69 Y36.65 I0.005 J-0.315
G1 X3.656 Y36.59
G3 X3.661 Y36.275 I0.275 J-0.154
G1 X3.696 Y36.216
G3 X3.971 Y36.063 I0.271 J0.162
G1 X4.04 Y36.064
G3 X4.31 Y36.226 I-0.005 J0.315
G1 X4.327 Y36.255
G2 X4.828 Y36.419 I0.339 J-0.189
G3 X5.176 Y36.815 I0.114 J0.25
G2 X4.664 Y37.701 I12.989 J8.085
X4.224 Y37.591 I-0.455 J0.89
G1 X3.742 Y37.584
G2 X3.24 Y37.711 I-0.015 J1
X3.113 Y37.209 I-1 J-0.015
G1 X2.878 Y36.787
G2 X2.518 Y36.416 I-0.873 J0.487
X2.889 Y36.055 I-0.487 J-0.873
G1 X3.137 Y35.641
G2 X3.278 Y35.143 I-0.858 J-0.513
X3.776 Y35.284 I0.513 J-0.859
G1 X4.258 Y35.291
G2 X4.76 Y35.165 I0.015 J-1
X4.887 Y35.667 I1 J0.015
G1 X5.122 Y36.088
G2 X5.427 Y36.424 I0.873 J-0.487
X5.176 Y36.815 I12.738 J8.476
G3 X4.929 Y36.894 I-0.17 J-0.106
G1 X4.075 Y36.537
G3 X4.165 Y36.153 I0.077 J-0.185
G1 Z-2.7 F60
G3 X4.191 Y36.157 Z-2.8 I-0.012 J0.2
X4.259 Y36.184 Z-2.873 I-0.039 J0.196
X4.327 Y36.255 Z-2.9 I-0.107 J0.169
G1 X4.372 Y36.336 F240
G3 X4.367 Y36.652 I-0.275 J0.154
X4.086 Y36.814 I-0.276 J-0.153
G1 X3.96 Y36.812
G3 X3.69 Y36.65 I0.005 J-0.315
G1 X3.656 Y36.59
G3 X3.661 Y36.275 I0.275 J-0.154
G1 X3.696 Y36.216
G3 X3.971 Y36.063 I0.271 J0.162
G1 X4.04 Y36.064
G3 X4.31 Y36.226 I-0.005 J0.315
G1 X4.327 Y36.255
G2 X4.828 Y36.419 I0.339 J-0.189
G3 X5.176 Y36.815 I0.114 J0.25
G2 X4.664 Y37.701 I12.989 J8.085
X4.224 Y37.591 I-0.455 J0.89
G1 X3.742 Y37.584
G2 X3.24 Y37.711 I-0.015 J1
X3.113 Y37.209 I-1 J-0.015
G1 X2.878 Y36.787
G2 X2.518 Y36.416 I-0.873 J0.487
X2.889 Y36.055 I-0.487 J-0.873
G1 X3.137 Y35.641
G2 X3.278 Y35.143 I-0.858 J-0.513
X3.776 Y35.284 I0.513 J-0.859
G1 X4.258 Y35.291
G2 X4.76 Y35.165 I0.015 J-1
X4.887 Y35.667 I1 J0.015
G1 X5.122 Y36.088
G2 X5.427 Y36.424 I0.873 J-0.487
X5.176 Y36.815 I12.738 J8.476
G3 X5.104 Y36.883 Z-2.873 I-0.17 J-0.106 F480
X5.035 Y36.907 Z-2.8 I-0.098 J-0.174
X5.009 Y36.909 Z-2.7 I-0.029 J-0.198
G0 Z5
X32.502 Y48.918
Z2
G1 Z-0.8 F60
G3 X32.486 Y48.94 Z-0.9 I-0.17 J-0.106
X32.431 Y48.986 Z-0.973 I-0.154 J-0.127
X32.335 Y49.012 Z-1 I-0.098 J-0.174
G1 X32.243 Y49.014 F240
G3 X31.968 Y48.859 I-0.005 J-0.315
X31.958 Y48.536 I0.266 J-0.17
G1 X32.019 Y48.426
G3 X32.29 Y48.264 I0.275 J0.154
G1 X32.358 Y48.263
G3 X32.633 Y48.416 I0.005 J0.315
G1 X32.669 Y48.475
G3 X32.673 Y48.79 I-0.271 J0.162
G1 X32.64 Y48.85
G3 X32.369 Y49.012 I-0.275 J-0.154
G1 X32.335
G2 X31.954 Y49.375 I0.006 J0.388
G3 X31.441 Y49.494 I-0.274 J-0.018
G2 X30.903 Y48.624 I-13.276 J7.605
X31.208 Y48.288 I-0.568 J-0.823
G1 X31.443 Y47.867
G2 X31.569 Y47.365 I-0.873 J-0.487
X32.071 Y47.491 I0.487 J-0.873
G1 X32.554 Y47.484
G2 X33.052 Y47.343 I-0.015 J-1
X33.193 Y47.841 I1 J-0.015
G1 X33.441 Y48.255
G2 X33.812 Y48.616 I0.858 J-0.513
X33.452 Y48.987 I0.513 J0.858
G1 X33.216 Y49.409
G2 X33.09 Y49.911 I0.873 J0.487
X32.588 Y49.784 I-0.487 J0.873
G1 X32.105 Y49.791
G2 X31.665 Y49.901 I0.015 J1
X31.441 Y49.494 I-13.501 J7.199
G3 X31.488 Y49.24 I0.174 J-0.099
G1 X32.206 Y48.657
G3 X32.502 Y48.918 I0.126 J0.155
G1 Z-1.8 F60
G3 X32.486 Y48.94 Z-1.9 I-0.17 J-0.106
X32.431 Y48.986 Z-1.973 I-0.154 J-0.127
X32.335 Y49.012 Z-2 I-0.098 J-0.174
G1 X32.243 Y49.014 F240
G3 X31.968 Y48.859 I-0.005 J-0.315
X31.958 Y48.536 I0.266 J-0.17
G1 X32.019 Y48.426
G3 X32.29 Y48.264 I0.275 J0.154
G1 X32.358 Y48.263
G3 X32.633 Y48.416 I0.005 J0.315
G1 X32.669 Y48.475
G3 X32.673 Y48.79 I-0.271 J0.162
G1 X32.64 Y48.85
G3 X32.369 Y49.012 I-0.275 J-0.154
G1 X32.335
G2 X31.954 Y49.375 I0.006 J0.388
G3 X31.441 Y49.494 I-0.274 J-0.018
G2 X30.903 Y48.624 I-13.276 J7.605
X31.208 Y48.288 I-0.568 J-0.823
G1 X31.443 Y47.867
G2 X31.569 Y47.365 I-0.873 J-0.487
X32.071 Y47.491 I0.487 J-0.873
G1 X32.554 Y47.484
G2 X33.052 Y47.343 I-0.015 J-1
X33.193 Y47.841 I1 J-0.015
G1 X33.441 Y48.255
G2 X33.812 Y48.616 I0.858 J-0.513
X33.452 Y48.987 I0.513 J0.858
G1 X33.216 Y49.409
G2 X33.09 Y49.911 I0.873 J0.487
X32.588 Y49.784 I-0.487 J0.873
G1 X32.105 Y49.791
G2 X31.665 Y49.901 I0.015 J1
X31.441 Y49.494 I-13.501 J7.199
G3 X31.488 Y49.24 I0.174 J-0.099
G1 X32.206 Y48.657
G3 X32.502 Y48.918 I0.126 J0.155
G1 Z-2.7 F60
G3 X32.486 Y48.94 Z-2.8 I-0.17 J-0.106
X32.431 Y48.986 Z-2.873 I-0.154 J-0.127
X32.335 Y49.012 Z-2.9 I-0.098 J-0.174
G1 X32.243 Y49.014 F240
G3 X31.968 Y48.859 I-0.005 J-0.315
X31.958 Y48.536 I0.266 J-0.17
G1 X32.019 Y48.426
G3 X32.29 Y48.264 I0.275 J0.154
G1 X32.358 Y48.263
G3 X32.633 Y48.416 I0.005 J0.315
G1 X32.669 Y48.475
G3 X32.673 Y48.79 I-0.271 J0.162
G1 X32.64 Y48.85
G3 X32.369 Y49.012 I-0.275 J-0.154
G1 X32.335
G2 X31.954 Y49.375 I0.006 J0.388
G3 X31.441 Y49.494 I-0.274 J-0.018
G2 X30.903 Y48.624 I-13.276 J7.605
X31.208 Y48.288 I-0.568 J-0.823
G1 X31.443 Y47.867
G2 X31.569 Y47.365 I-0.873 J-0.487
X32.071 Y47.491 I0.487 J-0.873
G1 X32.554 Y47.484
G2 X33.052 Y47.343 I-0.015 J-1
X33.193 Y47.841 I1 J-0.015
G1 X33.441 Y48.255
G2 X33.812 Y48.616 I0.858 J-0.513
X33.452 Y48.987 I0.513 J0.858
G1 X33.216 Y49.409
G2 X33.09 Y49.911 I0.873 J0.487
X32.588 Y49.784 I-0.487 J0.873
G1 X32.105 Y49.791
G2 X31.665 Y49.901 I0.015 J1
X31.441 Y49.494 I-13.501 J7.199
G3 X31.414 Y49.399 Z-2.873 I0.174 J-0.099 F480
X31.426 Y49.327 Z-2.8 I0.2 J-0.004
X31.437 Y49.303 Z-2.7 I0.188 J0.068
G0 Z5
X18.494 Y40.596
Z2
G1 Z-0.8 F60
G3 X18.504 Y40.62 Z-0.9 I-0.178 J0.092
X18.516 Y40.692 Z-0.973 I-0.188 J0.067
X18.489 Y40.787 Z-1 I-0.2 J-0.005
G1 X18.443 Y40.867 F240
G3 X18.169 Y41.024 I-0.273 J-0.158
X17.886 Y40.867 I-0.01 J-0.315
G1 X17.823 Y40.758
G3 Y40.442 I0.273 J-0.158
G1 X17.858 Y40.383
G3 X18.131 Y40.225 I0.273 J0.158
G1 X18.199
G3 X18.472 Y40.383 I0 J0.315
G1 X18.506 Y40.442
G3 Y40.758 I-0.273 J0.158
G1 X18.489 Y40.787
G2 X18.605 Y41.301 I0.336 J0.194
G3 X18.444 Y41.803 I-0.156 J0.227
G2 X17.421 Y41.818 I-0.28 J15.297
X17.29 Y41.384 I-0.998 J0.066
G1 X17.048 Y40.966
G2 X16.682 Y40.6 I-0.866 J0.5
X17.048 Y40.234 I-0.5 J-0.866
G1 X17.29 Y39.816
G2 X17.424 Y39.316 I-0.866 J-0.5
X17.924 Y39.45 I0.5 J-0.866
G1 X18.406
G2 X18.906 Y39.316 I0 J-1
X19.04 Y39.816 I1 J0
G1 X19.281 Y40.234
G2 X19.647 Y40.6 I0.866 J-0.5
X19.281 Y40.966 I0.5 J0.866
G1 X19.04 Y41.384
G2 X18.908 Y41.818 I0.866 J0.5
X18.444 Y41.803 I-0.743 J15.282
G3 X18.25 Y41.631 I0.004 J-0.2
G1 X18.118 Y40.716
G3 X18.494 Y40.596 I0.198 J-0.029
G1 Z-1.8 F60
G3 X18.504 Y40.62 Z-1.9 I-0.178 J0.092
X18.516 Y40.692 Z-1.973 I-0.188 J0.067
X18.489 Y40.787 Z-2 I-0.2 J-0.005
G1 X18.443 Y40.867 F240
G3 X18.169 Y41.024 I-0.273 J-0.158
X17.886 Y40.867 I-0.01 J-0.315
G1 X17.823 Y40.758
G3 Y40.442 I0.273 J-0.158
G1 X17.858 Y40.383
G3 X18.131 Y40.225 I0.273 J0.158
G1 X18.199
G3 X18.472 Y40.383 I0 J0.315
G1 X18.506 Y40.442
G3 Y40.758 I-0.273 J0.158
G1 X18.489 Y40.787
G2 X18.605 Y41.301 I0.336 J0.194
G3 X18.444 Y41.803 I-0.156 J0.227
G2 X17.421 Y41.818 I-0.28 J15.297
X17.29 Y41.384 I-0.998 J0.066
G1 X17.048 Y40.966
G2 X16.682 Y40.6 I-0.866 J0.5
X17.048 Y40.234 I-0.5 J-0.866
G1 X17.29 Y39.816
G2 X17.424 Y39.316 I-0.866 J-0.5
X17.924 Y39.45 I0.5 J-0.866
G1 X18.406
G2 X18.906 Y39.316 I0 J-1
X19.04 Y39.816 I1 J0
G1 X19.281 Y40.234
G2 X19.647 Y40.6 I0.866 J-0.5
X19.281 Y40.966 I0.5 J0.866
G1 X19.04 Y41.384
G2 X18.908 Y41.818 I0.866 J0.5
X18.444 Y41.803 I-0.743 J15.282
G3 X18.25 Y41.631 I0.004 J-0.2
G1 X18.118 Y40.716
G3 X18.494 Y40.596 I0.198 J-0.029
G1 Z-2.7 F60
G3 X18.504 Y40.62 Z-2.8 I-0.178 J0.092
X18.516 Y40.692 Z-2.873 I-0.188 J0.067
X18.489 Y40.787 Z-2.9 I-0.2 J-0.005
G1 X18.443 Y40.867 F240
G3 X18.169 Y41.024 I-0.273 J-0.158
X17.886 Y40.867 I-0.01 J-0.315
G1 X17.823 Y40.758
G3 Y40.442 I0.273 J-0.158
G1 X17.858 Y40.383
G3 X18.131 Y40.225 I0.273 J0.158
G1 X18.199
G3 X18.472 Y40.383 I0 J0.315
G1 X18.506 Y40.442
G3 Y40.758 I-0.273 J0.158
G1 X18.489 Y40.787
G2 X18.605 Y41.301 I0.336 J0.194
G3 X18.444 Y41.803 I-0.156 J0.227
G2 X17.421 Y41.818 I-0.28 J15.297
X17.29 Y41.384 I-0.998 J0.066
G1 X17.048 Y40.966
G2 X16.682 Y40.6 I-0.866 J0.5
X17.048 Y40.234 I-0.5 J-0.866
G1 X17.29 Y39.816
G2 X17.424 Y39.316 I-0.866 J-0.5
X17.924 Y39.45 I0.5 J-0.866
G1 X18.406
G2 X18.906 Y39.316 I0 J-1
X19.04 Y39.816 I1 J0
G1 X19.281 Y40.234
G2 X19.647 Y40.6 I0.866 J-0.5
X19.281 Y40.966 I0.5 J0.866
G1 X19.04 Y41.384
G2 X18.908 Y41.818 I0.866 J0.5
X18.444 Y41.803 I-0.743 J15.282
G3 X18.349 Y41.776 Z-2.873 I0.004 J-0.2 F480
X18.293 Y41.729 Z-2.8 I0.099 J-0.174
X18.278 Y41.708 Z-2.7 I0.155 J-0.127
G0 Z5
X3.835 Y48.922
Z2
G1 Z-0.8 F60
G3 X3.809 Y48.919 Z-0.9 I0.012 J-0.2
X3.741 Y48.892 Z-0.973 I0.039 J-0.196
X3.673 Y48.82 Z-1 I0.107 J-0.169
G1 X3.656 Y48.79 F240
G3 X3.661 Y48.475 I0.275 J-0.154
G1 X3.696 Y48.416
G3 X3.971 Y48.263 I0.271 J0.162
G1 X4.04 Y48.264
G3 X4.31 Y48.426 I-0.005 J0.315
G1 X4.372 Y48.536
G3 X4.367 Y48.852 I-0.275 J0.154
X4.086 Y49.014 I-0.276 J-0.153
G1 X3.96 Y49.012
G3 X3.69 Y48.85 I0.005 J-0.315
G1 X3.673 Y48.82
G2 X3.215 Y48.609 I-0.374 J0.209
G3 X2.924 Y48.196 I-0.054 J-0.271
G1 X3.137 Y47.841
G2 X3.278 Y47.343 I-0.858 J-0.513
X3.776 Y47.484 I0.513 J-0.859
G1 X4.258 Y47.491
G2 X4.76 Y47.365 I0.015 J-1
X4.887 Y47.867 I1 J0.015
G1 X5.122 Y48.288
G2 X5.427 Y48.624 I0.873 J-0.487
X4.664 Y49.901 I12.738 J8.476
X4.224 Y49.791 I-0.455 J0.89
G1 X3.742 Y49.784
G2 X3.24 Y49.911 I-0.015 J1
X3.113 Y49.409 I-1 J-0.015
G1 X2.878 Y48.987
G2 X2.518 Y48.616 I-0.873 J0.487
X2.889 Y48.255 I-0.487 J-0.873
G1 X2.924 Y48.196
G3 X3.194 Y48.125 I0.172 J0.103
G1 X3.946 Y48.549
G3 X3.835 Y48.922 I-0.098 J0.174
G1 Z-1.8 F60
G3 X3.809 Y48.919 Z-1.9 I0.012 J-0.2
X3.741 Y48.892 Z-1.973 I0.039 J-0.196
X3.673 Y48.82 Z-2 I0.107 J-0.169
G1 X3.656 Y48.79 F240
G3 X3.661 Y48.475 I0.275 J-0.154
G1 X3.696 Y48.416
G3 X3.971 Y48.263 I0.271 J0.162
G1 X4.04 Y48.264
G3 X4.31 Y48.426 I-0.005 J0.315
G1 X4.372 Y48.536
G3 X4.367 Y48.852 I-0.275 J0.154
X4.086 Y49.014 I-0.276 J-0.153
G1 X3.96 Y49.012
G3 X3.69 Y48.85 I0.005 J-0.315
G1 X3.673 Y48.82
G2 X3.215 Y48.609 I-0.374 J0.209
G3 X2.924 Y48.196 I-0.054 J-0.271
G1 X3.137 Y47.841
G2 X3.278 Y47.343 I-0.858 J-0.513
X3.776 Y47.484 I0.513 J-0.859
G1 X4.258 Y47.491
G2 X4.76 Y47.365 I0.015 J-1
X4.887 Y47.867 I1 J0.015
G1 X5.122 Y48.288
G2 X5.427 Y48.624 I0.873 J-0.487
X4.664 Y49.901 I12.738 J8.476
X4.224 Y49.791 I-0.455 J0.89
G1 X3.742 Y49.784
G2 X3.24 Y49.911 I-0.015 J1
X3.113 Y49.409 I-1 J-0.015
G1 X2.878 Y48.987
G2 X2.518 Y48.616 I-0.873 J0.487
X2.889 Y48.255 I-0.487 J-0.873
G1 X2.924 Y48.196
G3 X3.194 Y48.125 I0.172 J0.103
G1 X3.946 Y48.549
G3 X3.835 Y48.922 I-0.098 J0.174
G1 Z-2.7 F60
G3 X3.809 Y48.919 Z-2.8 I0.012 J-0.2
X3.741 Y48.892 Z-2.873 I0.039 J-0.196
X3.673 Y48.82 Z-2.9 I0.107 J-0.169
G1 X3.656 Y48.79 F240
G3 X3.661 Y48.475 I0.275 J-0.154
G1 X3.696 Y48.416
G3 X3.971 Y48.263 I0.271 J0.162
G1 X4.04 Y48.264
G3 X4.31 Y48.426 I-0.005 J0.315
G1 X4.372 Y48.536
G3 X4.367 Y48.852 I-0.275 J0.154
X4.086 Y49.014 I-0.276 J-0.153
G1 X3.96 Y49.012
G3 X3.69 Y48.85 I0.005 J-0.315
G1 X3.673 Y48.82
G2 X3.215 Y48.609 I-0.374 J0.209
G3 X2.924 Y48.196 I-0.054 J-0.271
G1 X3.137 Y47.841
G2 X3.278 Y47.343 I-0.858 J-0.513
X3.776 Y47.484 I0.513 J-0.859
G1 X4.258 Y47.491
G2 X4.76 Y47.365 I0.015 J-1
X4.887 Y47.867 I1 J0.015
G1 X5.122 Y48.288
G2 X5.427 Y48.624 I0.873 J-0.487
X4.664 Y49.901 I12.738 J8.476
X4.224 Y49.791 I-0.455 J0.89
G1 X3.742 Y49.784
G2 X3.24 Y49.911 I-0.015 J1
X3.113 Y49.409 I-1 J-0.015
G1 X2.878 Y48.987
G2 X2.518 Y48.616 I-0.873 J0.487
X2.889 Y48.255 I-0.487 J-0.873
G1 X2.924 Y48.196
G3 X2.994 Y48.126 Z-2.873 I0.172 J0.103 F480
X3.063 Y48.102 Z-2.8 I0.101 J0.172
X3.089 Y48.099 Z-2.7 I0.033 J0.197
G0 Z15

(SCREW HOLES)
M8
G0 X32.611 Y11.828
Z15
Z2
G1 Z-0.9 F60
Z-3.7
G3 X32.634 Y11.84 Z-3.8 I-0.083 J0.182
X32.688 Y11.89 Z-3.873 I-0.107 J0.169
X32.726 Y11.981 Z-3.9 I-0.16 J0.12
X31.934 Y12.094 I-0.396 J0.057 F240
X32.726 Y11.981 I0.396 J-0.057
X32.64 Y12.017 I-0.047 J0.007
G1 X32.552 Y11.9
G3 X32.611 Y11.828 I0.038 J-0.029
G1 Z-4.38 F60
G3 X32.634 Y11.84 Z-4.48 I-0.083 J0.182
X32.688 Y11.89 Z-4.553 I-0.107 J0.169
X32.726 Y11.981 Z-4.58 I-0.16 J0.12
X31.934 Y12.094 I-0.396 J0.057 F240
X32.726 Y11.981 I0.396 J-0.057
X32.715 Y12.08 Z-4.553 I-0.198 J0.028 F480
X32.677 Y12.142 Z-4.48 I-0.187 J-0.07
X32.658 Y12.161 Z-4.38 I-0.15 J-0.132
G0 Z5
X18.288 Y4.329
Z2
G1 Z-0.9 F60
Z-3.7
G3 X18.269 Y4.348 Z-3.8 I-0.151 J-0.131
X18.207 Y4.385 Z-3.873 I-0.132 J-0.15
X18.108 Y4.396 Z-3.9 I-0.07 J-0.187
X18.221 Y3.604 I0.057 J-0.396 F240
X18.108 Y4.396 I-0.057 J0.396
X18.098 Y4.304 I0.007 J-0.047
G1 X18.235 Y4.253
G3 X18.288 Y4.329 I0.017 J0.045
G1 Z-4.38 F60
G3 X18.269 Y4.348 Z-4.48 I-0.151 J-0.131
X18.207 Y4.385 Z-4.553 I-0.132 J-0.15
X18.108 Y4.396 Z-4.58 I-0.07 J-0.187
X18.221 Y3.604 I0.057 J-0.396 F240
X18.108 Y4.396 I-0.057 J0.396
X18.017 Y4.358 Z-4.553 I0.028 J-0.198 F480
X17.967 Y4.305 Z-4.48 I0.12 J-0.16
X17.955 Y4.281 Z-4.38 I0.169 J-0.107
G0 Z5
X3.663 Y11.939
Z2
G1 Z-0.9 F60
Z-3.7
G3 X3.659 Y11.913 Z-3.8 I0.195 J-0.043
X3.667 Y11.84 Z-3.873 I0.199 J-0.016
X3.717 Y11.755 Z-3.9 I0.192 J0.056
X4.283 Y12.321 I0.283 J0.283 F240
X3.717 Y11.755 I-0.283 J-0.283
X3.797 Y11.802 I0.034 J0.034
G1 X3.756 Y11.942
G3 X3.663 Y11.939 I-0.046 J-0.013
G1 Z-4.38 F60
G3 X3.659 Y11.913 Z-4.48 I0.195 J-0.043
X3.667 Y11.84 Z-4.553 I0.199 J-0.016
X3.717 Y11.755 Z-4.58 I0.192 J0.056
X4.283 Y12.321 I0.283 J0.283 F240
X3.717 Y11.755 I-0.283 J-0.283
X3.802 Y11.704 Z-4.553 I0.141 J0.141 F480
X3.875 Y11.697 Z-4.48 I0.056 J0.192
X3.901 Y11.701 Z-4.38 I-0.016 J0.199
G0 Z5
X31.993 Y24.139
Z2
G1 Z-0.9 F60
Z-3.7
G3 X31.989 Y24.113 Z-3.8 I0.195 J-0.043
X31.996 Y24.04 Z-3.873 I0.199 J-0.016
X32.047 Y23.955 Z-3.9 I0.192 J0.056
X32.612 Y24.521 I0.283 J0.283 F240
X32.047 Y23.955 I-0.283 J-0.283
X32.127 Y24.002 I0.034 J0.034
G1 X32.086 Y24.142
G3 X31.993 Y24.139 I-0.046 J-0.013
G1 Z-4.38 F60
G3 X31.989 Y24.113 Z-4.48 I0.195 J-0.043
X31.996 Y24.04 Z-4.553 I0.199 J-0.016
X32.047 Y23.955 Z-4.58 I0.192 J0.056
X32.612 Y24.521 I0.283 J0.283 F240
X32.047 Y23.955 I-0.283 J-0.283
X32.132 Y23.904 Z-4.553 I0.141 J0.141 F480
X32.204 Y23.897 Z-4.48 I0.056 J0.192
X32.231 Y23.901 Z-4.38 I-0.016 J0.199
G0 Z5
X17.828 Y16.101
Z2
G1 Z-0.9 F60
Z-3.7
G3 X17.824 Y16.075 Z-3.8 I0.195 J-0.043
X17.831 Y16.002 Z-3.873 I0.199 J-0.016
X17.882 Y15.917 Z-3.9 I0.192 J0.056
X18.448 Y16.483 I0.283 J0.283 F240
X17.882 Y15.917 I-0.283 J-0.283
X17.962 Y15.965 I0.034 J0.034
G1 X17.921 Y16.104
G3 X17.828 Y16.101 I-0.046 J-0.013
G1 Z-4.38 F60
G3 X17.824 Y16.075 Z-4.48 I0.195 J-0.043
X17.831 Y16.002 Z-4.553 I0.199 J-0.016
X17.882 Y15.917 Z-4.58 I0.192 J0.056
X18.448 Y16.483 I0.283 J0.283 F240
X17.882 Y15.917 I-0.283 J-0.283
X17.967 Y15.867 Z-4.553 I0.141 J0.141 F480
X18.039 Y15.859 Z-4.48 I0.056 J0.192
X18.066 Y15.863 Z-4.38 I-0.016 J0.199
G0 Z5
X3.663 Y24.139
Z2
G1 Z-0.9 F60
Z-3.7
G3 X3.659 Y24.113 Z-3.8 I0.195 J-0.043
X3.667 Y24.04 Z-3.873 I0.199 J-0.016
X3.717 Y23.955 Z-3.9 I0.192 J0.056
X4.283 Y24.521 I0.283 J0.283 F240
X3.717 Y23.955 I-0.283 J-0.283
X3.797 Y24.002 I0.034 J0.034
G1 X3.756 Y24.142
G3 X3.663 Y24.139 I-0.046 J-0.013
G1 Z-4.38 F60
G3 X3.659 Y24.113 Z-4.48 I0.195 J-0.043
X3.667 Y24.04 Z-4.553 I0.199 J-0.016
X3.717 Y23.955 Z-4.58 I0.192 J0.056
X4.283 Y24.521 I0.283 J0.283 F240
X3.717 Y23.955 I-0.283 J-0.283
X3.802 Y23.904 Z-4.553 I0.141 J0.141 F480
X3.875 Y23.897 Z-4.48 I0.056 J0.192
X3.901 Y23.901 Z-4.38 I-0.016 J0.199
G0 Z5
X31.993 Y36.339
Z2
G1 Z-0.9 F60
Z-3.7
G3 X31.989 Y36.313 Z-3.8 I0.195 J-0.043
X31.996 Y36.24 Z-3.873 I0.199 J-0.016
X32.047 Y36.155 Z-3.9 I0.192 J0.056
X32.612 Y36.721 I0.283 J0.283 F240
X32.047 Y36.155 I-0.283 J-0.283
X32.127 Y36.202 I0.034 J0.034
G1 X32.086 Y36.342
G3 X31.993 Y36.339 I-0.046 J-0.013
G1 Z-4.38 F60
G3 X31.989 Y36.313 Z-4.48 I0.195 J-0.043
X31.996 Y36.24 Z-4.553 I0.199 J-0.016
X32.047 Y36.155 Z-4.58 I0.192 J0.056
X32.612 Y36.721 I0.283 J0.283 F240
X32.047 Y36.155 I-0.283 J-0.283
X32.132 Y36.104 Z-4.553 I0.141 J0.141 F480
X32.204 Y36.097 Z-4.48 I0.056 J0.192
X32.231 Y36.101 Z-4.38 I-0.016 J0.199
G0 Z5
X18.446 Y28.19
Z2
G1 Z-0.9 F60
Z-3.7
G3 X18.47 Y28.203 Z-3.8 I-0.083 J0.182
X18.523 Y28.252 Z-3.873 I-0.107 J0.169
X18.561 Y28.343 Z-3.9 I-0.16 J0.12
X17.769 Y28.457 I-0.396 J0.057 F240
X18.561 Y28.343 I0.396 J-0.057
X18.475 Y28.379 I-0.047 J0.007
G1 X18.388 Y28.262
G3 X18.446 Y28.19 I0.038 J-0.029
G1 Z-4.38 F60
G3 X18.47 Y28.203 Z-4.48 I-0.083 J0.182
X18.523 Y28.252 Z-4.553 I-0.107 J0.169
X18.561 Y28.343 Z-4.58 I-0.16 J0.12
X17.769 Y28.457 I-0.396 J0.057 F240
X18.561 Y28.343 I0.396 J-0.057
X18.55 Y28.442 Z-4.553 I-0.198 J0.028 F480
X18.513 Y28.504 Z-4.48 I-0.187 J-0.07
X18.494 Y28.523 Z-4.38 I-0.15 J-0.132
G0 Z5
X3.663 Y36.339
Z2
G1 Z-0.9 F60
Z-3.7
G3 X3.659 Y36.313 Z-3.8 I0.195 J-0.043
X3.667 Y36.24 Z-3.873 I0.199 J-0.016
X3.717 Y36.155 Z-3.9 I0.192 J0.056
X4.283 Y36.721 I0.283 J0.283 F240
X3.717 Y36.155 I-0.283 J-0.283
X3.797 Y36.202 I0.034 J0.034
G1 X3.756 Y36.342
G3 X3.663 Y36.339 I-0.046 J-0.013
G1 Z-4.38 F60
G3 X3.659 Y36.313 Z-4.48 I0.195 J-0.043
X3.667 Y36.24 Z-4.553 I0.199 J-0.016
X3.717 Y36.155 Z-4.58 I0.192 J0.056
X4.283 Y36.721 I0.283 J0.283 F240
X3.717 Y36.155 I-0.283 J-0.283
X3.802 Y36.104 Z-4.553 I0.141 J0.141 F480
X3.875 Y36.097 Z-4.48 I0.056 J0.192
X3.901 Y36.101 Z-4.38 I-0.016 J0.199
G0 Z5
X32.611 Y48.428
Z2
G1 Z-0.9 F60
Z-3.7
G3 X32.634 Y48.44 Z-3.8 I-0.083 J0.182
X32.688 Y48.49 Z-3.873 I-0.107 J0.169
X32.726 Y48.581 Z-3.9 I-0.16 J0.12
X31.934 Y48.694 I-0.396 J0.057 F240
X32.726 Y48.581 I0.396 J-0.057
X32.64 Y48.617 I-0.047 J0.007
G1 X32.552 Y48.5
G3 X32.611 Y48.428 I0.038 J-0.029
G1 Z-4.38 F60
G3 X32.634 Y48.44 Z-4.48 I-0.083 J0.182
X32.688 Y48.49 Z-4.553 I-0.107 J0.169
X32.726 Y48.581 Z-4.58 I-0.16 J0.12
X31.934 Y48.694 I-0.396 J0.057 F240
X32.726 Y48.581 I0.396 J-0.057
X32.715 Y48.68 Z-4.553 I-0.198 J0.028 F480
X32.677 Y48.742 Z-4.48 I-0.187 J-0.07
X32.658 Y48.761 Z-4.38 I-0.15 J-0.132
G0 Z5
X17.828 Y40.501
Z2
G1 Z-0.9 F60
Z-3.7
G3 X17.824 Y40.475 Z-3.8 I0.195 J-0.043
X17.831 Y40.402 Z-3.873 I0.199 J-0.016
X17.882 Y40.317 Z-3.9 I0.192 J0.056
X18.448 Y40.883 I0.283 J0.283 F240
X17.882 Y40.317 I-0.283 J-0.283
X17.962 Y40.365 I0.034 J0.034
G1 X17.921 Y40.504
G3 X17.828 Y40.501 I-0.046 J-0.013
G1 Z-4.38 F60
G3 X17.824 Y40.475 Z-4.48 I0.195 J-0.043
X17.831 Y40.402 Z-4.553 I0.199 J-0.016
X17.882 Y40.317 Z-4.58 I0.192 J0.056
X18.448 Y40.883 I0.283 J0.283 F240
X17.882 Y40.317 I-0.283 J-0.283
X17.967 Y40.267 Z-4.553 I0.141 J0.141 F480
X18.039 Y40.259 Z-4.48 I0.056 J0.192
X18.066 Y40.263 Z-4.38 I-0.016 J0.199
G0 Z5
X4.281 Y48.428
Z2
G1 Z-0.9 F60
Z-3.7
G3 X4.305 Y48.44 Z-3.8 I-0.083 J0.182
X4.358 Y48.49 Z-3.873 I-0.107 J0.169
X4.396 Y48.581 Z-3.9 I-0.16 J0.12
X3.604 Y48.694 I-0.396 J0.057 F240
X4.396 Y48.581 I0.396 J-0.057
X4.31 Y48.617 I-0.047 J0.007
G1 X4.223 Y48.5
G3 X4.281 Y48.428 I0.038 J-0.029
G1 Z-4.38 F60
G3 X4.305 Y48.44 Z-4.48 I-0.083 J0.182
X4.358 Y48.49 Z-4.553 I-0.107 J0.169
X4.396 Y48.581 Z-4.58 I-0.16 J0.12
X3.604 Y48.694 I-0.396 J0.057 F240
X4.396 Y48.581 I0.396 J-0.057
X4.385 Y48.68 Z-4.553 I-0.198 J0.028 F480
X4.348 Y48.742 Z-4.48 I-0.187 J-0.07
X4.329 Y48.761 Z-4.38 I-0.15 J-0.132
G0 Z15

(CUTOUTS)
M8
G0 X29.755 Y15.305
Z15
Z2
G1 Z-0.8 F60
X29.762 Y15.302 Z-0.852
X29.78 Y15.294 Z-0.9
X29.809 Y15.282 Z-0.941
X29.847 Y15.265 Z-0.973
X29.892 Y15.246 Z-0.993
X29.939 Y15.226 Z-1
X30.123 Y15.147 F120
G3 X30.386 Y15.252 I0.079 J0.184
G2 X30.963 Y15.797 I0.919 J-0.395 F240
X35.763 Y9.986 I1.367 J-3.759
X0.566 I-17.599 J10.514
X5.367 Y15.797 I3.434 J2.051
X5.944 Y15.252 I-0.342 J-0.94
G3 X30.386 I12.221 J5.248
X30.281 Y15.514 I-0.184 J0.079 F480
G1 X30.097 Y15.593
X30.049 Y15.614 Z-0.993
X30.005 Y15.633 Z-0.973
X29.967 Y15.649 Z-0.941
X29.938 Y15.662 Z-0.9
X29.919 Y15.67 Z-0.852
X29.913 Y15.672 Z-0.8
X29.755 Y15.305
Z-1.8 F60
X29.762 Y15.302 Z-1.852
X29.78 Y15.294 Z-1.9
X29.809 Y15.282 Z-1.941
X29.847 Y15.265 Z-1.973
X29.892 Y15.246 Z-1.993
X29.939 Y15.226 Z-2
X30.123 Y15.147 F120
G3 X30.386 Y15.252 I0.079 J0.184
G2 X30.963 Y15.797 I0.919 J-0.395 F240
X35.763 Y9.986 I1.367 J-3.759
X0.566 I-17.599 J10.514
X5.367 Y15.797 I3.434 J2.051
X5.944 Y15.252 I-0.342 J-0.94
G3 X30.386 I12.221 J5.248
X30.281 Y15.514 I-0.184 J0.079 F480
G1 X30.097 Y15.593
X30.049 Y15.614 Z-1.993
X30.005 Y15.633 Z-1.973
X29.967 Y15.649 Z-1.941
X29.938 Y15.662 Z-1.9
X29.919 Y15.67 Z-1.852
X29.913 Y15.672 Z-1.8
X29.755 Y15.305
Z-2.8 F60
X29.762 Y15.302 Z-2.852
X29.78 Y15.294 Z-2.9
X29.809 Y15.282 Z-2.941
X29.847 Y15.265 Z-2.973
X29.892 Y15.246 Z-2.993
X29.939 Y15.226 Z-3
X30.123 Y15.147 F120
G3 X30.386 Y15.252 I0.079 J0.184
G2 X30.963 Y15.797 I0.919 J-0.395 F240
X35.763 Y9.986 I1.367 J-3.759
X0.566 I-17.599 J10.514
X5.367 Y15.797 I3.434 J2.051
X5.944 Y15.252 I-0.342 J-0.94
G3 X30.386 I12.221 J5.248
X30.281 Y15.514 I-0.184 J0.079 F480
G1 X30.097 Y15.593
X30.049 Y15.614 Z-2.993
X30.005 Y15.633 Z-2.973
X29.967 Y15.649 Z-2.941
X29.938 Y15.662 Z-2.9
X29.919 Y15.67 Z-2.852
X29.913 Y15.672 Z-2.8
X29.755 Y15.305
Z-3.8 F60
X29.762 Y15.302 Z-3.852
X29.78 Y15.294 Z-3.9
X29.809 Y15.282 Z-3.941
X29.847 Y15.265 Z-3.973
X29.892 Y15.246 Z-3.993
X29.939 Y15.226 Z-4
X30.123 Y15.147 F120
G3 X30.386 Y15.252 I0.079 J0.184
G2 X30.963 Y15.797 I0.919 J-0.395 F240
X35.763 Y9.986 I1.367 J-3.759
X0.566 I-17.599 J10.514
X5.367 Y15.797 I3.434 J2.051
X5.944 Y15.252 I-0.342 J-0.94
G3 X30.386 I12.221 J5.248
X30.281 Y15.514 I-0.184 J0.079 F480
G1 X30.097 Y15.593
X30.049 Y15.614 Z-3.993
X30.005 Y15.633 Z-3.973
X29.967 Y15.649 Z-3.941
X29.938 Y15.662 Z-3.9
X29.919 Y15.67 Z-3.852
X29.913 Y15.672 Z-3.8
X29.755 Y15.305
Z-4.38 F60
X29.762 Y15.302 Z-4.432
X29.78 Y15.294 Z-4.48
X29.809 Y15.282 Z-4.521
X29.847 Y15.265 Z-4.553
X29.892 Y15.246 Z-4.573
X29.939 Y15.226 Z-4.58
X30.123 Y15.147 F120
G3 X30.386 Y15.252 I0.079 J0.184
G2 X30.963 Y15.797 I0.919 J-0.395 F240
X35.763 Y9.986 I1.367 J-3.759
X0.566 I-17.599 J10.514
X5.367 Y15.797 I3.434 J2.051
X5.944 Y15.252 I-0.342 J-0.94
G3 X30.386 I12.221 J5.248
X30.281 Y15.514 I-0.184 J0.079 F480
G1 X30.097 Y15.593
X30.049 Y15.614 Z-4.573
X30.005 Y15.633 Z-4.553
X29.967 Y15.649 Z-4.521
X29.938 Y15.662 Z-4.48
X29.919 Y15.67 Z-4.432
X29.913 Y15.672 Z-4.38
G0 Z5
X30.57 Y28.493
Z2
G1 Z-0.8 F60
X30.572 Y28.486 Z-0.852
X30.579 Y28.467 Z-0.9
X30.59 Y28.437 Z-0.941
X30.604 Y28.399 Z-0.973
X30.62 Y28.353 Z-0.993
X30.638 Y28.305 Z-1
X30.706 Y28.117 F120
G3 X30.963 Y27.997 I0.188 J0.068
G2 X35.763 Y22.186 I1.367 J-3.759 F240
X30.324 Y16.195 I-17.599 J10.514
X0.566 Y22.186 I-12.159 J16.505
X5.367 Y27.997 I3.434 J2.051
X5.944 Y27.452 I-0.342 J-0.94
G3 X30.386 I12.221 J5.248
G2 X30.963 Y27.997 I0.919 J-0.395
G3 X31.082 Y28.253 I-0.068 J0.188 F480
G1 X31.014 Y28.441
X30.996 Y28.49 Z-0.993
X30.98 Y28.535 Z-0.973
X30.966 Y28.574 Z-0.941
X30.955 Y28.604 Z-0.9
X30.948 Y28.623 Z-0.852
X30.946 Y28.629 Z-0.8
X30.57 Y28.493
Z-1.8 F60
X30.572 Y28.486 Z-1.852
X30.579 Y28.467 Z-1.9
X30.59 Y28.437 Z-1.941
X30.604 Y28.399 Z-1.973
X30.62 Y28.353 Z-1.993
X30.638 Y28.305 Z-2
X30.706 Y28.117 F120
G3 X30.963 Y27.997 I0.188 J0.068
G2 X35.763 Y22.186 I1.367 J-3.759 F240
X30.324 Y16.195 I-17.599 J10.514
X0.566 Y22.186 I-12.159 J16.505
X5.367 Y27.997 I3.434 J2.051
X5.944 Y27.452 I-0.342 J-0.94
G3 X30.386 I12.221 J5.248
G2 X30.963 Y27.997 I0.919 J-0.395
G3 X31.082 Y28.253 I-0.068 J0.188 F480
G1 X31.014 Y28.441
X30.996 Y28.49 Z-1.993
X30.98 Y28.535 Z-1.973
X30.966 Y28.574 Z-1.941
X30.955 Y28.604 Z-1.9
X30.948 Y28.623 Z-1.852
X30.946 Y28.629 Z-1.8
X30.57 Y28.493
Z-2.8 F60
X30.572 Y28.486 Z-2.852
X30.579 Y28.467 Z-2.9
X30.59 Y28.437 Z-2.941
X30.604 Y28.399 Z-2.973
X30.62 Y28.353 Z-2.993
X30.638 Y28.305 Z-3
X30.706 Y28.117 F120
G3 X30.963 Y27.997 I0.188 J0.068
G2 X35.763 Y22.186 I1.367 J-3.759 F240
X30.324 Y16.195 I-17.599 J10.514
X0.566 Y22.186 I-12.159 J16.505
X5.367 Y27.997 I3.434 J2.051
X5.944 Y27.452 I-0.342 J-0.94
G3 X30.386 I12.221 J5.248
G2 X30.963 Y27.997 I0.919 J-0.395
G3 X31.082 Y28.253 I-0.068 J0.188 F480
G1 X31.014 Y28.441
X30.996 Y28.49 Z-2.993
X30.98 Y28.535 Z-2.973
X30.966 Y28.574 Z-2.941
X30.955 Y28.604 Z-2.9
X30.948 Y28.623 Z-2.852
X30.946 Y28.629 Z-2.8
X30.57 Y28.493
Z-3.8 F60
X30.572 Y28.486 Z-3.852
X30.579 Y28.467 Z-3.9
X30.59 Y28.437 Z-3.941
X30.604 Y28.399 Z-3.973
X30.62 Y28.353 Z-3.993
X30.638 Y28.305 Z-4
X30.706 Y28.117 F120
G3 X30.963 Y27.997 I0.188 J0.068
G2 X35.763 Y22.186 I1.367 J-3.759 F240
X30.324 Y16.195 I-17.599 J10.514
X0.566 Y22.186 I-12.159 J16.505
X5.367 Y27.997 I3.434 J2.051
X5.944 Y27.452 I-0.342 J-0.94
G3 X30.386 I12.221 J5.248
G2 X30.963 Y27.997 I0.919 J-0.395
G3 X31.082 Y28.253 I-0.068 J0.188 F480
G1 X31.014 Y28.441
X30.996 Y28.49 Z-3.993
X30.98 Y28.535 Z-3.973
X30.966 Y28.574 Z-3.941
X30.955 Y28.604 Z-3.9
X30.948 Y28.623 Z-3.852
X30.946 Y28.629 Z-3.8
X30.57 Y28.493
Z-4.38 F60
X30.572 Y28.486 Z-4.432
X30.579 Y28.467 Z-4.48
X30.59 Y28.437 Z-4.521
X30.604 Y28.399 Z-4.553
X30.62 Y28.353 Z-4.573
X30.638 Y28.305 Z-4.58
X30.706 Y28.117 F120
G3 X30.963 Y27.997 I0.188 J0.068
G2 X35.763 Y22.186 I1.367 J-3.759 F240
X30.324 Y16.195 I-17.599 J10.514
X0.566 Y22.186 I-12.159 J16.505
X5.367 Y27.997 I3.434 J2.051
X5.944 Y27.452 I-0.342 J-0.94
G3 X30.386 I12.221 J5.248
G2 X30.963 Y27.997 I0.919 J-0.395
G3 X31.082 Y28.253 I-0.068 J0.188 F480
G1 X31.014 Y28.441
X30.996 Y28.49 Z-4.573
X30.98 Y28.535 Z-4.553
X30.966 Y28.574 Z-4.521
X30.955 Y28.604 Z-4.48
X30.948 Y28.623 Z-4.432
X30.946 Y28.629 Z-4.38
G0 Z5
X30.57 Y40.693
Z2
G1 Z-0.8 F60
X30.572 Y40.686 Z-0.852
X30.579 Y40.667 Z-0.9
X30.59 Y40.637 Z-0.941
X30.604 Y40.599 Z-0.973
X30.62 Y40.553 Z-0.993
X30.638 Y40.505 Z-1
X30.706 Y40.317 F120
G3 X30.963 Y40.197 I0.188 J0.068
G2 X35.763 Y34.386 I1.367 J-3.759 F240
X30.324 Y28.395 I-17.599 J10.514
X0.566 Y34.386 I-12.159 J16.505
X5.367 Y40.197 I3.434 J2.051
X5.944 Y39.652 I-0.342 J-0.94
G3 X30.386 I12.221 J5.248
G2 X30.963 Y40.197 I0.919 J-0.395
G3 X31.082 Y40.453 I-0.068 J0.188 F480
G1 X31.014 Y40.641
X30.996 Y40.69 Z-0.993
X30.98 Y40.735 Z-0.973
X30.966 Y40.774 Z-0.941
X30.955 Y40.804 Z-0.9
X30.948 Y40.823 Z-0.852
X30.946 Y40.829 Z-0.8
X30.57 Y40.693
Z-1.8 F60
X30.572 Y40.686 Z-1.852
X30.579 Y40.667 Z-1.9
X30.59 Y40.637 Z-1.941
X30.604 Y40.599 Z-1.973
X30.62 Y40.553 Z-1.993
X30.638 Y40.505 Z-2
X30.706 Y40.317 F120
G3 X30.963 Y40.197 I0.188 J0.068
G2 X35.763 Y34.386 I1.367 J-3.759 F240
X30.324 Y28.395 I-17.599 J10.514
X0.566 Y34.386 I-12.159 J16.505
X5.367 Y40.197 I3.434 J2.051
X5.944 Y39.652 I-0.342 J-0.94
G3 X30.386 I12.221 J5.248
G2 X30.963 Y40.197 I0.919 J-0.395
G3 X31.082 Y40.453 I-0.068 J0.188 F480
G1 X31.014 Y40.641
X30.996 Y40.69 Z-1.993
X30.98 Y40.735 Z-1.973
X30.966 Y40.774 Z-1.941
X30.955 Y40.804 Z-1.9
X30.948 Y40.823 Z-1.852
X30.946 Y40.829 Z-1.8
X30.57 Y40.693
Z-2.8 F60
X30.572 Y40.686 Z-2.852
X30.579 Y40.667 Z-2.9
X30.59 Y40.637 Z-2.941
X30.604 Y40.599 Z-2.973
X30.62 Y40.553 Z-2.993
X30.638 Y40.505 Z-3
X30.706 Y40.317 F120
G3 X30.963 Y40.197 I0.188 J0.068
G2 X35.763 Y34.386 I1.367 J-3.759 F240
X30.324 Y28.395 I-17.599 J10.514
X0.566 Y34.386 I-12.159 J16.505
X5.367 Y40.197 I3.434 J2.051
X5.944 Y39.652 I-0.342 J-0.94
G3 X30.386 I12.221 J5.248
G2 X30.963 Y40.197 I0.919 J-0.395
G3 X31.082 Y40.453 I-0.068 J0.188 F480
G1 X31.014 Y40.641
X30.996 Y40.69 Z-2.993
X30.98 Y40.735 Z-2.973
X30.966 Y40.774 Z-2.941
X30.955 Y40.804 Z-2.9
X30.948 Y40.823 Z-2.852
X30.946 Y40.829 Z-2.8
X30.57 Y40.693
Z-3.8 F60
X30.572 Y40.686 Z-3.852
X30.579 Y40.667 Z-3.9
X30.59 Y40.637 Z-3.941
X30.604 Y40.599 Z-3.973
X30.62 Y40.553 Z-3.993
X30.638 Y40.505 Z-4
X30.706 Y40.317 F120
G3 X30.963 Y40.197 I0.188 J0.068
G2 X35.763 Y34.386 I1.367 J-3.759 F240
X30.324 Y28.395 I-17.599 J10.514
X0.566 Y34.386 I-12.159 J16.505
X5.367 Y40.197 I3.434 J2.051
X5.944 Y39.652 I-0.342 J-0.94
G3 X30.386 I12.221 J5.248
G2 X30.963 Y40.197 I0.919 J-0.395
G3 X31.082 Y40.453 I-0.068 J0.188 F480
G1 X31.014 Y40.641
X30.996 Y40.69 Z-3.993
X30.98 Y40.735 Z-3.973
X30.966 Y40.774 Z-3.941
X30.955 Y40.804 Z-3.9
X30.948 Y40.823 Z-3.852
X30.946 Y40.829 Z-3.8
X30.57 Y40.693
Z-4.38 F60
X30.572 Y40.686 Z-4.432
X30.579 Y40.667 Z-4.48
X30.59 Y40.637 Z-4.521
X30.604 Y40.599 Z-4.553
X30.62 Y40.553 Z-4.573
X30.638 Y40.505 Z-4.58
X30.706 Y40.317 F120
G3 X30.963 Y40.197 I0.188 J0.068
G2 X35.763 Y34.386 I1.367 J-3.759 F240
X30.324 Y28.395 I-17.599 J10.514
X0.566 Y34.386 I-12.159 J16.505
X5.367 Y40.197 I3.434 J2.051
X5.944 Y39.652 I-0.342 J-0.94
G3 X30.386 I12.221 J5.248
G2 X30.963 Y40.197 I0.919 J-0.395
G3 X31.082 Y40.453 I-0.068 J0.188 F480
G1 X31.014 Y40.641
X30.996 Y40.69 Z-4.573
X30.98 Y40.735 Z-4.553
X30.966 Y40.774 Z-4.521
X30.955 Y40.804 Z-4.48
X30.948 Y40.823 Z-4.432
X30.946 Y40.829 Z-4.38
G0 Z5
X30.57 Y52.893
Z2
G1 Z-0.8 F60
X30.572 Y52.886 Z-0.852
X30.579 Y52.867 Z-0.9
X30.59 Y52.837 Z-0.941
X30.604 Y52.799 Z-0.973
X30.62 Y52.753 Z-0.993
X30.638 Y52.705 Z-1
X30.706 Y52.517 F120
G3 X30.963 Y52.397 I0.188 J0.068
G2 X35.763 Y46.586 I1.367 J-3.759 F240
X0.566 I-17.599 J10.514
X1.717 Y51.923 I3.434 J2.052
X5.367 Y52.397 I2.283 J-3.285
X5.944 Y51.852 I-0.342 J-0.94
G3 X30.386 I12.221 J5.248
G2 X30.963 Y52.397 I0.919 J-0.395
G3 X31.082 Y52.653 I-0.068 J0.188 F480
G1 X31.014 Y52.841
X30.996 Y52.89 Z-0.993
X30.98 Y52.935 Z-0.973
X30.966 Y52.974 Z-0.941
X30.955 Y53.004 Z-0.9
X30.948 Y53.023 Z-0.852
X30.946 Y53.029 Z-0.8
X30.57 Y52.893
Z-1.8 F60
X30.572 Y52.886 Z-1.852
X30.579 Y52.867 Z-1.9
X30.59 Y52.837 Z-1.941
X30.604 Y52.799 Z-1.973
X30.62 Y52.753 Z-1.993
X30.638 Y52.705 Z-2
X30.706 Y52.517 F120
G3 X30.963 Y52.397 I0.188 J0.068
G2 X35.763 Y46.586 I1.367 J-3.759 F240
X0.566 I-17.599 J10.514
X1.717 Y51.923 I3.434 J2.052
X5.367 Y52.397 I2.283 J-3.285
X5.944 Y51.852 I-0.342 J-0.94
G3 X30.386 I12.221 J5.248
G2 X30.963 Y52.397 I0.919 J-0.395
G3 X31.082 Y52.653 I-0.068 J0.188 F480
G1 X31.014 Y52.841
X30.996 Y52.89 Z-1.993
X30.98 Y52.935 Z-1.973
X30.966 Y52.974 Z-1.941
X30.955 Y53.004 Z-1.9
X30.948 Y53.023 Z-1.852
X30.946 Y53.029 Z-1.8
X30.57 Y52.893
Z-2.8 F60
X30.572 Y52.886 Z-2.852
X30.579 Y52.867 Z-2.9
X30.59 Y52.837 Z-2.941
X30.604 Y52.799 Z-2.973
X30.62 Y52.753 Z-2.993
X30.638 Y52.705 Z-3
X30.706 Y52.517 F120
G3 X30.963 Y52.397 I0.188 J0.068
G2 X35.763 Y46.586 I1.367 J-3.759 F240
X0.566 I-17.599 J10.514
X1.717 Y51.923 I3.434 J2.052
X5.367 Y52.397 I2.283 J-3.285
X5.944 Y51.852 I-0.342 J-0.94
G3 X30.386 I12.221 J5.248
G2 X30.963 Y52.397 I0.919 J-0.395
G3 X31.082 Y52.653 I-0.068 J0.188 F480
G1 X31.014 Y52.841
X30.996 Y52.89 Z-2.993
X30.98 Y52.935 Z-2.973
X30.966 Y52.974 Z-2.941
X30.955 Y53.004 Z-2.9
X30.948 Y53.023 Z-2.852
X30.946 Y53.029 Z-2.8
X30.57 Y52.893
Z-3.8 F60
X30.572 Y52.886 Z-3.852
X30.579 Y52.867 Z-3.9
X30.59 Y52.837 Z-3.941
X30.604 Y52.799 Z-3.973
X30.62 Y52.753 Z-3.993
X30.638 Y52.705 Z-4
X30.706 Y52.517 F120
G3 X30.963 Y52.397 I0.188 J0.068
G2 X35.763 Y46.586 I1.367 J-3.759 F240
X0.566 I-17.599 J10.514
X1.717 Y51.923 I3.434 J2.052
X5.367 Y52.397 I2.283 J-3.285
X5.944 Y51.852 I-0.342 J-0.94
G3 X30.386 I12.221 J5.248
G2 X30.963 Y52.397 I0.919 J-0.395
G3 X31.082 Y52.653 I-0.068 J0.188 F480
G1 X31.014 Y52.841
X30.996 Y52.89 Z-3.993
X30.98 Y52.935 Z-3.973
X30.966 Y52.974 Z-3.941
X30.955 Y53.004 Z-3.9
X30.948 Y53.023 Z-3.852
X30.946 Y53.029 Z-3.8
X30.57 Y52.893
Z-4.38 F60
X30.572 Y52.886 Z-4.432
X30.579 Y52.867 Z-4.48
X30.59 Y52.837 Z-4.521
X30.604 Y52.799 Z-4.553
X30.62 Y52.753 Z-4.573
X30.638 Y52.705 Z-4.58
X30.706 Y52.517 F120
G3 X30.963 Y52.397 I0.188 J0.068
G2 X35.763 Y46.586 I1.367 J-3.759 F240
X0.566 I-17.599 J10.514
X1.717 Y51.923 I3.434 J2.052
X5.367 Y52.397 I2.283 J-3.285
X5.944 Y51.852 I-0.342 J-0.94
G3 X30.386 I12.221 J5.248
G2 X30.963 Y52.397 I0.919 J-0.395
G3 X31.082 Y52.653 I-0.068 J0.188 F480
G1 X31.014 Y52.841
X30.996 Y52.89 Z-4.573
X30.98 Y52.935 Z-4.553
X30.966 Y52.974 Z-4.521
X30.955 Y53.004 Z-4.48
X30.948 Y53.023 Z-4.432
X30.946 Y53.029 Z-4.38
G0 Z15

M9
M30
