(CAMERA-COVER)
(T11  D=2 CR=0 - ZMIN=-2 - FLAT END MILL)
G90 G94 G91.1 G40 G49 G17
G21

(OUTER CONTOUR)
M5
M9
T11 M6
(DIAMOND OR SPIRAL)
S16000 M3
G54
M8
G0 X28.973 Y36.151
G43 Z15 H1
Z2
G1 Z-0.8 F120
X28.975 Y36.144 Z-0.852
X28.979 Y36.125 Z-0.9
X28.986 Y36.094 Z-0.941
X28.996 Y36.053 Z-0.973
X29.007 Y36.006 Z-0.993
X29.019 Y35.956 Z-1
X29.064 Y35.761
G3 X29.304 Y35.612 I0.195 J0.046
G2 X35.75 Y30.5 I1.196 J-5.112 F240
X34.716 Y22.617 I-30.57 J0
G3 Y7.883 I27.604 J-7.367
G2 X35.75 Y0 I-29.536 J-7.883
X30.5 Y-5.25 I-5.25 J0
X22.617 Y-4.216 I0 J30.57
G3 X7.883 I-7.367 J-27.604
G2 X0 Y-5.25 I-7.883 J29.536
X-5.25 Y0 I0 J5.25
X-4.216 Y7.883 I30.57 J0
G3 Y22.617 I-27.604 J7.367
G2 X-5.25 Y30.5 I29.536 J7.883
X4.761 Y32.712 I5.25 J0
G1 X8.902 Y23.8
G3 X21.598 I6.348 J2.95
G1 X25.739 Y32.712
G2 X29.304 Y35.612 I4.761 J-2.212
G3 X29.454 Y35.852 I-0.046 J0.195 F480
G1 X29.408 Y36.047
X29.396 Y36.097 Z-0.993
X29.385 Y36.144 Z-0.973
X29.376 Y36.185 Z-0.941
X29.369 Y36.216 Z-0.9
X29.364 Y36.235 Z-0.852
X29.362 Y36.242 Z-0.8
G0 Z5
X28.973 Y36.151
Z1
G1 Z-1.8 F120
X28.975 Y36.144 Z-1.852
X28.979 Y36.125 Z-1.9
X28.986 Y36.094 Z-1.941
X28.996 Y36.053 Z-1.973
X29.007 Y36.006 Z-1.993
X29.019 Y35.956 Z-2
X29.064 Y35.761
G3 X29.304 Y35.612 I0.195 J0.046
G2 X35.75 Y30.5 I1.196 J-5.112 F240
X34.716 Y22.617 I-30.57 J0
G3 Y7.883 I27.604 J-7.367
G2 X35.75 Y0 I-29.536 J-7.883
X30.5 Y-5.25 I-5.25 J0
X22.617 Y-4.216 I0 J30.57
G3 X7.883 I-7.367 J-27.604
G2 X0 Y-5.25 I-7.883 J29.536
X-5.25 Y0 I0 J5.25
X-4.216 Y7.883 I30.57 J0
G3 Y22.617 I-27.604 J7.367
G2 X-5.25 Y30.5 I29.536 J7.883
X4.761 Y32.712 I5.25 J0
G1 X8.902 Y23.8
G3 X21.598 I6.348 J2.95
G1 X25.739 Y32.712
G2 X29.304 Y35.612 I4.761 J-2.212
G3 X29.454 Y35.852 I-0.046 J0.195 F480
G1 X29.408 Y36.047
X29.396 Y36.097 Z-1.993
X29.385 Y36.144 Z-1.973
X29.376 Y36.185 Z-1.941
X29.369 Y36.216 Z-1.9
X29.364 Y36.235 Z-1.852
X29.362 Y36.242 Z-1.8
G0 Z15

M9
M30
