(CAMERA-COVER)
(T11  D=2 CR=0 - ZMIN=-2 - FLAT END MILL)
G90 G94 G91.1 G40 G49 G17
G21

(NAME SLOTS)
M5
M9
T11 M6
(DIAMOND OR SPIRAL)
S16000 M3
G54
M8
G0 X23.75 Y10.527
G43 Z15 H1
Z2.5
G1 Z0.5 F120
Y12.5 Z0.327
G2 X28.75 Z-0.36 I2.5 J0
G1 Y7.5 Z-0.797
G2 X27.75 Y5.5 Z-1 I-2.5 J0
G3 X28.75 Y7.5 I-1.5 J2 F240
G1 Y12.5
G3 X23.75 I-2.5 J0
G1 Y7.5
G3 X24.75 Y5.5 I2.5 J0
G2 X23.75 Y7.5 Z-1.103 I1.5 J2 F120
G1 Y12.5 Z-1.325
G2 X28.75 Z-1.675 I2.5 J0
G1 Y7.5 Z-1.897
G2 X27.75 Y5.5 Z-2 I-2.5 J0
G3 X28.75 Y7.5 I-1.5 J2 F240
G1 Y12.5
G3 X23.75 I-2.5 J0
G1 Y7.5
G3 X24.75 Y5.5 I2.5 J0
G0 Z5
X10.75 Y15
Z1
G1 Z0.5 F120
Y5 Z-0.25
Y15 Z-1
Y5 F240
Y15 Z-1.5 F120
Y5 Z-2
Y15 F240
G0 Z5
X6.135 Y10.858
Z2.5
G1 Z0.5 F120
G3 X2.365 Y14.142 Z-0.187 I-1.885 J1.642
X1.75 Y12.5 Z-0.344 I1.885 J-1.642
G1 Y5 Z-1
Y12.5 F240
G2 X6.75 I2.5 J0
X4.75 Y10.051 I-2.5 J0
G3 X3.75 Y14.949 Z-1.418 I-0.5 J2.449 F120
X1.75 Y12.5 Z-1.601 I0.5 J-2.449
G1 Y5 Z-2
Y12.5 F240
G2 X6.75 I2.5 J0
X4.75 Y10.051 I-2.5 J0
G0 Z15

M9
M30
