(CAMERA-COVER)
(T11  D=2 CR=0 - ZMIN=-2 - FLAT END MILL)
G90 G94 G91.1 G40 G49 G17
G21

(SCREW HOLES)
M5
M9
T11 M6
(DIAMOND OR SPIRAL)
S16000 M3
G54
M8
G0 X30.5 Y29.9
G43 Z15 H1
Z1
G1 Z-2 F120
G3 Y31.1 I0 J0.6 F240
Y29.9 I0 J-0.6
G1 Y30.28 Z-1.962 F480
G0 Z5
Y-0.6
Z1
G1 Z-2 F120
G3 Y0.6 I0 J0.6 F240
Y-0.6 I0 J-0.6
G1 Y-0.22 Z-1.962 F480
G0 Z5
X0 Y-0.6
Z1
G1 Z-2 F120
G3 Y0.6 I0 J0.6 F240
Y-0.6 I0 J-0.6
G1 Y-0.22 Z-1.962 F480
G0 Z5
X-0.48 Y30.86
Z1
G1 Z-2 F120
G3 X0.48 Y30.14 I0.48 J-0.36 F240
X-0.48 Y30.86 I-0.48 J0.36
G1 X-0.176 Y30.632 Z-1.962 F480
G0 Z15

M9
M30
