(CAMERA-COVER)
(T11  D=2 CR=0 - ZMIN=-2 - FLAT END MILL)
G90 G94 G91.1 G40 G49 G17
G21

(NAME CONTOUR)
M5
M9
T11 M6
(DIAMOND OR SPIRAL)
S16000 M3
G54
M8
G0 X17.241 Y10
G43 Z15 H1
Z2
G1 Z-1 F120
X17.25 F240
X17.259
G0 Z5
X18.75 Y14.5
Z2
G1 Z-1 F120
G2 X17.259 Y10 I-1.5 J-2 F240
X18.75 Y5.5 I-0.009 J-2.5
G0 Z5
X15.75
Z2
G1 Z-1 F120
G2 X17.241 Y10 I1.5 J2 F240
X15.75 Y14.5 I0.009 J2.5
G0 Z5
X18.75
Z2
G1 Z1 F120
Z-2
G2 X17.259 Y10 I-1.5 J-2 F240
X18.75 Y5.5 I-0.009 J-2.5
G0 Z5
X15.75
Z2
G1 Z1 F120
Z-2
G2 X17.241 Y10 I1.5 J2 F240
X15.75 Y14.5 I0.009 J2.5
G0 Z5
X17.241 Y10
Z2
G1 Z1 F120
Z-2
X17.25 F240
X17.259
G0 Z15

M9
M30
