(BATTERY-HOLDER)
(T28  D=6 CR=0 TAPER=45DEG - ZMIN=-3.3 - CHAMFER MILL)
G90 G94 G91.1 G40 G49 G17
G21

(BATTERY HOLDER CHAMFERS)
M5
M9
T28 M6
(4 FLUTE FISH)
S14000 M3
G54
M8
G0 X166.05 Y7.25
G43 Z15 H26
Z5
G98 G73 X166.05 Y7.25 Z-3.3 R0.7 Q0.5 F40
X148.05
X117.55
Y37.75
X148.05
X166.05
G80
Z15

M9
M30
