(BATTERY-HOLDER)
(T11  D=2 CR=0 - ZMIN=-2 - FLAT END MILL)
G90 G94 G91.1 G40 G49 G17
G21

(BATTERY HOLDER COUNTERSINK HOLES)
M5
M9
T11 M6
(DIAMOND OR SPIRAL)
S16000 M3
G54
M8
G0 X148.41 Y38.23
G43 Z15 H1
Z0.3
G1 Z-0.7 F60
Z-2
G3 X147.69 Y37.27 I-0.36 J-0.48 F240
X148.41 Y38.23 I0.36 J0.48
G1 X148.182 Y37.926 Z-1.962 F480
G0 Z5
X166.65 Y37.75
Z0.3
G1 Z-0.7 F60
Z-2
G3 X165.45 I-0.6 J0 F240
X166.65 I0.6 J0
G1 X166.27 Z-1.962 F480
G0 Z5
X166.41 Y7.73
Z0.3
G1 Z-0.7 F60
Z-2
G3 X165.69 Y6.77 I-0.36 J-0.48 F240
X166.41 Y7.73 I0.36 J0.48
G1 X166.182 Y7.426 Z-1.962 F480
G0 Z5
X147.45 Y7.25
Z0.3
G1 Z-0.7 F60
Z-2
G3 X148.65 I0.6 J0 F240
X147.45 I-0.6 J0
G1 X147.83 Z-1.962 F480
G0 Z5
X117.91 Y6.77
Z0.3
G1 Z-0.7 F60
Z-2
G3 X117.19 Y7.73 I-0.36 J0.48 F240
X117.91 Y6.77 I0.36 J-0.48
G1 X117.682 Y7.074 Z-1.962 F480
G0 Z5
X117.91 Y37.27
Z0.3
G1 Z-0.7 F60
Z-2
G3 X117.19 Y38.23 I-0.36 J0.48 F240
X117.91 Y37.27 I0.36 J-0.48
G1 X117.682 Y37.574 Z-1.962 F480
G0 Z15

(BATTERY HOLDER OUTLINE CONTOUR )
M8
G0 X106.5 Y43.6
Z15
Z2
G1 Z-0.8 F60
Y43.593 Z-0.852
Y43.573 Z-0.9
Y43.541 Z-0.941
Y43.5 Z-0.973
Y43.452 Z-0.993
Y43.4 Z-1
Y43.2 F120
G3 X106.7 Y43 I0.2 J0
G1 X122.55 F240
G2 X123.55 Y42 I0 J-1
G1 Y41
X142.05
Y42
G2 X143.05 Y43 I1 J0
G1 X161.686
X166.593 Y47.907
G2 X167.3 Y48.2 I0.707 J-0.707
G1 X174.8
G2 X175.8 Y47.2 I0 J-1
G1 Y30.45
G2 X174.8 Y29.45 I-1 J0
G1 X173
Y7
G2 X168 Y2 I-5 J0
G1 X143.05
G2 X142.05 Y3 I0 J1
G1 Y4
X123.55
Y3
G2 X122.55 Y2 I-1 J0
G1 X106.7
G2 X105.7 Y3 I0 J1
G1 Y6.2
G2 X106.7 Y7.2 I1 J0
G1 X107.3
Y37.8
X106.7
G2 X105.7 Y38.8 I0 J1
G1 Y42
G2 X106.7 Y43 I1 J0
G3 X106.9 Y43.2 I0 J0.2 F480
G1 Y43.4
Y43.452 Z-0.993
Y43.5 Z-0.973
Y43.541 Z-0.941
Y43.573 Z-0.9
Y43.593 Z-0.852
Y43.6 Z-0.8
G0 Z5
X106.5
Z1
G1 Z-1.8 F60
Y43.593 Z-1.852
Y43.573 Z-1.9
Y43.541 Z-1.941
Y43.5 Z-1.973
Y43.452 Z-1.993
Y43.4 Z-2
Y43.2 F120
G3 X106.7 Y43 I0.2 J0
G1 X122.55 F240
G2 X123.55 Y42 I0 J-1
G1 Y41
X142.05
Y42
G2 X143.05 Y43 I1 J0
G1 X161.686
X166.593 Y47.907
G2 X167.3 Y48.2 I0.707 J-0.707
G1 X174.8
G2 X175.8 Y47.2 I0 J-1
G1 Y30.45
G2 X174.8 Y29.45 I-1 J0
G1 X173
Y7
G2 X168 Y2 I-5 J0
G1 X143.05
G2 X142.05 Y3 I0 J1
G1 Y4
X123.55
Y3
G2 X122.55 Y2 I-1 J0
G1 X106.7
G2 X105.7 Y3 I0 J1
G1 Y6.2
G2 X106.7 Y7.2 I1 J0
G1 X107.3
Y37.8
X106.7
G2 X105.7 Y38.8 I0 J1
G1 Y42
G2 X106.7 Y43 I1 J0
G3 X106.9 Y43.2 I0 J0.2 F480
G1 Y43.4
Y43.452 Z-1.993
Y43.5 Z-1.973
Y43.541 Z-1.941
Y43.573 Z-1.9
Y43.593 Z-1.852
Y43.6 Z-1.8
G0 Z15

M9
M30
