(MOTOR-PROTECTORS)
(T11  D=2 CR=0 - ZMIN=-4.58 - FLAT END MILL)
G90 G94 G91.1 G40 G49 G17
G21

(NUT POCKETS)
M5
M9
T11 M6
(DIAMOND OR SPIRAL)
S16000 M3
G54
M8
G0 X34.322 Y14.329
G43 Z15 H1
Z2
G1 Z-0.8 F60
G3 X34.296 Y14.336 Z-0.9 I-0.07 J-0.187
X34.223 Y14.339 Z-0.973 I-0.044 J-0.195
X34.132 Y14.301 Z-1 I0.029 J-0.198
X34.527 Y13.774 I0.198 J-0.264 F240
X34.132 Y14.301 I-0.198 J0.264
G2 X33.533 Y14.248 I-0.343 J0.457
G3 X33.143 Y13.789 I-0.139 J-0.277
G2 X33.208 Y13.688 I-0.809 J-0.588
G1 X33.443 Y13.267
G2 X33.569 Y12.765 I-0.873 J-0.487
X34.071 Y12.891 I0.487 J-0.873
G1 X34.554 Y12.884
G2 X35.052 Y12.743 I-0.015 J-1
X35.193 Y13.241 I1 J-0.015
G1 X35.441 Y13.655
G2 X35.812 Y14.016 I0.858 J-0.513
X35.452 Y14.387 I0.513 J0.858
G1 X35.216 Y14.809
G2 X35.09 Y15.311 I0.873 J0.487
X34.588 Y15.184 I-0.487 J0.873
G1 X34.105 Y15.191
G2 X33.608 Y15.333 I0.015 J1
X33.466 Y14.835 I-1 J0.015
G1 X33.219 Y14.42
G2 X32.847 Y14.06 I-0.858 J0.513
X33.143 Y13.789 I-0.513 J-0.859
G3 X33.353 Y13.713 I0.162 J0.118
G1 X34.3 Y13.947
G3 X34.322 Y14.329 I-0.048 J0.194
G1 Z-1.8 F60
G3 X34.296 Y14.336 Z-1.9 I-0.07 J-0.187
X34.223 Y14.339 Z-1.973 I-0.044 J-0.195
X34.132 Y14.301 Z-2 I0.029 J-0.198
X34.527 Y13.774 I0.198 J-0.264 F240
X34.132 Y14.301 I-0.198 J0.264
G2 X33.533 Y14.248 I-0.343 J0.457
G3 X33.143 Y13.789 I-0.139 J-0.277
G2 X33.208 Y13.688 I-0.809 J-0.588
G1 X33.443 Y13.267
G2 X33.569 Y12.765 I-0.873 J-0.487
X34.071 Y12.891 I0.487 J-0.873
G1 X34.554 Y12.884
G2 X35.052 Y12.743 I-0.015 J-1
X35.193 Y13.241 I1 J-0.015
G1 X35.441 Y13.655
G2 X35.812 Y14.016 I0.858 J-0.513
X35.452 Y14.387 I0.513 J0.858
G1 X35.216 Y14.809
G2 X35.09 Y15.311 I0.873 J0.487
X34.588 Y15.184 I-0.487 J0.873
G1 X34.105 Y15.191
G2 X33.608 Y15.333 I0.015 J1
X33.466 Y14.835 I-1 J0.015
G1 X33.219 Y14.42
G2 X32.847 Y14.06 I-0.858 J0.513
X33.143 Y13.789 I-0.513 J-0.859
G3 X33.353 Y13.713 I0.162 J0.118
G1 X34.3 Y13.947
G3 X34.322 Y14.329 I-0.048 J0.194
G1 Z-2.7 F60
G3 X34.296 Y14.336 Z-2.8 I-0.07 J-0.187
X34.223 Y14.339 Z-2.873 I-0.044 J-0.195
X34.132 Y14.301 Z-2.9 I0.029 J-0.198
X34.527 Y13.774 I0.198 J-0.264 F240
X34.132 Y14.301 I-0.198 J0.264
G2 X33.533 Y14.248 I-0.343 J0.457
G3 X33.143 Y13.789 I-0.139 J-0.277
G2 X33.208 Y13.688 I-0.809 J-0.588
G1 X33.443 Y13.267
G2 X33.569 Y12.765 I-0.873 J-0.487
X34.071 Y12.891 I0.487 J-0.873
G1 X34.554 Y12.884
G2 X35.052 Y12.743 I-0.015 J-1
X35.193 Y13.241 I1 J-0.015
G1 X35.441 Y13.655
G2 X35.812 Y14.016 I0.858 J-0.513
X35.452 Y14.387 I0.513 J0.858
G1 X35.216 Y14.809
G2 X35.09 Y15.311 I0.873 J0.487
X34.588 Y15.184 I-0.487 J0.873
G1 X34.105 Y15.191
G2 X33.608 Y15.333 I0.015 J1
X33.466 Y14.835 I-1 J0.015
G1 X33.219 Y14.42
G2 X32.847 Y14.06 I-0.858 J0.513
X33.143 Y13.789 I-0.513 J-0.859
G3 X33.219 Y13.726 Z-2.873 I0.162 J0.118 F480
X33.29 Y13.708 Z-2.8 I0.086 J0.181
X33.316 Y13.707 Z-2.7 I0.015 J0.199
G0 Z5
X20.402 Y5.832
Z2
G1 Z-0.8 F60
G3 X20.424 Y5.848 Z-0.9 I-0.108 J0.168
X20.47 Y5.904 Z-0.973 I-0.13 J0.152
X20.494 Y6 Z-1 I-0.176 J0.096
X19.835 I-0.329 J0 F240
X20.494 I0.329 J0
G2 X20.712 Y6.587 I0.898 J0
G3 X20.442 Y7.151 I-0.259 J0.223
G2 X20.406 Y7.15 I-0.035 J0.999
G1 X19.924
G2 X19.424 Y7.284 I0 J1
X19.29 Y6.784 I-1 J0
G1 X19.048 Y6.366
G2 X18.682 Y6 I-0.866 J0.5
X19.048 Y5.634 I-0.5 J-0.866
G1 X19.29 Y5.216
G2 X19.424 Y4.716 I-0.866 J-0.5
X19.924 Y4.85 I0.5 J-0.866
G1 X20.406
G2 X20.906 Y4.716 I0 J-1
X21.04 Y5.216 I1 J0
G1 X21.281 Y5.634
G2 X21.647 Y6 I0.866 J-0.5
X21.281 Y6.366 I0.5 J0.866
G1 X21.04 Y6.784
G2 X20.906 Y7.284 I0.866 J0.5
X20.442 Y7.151 I-0.5 J0.866
G3 X20.251 Y6.983 I0.007 J-0.2
G1 X20.097 Y6.032
G3 X20.402 Y5.832 I0.197 J-0.032
G1 Z-1.8 F60
G3 X20.424 Y5.848 Z-1.9 I-0.108 J0.168
X20.47 Y5.904 Z-1.973 I-0.13 J0.152
X20.494 Y6 Z-2 I-0.176 J0.096
X19.835 I-0.329 J0 F240
X20.494 I0.329 J0
G2 X20.712 Y6.587 I0.898 J0
G3 X20.442 Y7.151 I-0.259 J0.223
G2 X20.406 Y7.15 I-0.035 J0.999
G1 X19.924
G2 X19.424 Y7.284 I0 J1
X19.29 Y6.784 I-1 J0
G1 X19.048 Y6.366
G2 X18.682 Y6 I-0.866 J0.5
X19.048 Y5.634 I-0.5 J-0.866
G1 X19.29 Y5.216
G2 X19.424 Y4.716 I-0.866 J-0.5
X19.924 Y4.85 I0.5 J-0.866
G1 X20.406
G2 X20.906 Y4.716 I0 J-1
X21.04 Y5.216 I1 J0
G1 X21.281 Y5.634
G2 X21.647 Y6 I0.866 J-0.5
X21.281 Y6.366 I0.5 J0.866
G1 X21.04 Y6.784
G2 X20.906 Y7.284 I0.866 J0.5
X20.442 Y7.151 I-0.5 J0.866
G3 X20.251 Y6.983 I0.007 J-0.2
G1 X20.097 Y6.032
G3 X20.402 Y5.832 I0.197 J-0.032
G1 Z-2.7 F60
G3 X20.424 Y5.848 Z-2.8 I-0.108 J0.168
X20.47 Y5.904 Z-2.873 I-0.13 J0.152
X20.494 Y6 Z-2.9 I-0.176 J0.096
X19.835 I-0.329 J0 F240
X20.494 I0.329 J0
G2 X20.712 Y6.587 I0.898 J0
G3 X20.442 Y7.151 I-0.259 J0.223
G2 X20.406 Y7.15 I-0.035 J0.999
G1 X19.924
G2 X19.424 Y7.284 I0 J1
X19.29 Y6.784 I-1 J0
G1 X19.048 Y6.366
G2 X18.682 Y6 I-0.866 J0.5
X19.048 Y5.634 I-0.5 J-0.866
G1 X19.29 Y5.216
G2 X19.424 Y4.716 I-0.866 J-0.5
X19.924 Y4.85 I0.5 J-0.866
G1 X20.406
G2 X20.906 Y4.716 I0 J-1
X21.04 Y5.216 I1 J0
G1 X21.281 Y5.634
G2 X21.647 Y6 I0.866 J-0.5
X21.281 Y6.366 I0.5 J0.866
G1 X21.04 Y6.784
G2 X20.906 Y7.284 I0.866 J0.5
X20.442 Y7.151 I-0.5 J0.866
G3 X20.347 Y7.123 Z-2.873 I0.007 J-0.2 F480
X20.292 Y7.075 Z-2.8 I0.102 J-0.172
X20.277 Y7.053 Z-2.7 I0.157 J-0.124
G0 Z5
X5.992 Y14.329
Z2
G1 Z-0.8 F60
G3 X5.966 Y14.336 Z-0.9 I-0.07 J-0.187
X5.894 Y14.339 Z-0.973 I-0.044 J-0.195
X5.802 Y14.301 Z-1 I0.029 J-0.198
X6.198 Y13.774 I0.198 J-0.264 F240
X5.802 Y14.301 I-0.198 J0.264
G2 X5.198 Y14.23 I-0.363 J0.485
G3 X4.824 Y13.751 I-0.125 J-0.288
G2 X4.889 Y13.655 I-0.794 J-0.608
G1 X5.137 Y13.241
G2 X5.278 Y12.743 I-0.858 J-0.513
X5.776 Y12.884 I0.513 J-0.859
G1 X6.258 Y12.891
G2 X6.76 Y12.765 I0.015 J-1
X6.887 Y13.267 I1 J0.015
G1 X7.122 Y13.688
G2 X7.482 Y14.06 I0.873 J-0.487
X7.111 Y14.42 I0.487 J0.873
G1 X6.863 Y14.835
G2 X6.722 Y15.333 I0.858 J0.513
X6.224 Y15.191 I-0.513 J0.859
G1 X5.742 Y15.184
G2 X5.24 Y15.311 I-0.015 J1
X5.113 Y14.809 I-1 J-0.015
G1 X4.878 Y14.387
G2 X4.518 Y14.016 I-0.873 J0.487
X4.824 Y13.751 I-0.487 J-0.873
G3 X5.038 Y13.68 I0.159 J0.122
G1 X5.977 Y13.949
G3 X5.992 Y14.329 I-0.055 J0.192
G1 Z-1.8 F60
G3 X5.966 Y14.336 Z-1.9 I-0.07 J-0.187
X5.894 Y14.339 Z-1.973 I-0.044 J-0.195
X5.802 Y14.301 Z-2 I0.029 J-0.198
X6.198 Y13.774 I0.198 J-0.264 F240
X5.802 Y14.301 I-0.198 J0.264
G2 X5.198 Y14.23 I-0.363 J0.485
G3 X4.824 Y13.751 I-0.125 J-0.288
G2 X4.889 Y13.655 I-0.794 J-0.608
G1 X5.137 Y13.241
G2 X5.278 Y12.743 I-0.858 J-0.513
X5.776 Y12.884 I0.513 J-0.859
G1 X6.258 Y12.891
G2 X6.76 Y12.765 I0.015 J-1
X6.887 Y13.267 I1 J0.015
G1 X7.122 Y13.688
G2 X7.482 Y14.06 I0.873 J-0.487
X7.111 Y14.42 I0.487 J0.873
G1 X6.863 Y14.835
G2 X6.722 Y15.333 I0.858 J0.513
X6.224 Y15.191 I-0.513 J0.859
G1 X5.742 Y15.184
G2 X5.24 Y15.311 I-0.015 J1
X5.113 Y14.809 I-1 J-0.015
G1 X4.878 Y14.387
G2 X4.518 Y14.016 I-0.873 J0.487
X4.824 Y13.751 I-0.487 J-0.873
G3 X5.038 Y13.68 I0.159 J0.122
G1 X5.977 Y13.949
G3 X5.992 Y14.329 I-0.055 J0.192
G1 Z-2.7 F60
G3 X5.966 Y14.336 Z-2.8 I-0.07 J-0.187
X5.894 Y14.339 Z-2.873 I-0.044 J-0.195
X5.802 Y14.301 Z-2.9 I0.029 J-0.198
X6.198 Y13.774 I0.198 J-0.264 F240
X5.802 Y14.301 I-0.198 J0.264
G2 X5.198 Y14.23 I-0.363 J0.485
G3 X4.824 Y13.751 I-0.125 J-0.288
G2 X4.889 Y13.655 I-0.794 J-0.608
G1 X5.137 Y13.241
G2 X5.278 Y12.743 I-0.858 J-0.513
X5.776 Y12.884 I0.513 J-0.859
G1 X6.258 Y12.891
G2 X6.76 Y12.765 I0.015 J-1
X6.887 Y13.267 I1 J0.015
G1 X7.122 Y13.688
G2 X7.482 Y14.06 I0.873 J-0.487
X7.111 Y14.42 I0.487 J0.873
G1 X6.863 Y14.835
G2 X6.722 Y15.333 I0.858 J0.513
X6.224 Y15.191 I-0.513 J0.859
G1 X5.742 Y15.184
G2 X5.24 Y15.311 I-0.015 J1
X5.113 Y14.809 I-1 J-0.015
G1 X4.878 Y14.387
G2 X4.518 Y14.016 I-0.873 J0.487
X4.824 Y13.751 I-0.487 J-0.873
G3 X4.902 Y13.689 Z-2.873 I0.159 J0.122 F480
X4.973 Y13.672 Z-2.8 I0.081 J0.183
X5 Y13.673 Z-2.7 I0.01 J0.2
G0 Z15

(SCREW HOLES)
M8
G0 X34.453 Y14.367
Z15
Z2
G1 Z-0.9 F60
Z-3.7
G3 X34.434 Y14.386 Z-3.8 I-0.151 J-0.131
X34.371 Y14.423 Z-3.873 I-0.133 J-0.15
X34.273 Y14.434 Z-3.9 I-0.07 J-0.187
X34.386 Y13.642 I0.057 J-0.396 F240
X34.273 Y14.434 I-0.057 J0.396
X34.263 Y14.341 I0.007 J-0.047
G1 X34.4 Y14.29
G3 X34.453 Y14.367 I0.017 J0.045
G1 Z-4.38 F60
G3 X34.434 Y14.386 Z-4.48 I-0.151 J-0.131
X34.371 Y14.423 Z-4.553 I-0.133 J-0.15
X34.273 Y14.434 Z-4.58 I-0.07 J-0.187
X34.386 Y13.642 I0.057 J-0.396 F240
X34.273 Y14.434 I-0.057 J0.396
X34.182 Y14.396 Z-4.553 I0.028 J-0.198 F480
X34.132 Y14.343 Z-4.48 I0.12 J-0.16
X34.119 Y14.319 Z-4.38 I0.169 J-0.107
G0 Z5
X19.828 Y5.901
Z2
G1 Z-0.9 F60
Z-3.7
G3 X19.824 Y5.875 Z-3.8 I0.195 J-0.043
X19.831 Y5.802 Z-3.873 I0.199 J-0.016
X19.882 Y5.717 Z-3.9 I0.192 J0.056
X20.448 Y6.283 I0.283 J0.283 F240
X19.882 Y5.717 I-0.283 J-0.283
X19.962 Y5.765 I0.034 J0.034
G1 X19.921 Y5.904
G3 X19.828 Y5.901 I-0.046 J-0.013
G1 Z-4.38 F60
G3 X19.824 Y5.875 Z-4.48 I0.195 J-0.043
X19.831 Y5.802 Z-4.553 I0.199 J-0.016
X19.882 Y5.717 Z-4.58 I0.192 J0.056
X20.448 Y6.283 I0.283 J0.283 F240
X19.882 Y5.717 I-0.283 J-0.283
X19.967 Y5.667 Z-4.553 I0.141 J0.141 F480
X20.039 Y5.659 Z-4.48 I0.056 J0.192
X20.066 Y5.663 Z-4.38 I-0.016 J0.199
G0 Z5
X5.663 Y13.939
Z2
G1 Z-0.9 F60
Z-3.7
G3 X5.659 Y13.913 Z-3.8 I0.195 J-0.043
X5.667 Y13.84 Z-3.873 I0.199 J-0.016
X5.717 Y13.755 Z-3.9 I0.192 J0.056
X6.283 Y14.321 I0.283 J0.283 F240
X5.717 Y13.755 I-0.283 J-0.283
X5.797 Y13.802 I0.034 J0.034
G1 X5.756 Y13.942
G3 X5.663 Y13.939 I-0.046 J-0.013
G1 Z-4.38 F60
G3 X5.659 Y13.913 Z-4.48 I0.195 J-0.043
X5.667 Y13.84 Z-4.553 I0.199 J-0.016
X5.717 Y13.755 Z-4.58 I0.192 J0.056
X6.283 Y14.321 I0.283 J0.283 F240
X5.717 Y13.755 I-0.283 J-0.283
X5.802 Y13.704 Z-4.553 I0.141 J0.141 F480
X5.875 Y13.697 Z-4.48 I0.056 J0.192
X5.901 Y13.701 Z-4.38 I-0.016 J0.199
G0 Z15

(CUTOUTS)
M8
G0 X9.234 Y17.284
Z15
Z2
G1 Z-0.8 F60
X9.228 Y17.281 Z-0.852
X9.21 Y17.271 Z-0.9
X9.182 Y17.256 Z-0.941
X9.146 Y17.235 Z-0.973
X9.104 Y17.212 Z-0.993
X9.059 Y17.187 Z-1
X8.884 Y17.09 F120
G3 X8.806 Y16.818 I0.097 J-0.175
G2 X8.824 Y16.784 I-0.875 J-0.484 F240
G3 X31.506 I11.341 J5.716
G2 X31.755 Y17.099 I0.893 J-0.45
X37.763 Y11.986 I2.575 J-3.061
X2.566 I-17.599 J10.514
X2.487 Y15.951 I3.434 J2.052
X8.575 Y17.099 I3.513 J-1.913
X8.806 Y16.818 I-0.644 J-0.765
G3 X9.078 Y16.74 I0.175 J0.097 F480
G1 X9.253 Y16.837
X9.298 Y16.862 Z-0.993
X9.34 Y16.886 Z-0.973
X9.376 Y16.906 Z-0.941
X9.404 Y16.921 Z-0.9
X9.422 Y16.931 Z-0.852
X9.427 Y16.934 Z-0.8
X9.234 Y17.284
Z-1.8 F60
X9.228 Y17.281 Z-1.852
X9.21 Y17.271 Z-1.9
X9.182 Y17.256 Z-1.941
X9.146 Y17.235 Z-1.973
X9.104 Y17.212 Z-1.993
X9.059 Y17.187 Z-2
X8.884 Y17.09 F120
G3 X8.806 Y16.818 I0.097 J-0.175
G2 X8.824 Y16.784 I-0.875 J-0.484 F240
G3 X31.506 I11.341 J5.716
G2 X31.755 Y17.099 I0.893 J-0.45
X37.763 Y11.986 I2.575 J-3.061
X2.566 I-17.599 J10.514
X2.487 Y15.951 I3.434 J2.052
X8.575 Y17.099 I3.513 J-1.913
X8.806 Y16.818 I-0.644 J-0.765
G3 X9.078 Y16.74 I0.175 J0.097 F480
G1 X9.253 Y16.837
X9.298 Y16.862 Z-1.993
X9.34 Y16.886 Z-1.973
X9.376 Y16.906 Z-1.941
X9.404 Y16.921 Z-1.9
X9.422 Y16.931 Z-1.852
X9.427 Y16.934 Z-1.8
X9.234 Y17.284
Z-2.8 F60
X9.228 Y17.281 Z-2.852
X9.21 Y17.271 Z-2.9
X9.182 Y17.256 Z-2.941
X9.146 Y17.235 Z-2.973
X9.104 Y17.212 Z-2.993
X9.059 Y17.187 Z-3
X8.884 Y17.09 F120
G3 X8.806 Y16.818 I0.097 J-0.175
G2 X8.824 Y16.784 I-0.875 J-0.484 F240
G3 X31.506 I11.341 J5.716
G2 X31.755 Y17.099 I0.893 J-0.45
X37.763 Y11.986 I2.575 J-3.061
X2.566 I-17.599 J10.514
X2.487 Y15.951 I3.434 J2.052
X8.575 Y17.099 I3.513 J-1.913
X8.806 Y16.818 I-0.644 J-0.765
G3 X9.078 Y16.74 I0.175 J0.097 F480
G1 X9.253 Y16.837
X9.298 Y16.862 Z-2.993
X9.34 Y16.886 Z-2.973
X9.376 Y16.906 Z-2.941
X9.404 Y16.921 Z-2.9
X9.422 Y16.931 Z-2.852
X9.427 Y16.934 Z-2.8
X9.234 Y17.284
Z-3.8 F60
X9.228 Y17.281 Z-3.852
X9.21 Y17.271 Z-3.9
X9.182 Y17.256 Z-3.941
X9.146 Y17.235 Z-3.973
X9.104 Y17.212 Z-3.993
X9.059 Y17.187 Z-4
X8.884 Y17.09 F120
G3 X8.806 Y16.818 I0.097 J-0.175
G2 X8.824 Y16.784 I-0.875 J-0.484 F240
G3 X31.506 I11.341 J5.716
G2 X31.755 Y17.099 I0.893 J-0.45
X37.763 Y11.986 I2.575 J-3.061
X2.566 I-17.599 J10.514
X2.487 Y15.951 I3.434 J2.052
X8.575 Y17.099 I3.513 J-1.913
X8.806 Y16.818 I-0.644 J-0.765
G3 X9.078 Y16.74 I0.175 J0.097 F480
G1 X9.253 Y16.837
X9.298 Y16.862 Z-3.993
X9.34 Y16.886 Z-3.973
X9.376 Y16.906 Z-3.941
X9.404 Y16.921 Z-3.9
X9.422 Y16.931 Z-3.852
X9.427 Y16.934 Z-3.8
X9.234 Y17.284
Z-4.38 F60
X9.228 Y17.281 Z-4.432
X9.21 Y17.271 Z-4.48
X9.182 Y17.256 Z-4.521
X9.146 Y17.235 Z-4.553
X9.104 Y17.212 Z-4.573
X9.059 Y17.187 Z-4.58
X8.884 Y17.09 F120
G3 X8.806 Y16.818 I0.097 J-0.175
G2 X8.824 Y16.784 I-0.875 J-0.484 F240
G3 X31.506 I11.341 J5.716
G2 X31.755 Y17.099 I0.893 J-0.45
X37.763 Y11.986 I2.575 J-3.061
X2.566 I-17.599 J10.514
X2.487 Y15.951 I3.434 J2.052
X8.575 Y17.099 I3.513 J-1.913
X8.806 Y16.818 I-0.644 J-0.765
G3 X9.078 Y16.74 I0.175 J0.097 F480
G1 X9.253 Y16.837
X9.298 Y16.862 Z-4.573
X9.34 Y16.886 Z-4.553
X9.376 Y16.906 Z-4.521
X9.404 Y16.921 Z-4.48
X9.422 Y16.931 Z-4.432
X9.427 Y16.934 Z-4.38
G0 Z15

M9
M30
