(LIGHTGUIDE)
(T14  D=2 CR=0 - ZMIN=-1.55 - FLAT END MILL)
G90 G94 G91.1 G40 G49 G17
G21

(FACING)
M5
M9
T14 M6
(SINGLE FLUTE)
S6000 M3
G54
M8
G0 X4.5 Y12.344
G43 Z15 H1
Z5
G1 Z1.5 F180
Z0.7
X4.493 Z0.648
X4.473 Z0.6
X4.441 Z0.559
X4.4 Z0.527
X4.352 Z0.507
X4.3 Z0.5
X4.1 F360
G3 X3.9 Y12.144 I0 J-0.2
G1 Y3 Z-0.3
Y17.324
G3 X3.7 Y17.524 I-0.2 J0
G1 X3.5
X3.448 Z-0.293
X3.4 Z-0.273
X3.359 Z-0.241
X3.327 Z-0.2
X3.307 Z-0.152
X3.3 Z-0.1
G0 Z15

(HOLDER)
M8
G0 X4.092 Y9.993
Z15
Z5
G1 Z1 F180
Z-0.1
G3 X4.07 Y9.977 Z-0.2 I0.108 J-0.168
X4.024 Y9.921 Z-0.273 I0.13 J-0.152
X4 Y9.825 Z-0.3 I0.176 J-0.096
G1 Y8.987 F360
G2 X4.713 Y9.825 I1.9 J-0.894
X4 Y10.663 I1.187 J1.732
G1 Y9.825
G3 X4.024 Y9.729 Z-0.273 I0.2 J0
X4.07 Y9.673 Z-0.2 I0.176 J0.096
X4.092 Y9.657 Z-0.1 I0.13 J0.152
G0 Z15

(OUTLINE)
M8
G0 X6.175 Y2.158
Z15
Z5
G1 Z1.5 F180
Z0.7
X6.17 Y2.162 Z0.648
X6.154 Y2.175 Z0.6
X6.129 Y2.195 Z0.559
X6.097 Y2.22 Z0.527
X6.059 Y2.25 Z0.507
X6.019 Y2.283 Z0.5
X5.863 Y2.408 F360
G3 X5.581 Y2.376 I-0.125 J-0.156
G2 X4.8 Y2 Z0.422 I-0.781 J0.624
G1 X3 Z0.264
G2 X2 Y3 Z0.127 I0 J1
G1 Y10.162 Z-0.5
Y17.324
G2 X3.707 Y18.032 I1 J0
G1 X5.507 Y16.232
G2 X5.8 Y15.524 I-0.707 J-0.707
G1 Y11.557
G3 X5.85 Y11.47 I0.1 J0
G2 Y8.18 I-0.95 J-1.645
G3 X5.8 Y8.093 I0.05 J-0.087
G1 Y3
G2 X4.8 Y2 I-1 J0
G1 X3
G2 X2 Y3 I0 J1
G1 Y10.162
Y16.529 Z-1
Y17.324
G2 X3.707 Y18.032 I1 J0
G1 X5.507 Y16.232
G2 X5.8 Y15.524 I-0.707 J-0.707
G1 Y11.557
G3 X5.85 Y11.47 I0.1 J0
G2 Y8.18 I-0.95 J-1.645
G3 X5.8 Y8.093 I0.05 J-0.087
G1 Y3
G2 X4.8 Y2 I-1 J0
G1 X3
G2 X2 Y3 I0 J1
G1 Y10.162
Y16.529
Y17.324 Z-1.062
G2 X3.707 Y18.032 Z-1.247 I1 J0
G1 X3.955 Y17.784 Z-1.275
X5.507 Y16.232
G2 X5.8 Y15.524 I-0.707 J-0.707
G1 Y11.557
G3 X5.85 Y11.47 I0.1 J0
G2 Y8.18 I-0.95 J-1.645
G3 X5.8 Y8.093 I0.05 J-0.087
G1 Y3
G2 X4.8 Y2 I-1 J0
G1 X3
G2 X2 Y3 I0 J1
G1 Y16.529
Y17.324
G2 X3.707 Y18.032 I1 J0
G1 X3.955 Y17.784
X5.507 Y16.232 Z-1.447
G2 X5.8 Y15.524 Z-1.509 I-0.707 J-0.707
G1 Y15.003 Z-1.55
Y11.557
G3 X5.85 Y11.47 I0.1 J0
G2 Y8.18 I-0.95 J-1.645
G3 X5.8 Y8.093 I0.05 J-0.087
G1 Y3
G2 X4.8 Y2 I-1 J0
G1 X3
G2 X2 Y3 I0 J1
G1 Y17.324
G2 X3.707 Y18.032 I1 J0
G1 X5.507 Y16.232
G2 X5.8 Y15.524 I-0.707 J-0.707
G1 Y15.003
G3 X6 Y14.803 I0.2 J0
G1 X6.2
X6.252 Z-1.543
X6.3 Z-1.523
X6.341 Z-1.491
X6.373 Z-1.45
X6.393 Z-1.402
X6.4 Z-1.35
G0 Z15

M9
M30
