(BATTERY-HOLDER)
(T11  D=2 CR=0 - ZMIN=-2 - FLAT END MILL)
G90 G94 G91.1 G40 G49 G17
G21

(FC COVER COUNTERSINK HOLES)
M5
M9
T11 M6
(DIAMOND OR SPIRAL)
S16000 M3
G54
M8
G0 X98.11 Y7.73
G43 Z15 H1
Z0.3
G1 Z-0.7 F60
Z-2
G3 X97.39 Y6.77 I-0.36 J-0.48 F240
X98.11 Y7.73 I0.36 J0.48
G1 X97.882 Y7.426 Z-1.962 F480
G0 Z5
X98.11 Y37.27
Z0.3
G1 Z-0.7 F60
Z-2
G3 X97.39 Y38.23 I-0.36 J0.48 F240
X98.11 Y37.27 I0.36 J-0.48
G1 X97.882 Y37.574 Z-1.962 F480
G0 Z15

(FC COVER FULL HOLES)
M8
G0 X81.64 Y13.42
Z15
Z2
G1 Z-1 F60
G3 X81.46 Y13.18 I-0.09 J-0.12 F240
X81.64 Y13.42 I0.09 J0.12
G1 Z-2 F60
G3 X81.46 Y13.18 I-0.09 J-0.12 F240
X81.64 Y13.42 I0.09 J0.12
G1 X81.55 Y13.3 Z-1.985 F480
G0 Z5
X80.11 Y6.77
Z2
G1 Z-1 F60
G3 X79.39 Y7.73 I-0.36 J0.48 F240
X80.11 Y6.77 I0.36 J-0.48
G1 Z-2 F60
G3 X79.39 Y7.73 I-0.36 J0.48 F240
X80.11 Y6.77 I0.36 J-0.48
G1 X79.882 Y7.074 Z-1.962 F480
G0 Z5
X91.12 Y19
Z2
G1 Z-1 F60
G3 X91.78 I0.33 J0 F240
X91.12 I-0.33 J0
G1 Z-2 F60
G3 X91.78 I0.33 J0 F240
X91.12 I-0.33 J0
G1 X91.45 Z-1.967 F480
G0 Z5
X79.15 Y37.75
Z2
G1 Z-1 F60
G3 X80.35 I0.6 J0 F240
X79.15 I-0.6 J0
G1 Z-2 F60
G3 X80.35 I0.6 J0 F240
X79.15 I-0.6 J0
G1 X79.53 Z-1.962 F480
G0 Z5
X49.61 Y37.27
Z2
G1 Z-1 F60
G3 X48.89 Y38.23 I-0.36 J0.48 F240
X49.61 Y37.27 I0.36 J-0.48
G1 Z-2 F60
G3 X48.89 Y38.23 I-0.36 J0.48 F240
X49.61 Y37.27 I0.36 J-0.48
G1 X49.382 Y37.574 Z-1.962 F480
G0 Z5
X48.65 Y7.25
Z2
G1 Z-1 F60
G3 X49.85 I0.6 J0 F240
X48.65 I-0.6 J0
G1 Z-2 F60
G3 X49.85 I0.6 J0 F240
X48.65 I-0.6 J0
G1 X49.03 Z-1.962 F480
G0 Z15

(FC COVER INSIDE CONTOUR)
M8
G0 X48.6 Y22.977
Z15
Z2
G1 Z-0.8 F60
X48.594 Z-0.852
X48.574 Z-0.9
X48.542 Z-0.941
X48.5 Z-0.973
X48.452 Z-0.993
X48.4 Z-1
X48.2 F120
G3 X48 Y22.777 I0 J-0.2
G1 Y10.997 F240
G2 X52.924 Y5.8 I1.25 J-3.747
G1 X76.076
G2 X79.233 Y11.166 I3.674 J1.45
X81 Y16.402 I2.317 J2.134
G1 Y34.003
G2 X76.076 Y39.2 I-1.25 J3.747
G1 X52.924
G2 X48 Y34.003 I-3.674 J-1.45
G1 Y22.777
G3 X48.2 Y22.577 I0.2 J0 F480
G1 X48.4
X48.452 Z-0.993
X48.5 Z-0.973
X48.542 Z-0.941
X48.574 Z-0.9
X48.594 Z-0.852
X48.6 Z-0.8
Y22.977
Z-1.8 F60
X48.594 Z-1.852
X48.574 Z-1.9
X48.542 Z-1.941
X48.5 Z-1.973
X48.452 Z-1.993
X48.4 Z-2
X48.2 F120
G3 X48 Y22.777 I0 J-0.2
G1 Y10.997 F240
G2 X52.924 Y5.8 I1.25 J-3.747
G1 X76.076
G2 X79.233 Y11.166 I3.674 J1.45
X81 Y16.402 I2.317 J2.134
G1 Y34.003
G2 X76.076 Y39.2 I-1.25 J3.747
G1 X52.924
G2 X48 Y34.003 I-3.674 J-1.45
G1 Y22.777
G3 X48.2 Y22.577 I0.2 J0 F480
G1 X48.4
X48.452 Z-1.993
X48.5 Z-1.973
X48.542 Z-1.941
X48.574 Z-1.9
X48.594 Z-1.852
X48.6 Z-1.8
G0 Z15

(FC COVER OUTLINE CONTOUR)
M8
G0 X44.8 Y43.6
Z15
Z2
G1 Z-0.8 F60
Y43.593 Z-0.852
Y43.573 Z-0.9
Y43.541 Z-0.941
Y43.5 Z-0.973
Y43.452 Z-0.993
Y43.4 Z-1
Y43.2 F120
G3 X45 Y43 I0.2 J0
G1 X99.7 F240
G2 X104.7 Y38 I0 J-5
G1 Y7
G2 X99.7 Y2 I-5 J0
G1 X45
G2 X44 Y3 I0 J1
G1 Y42
G2 X45 Y43 I1 J0
G3 X45.2 Y43.2 I0 J0.2 F480
G1 Y43.4
Y43.452 Z-0.993
Y43.5 Z-0.973
Y43.541 Z-0.941
Y43.573 Z-0.9
Y43.593 Z-0.852
Y43.6 Z-0.8
X44.8
Z-1.8 F60
Y43.593 Z-1.852
Y43.573 Z-1.9
Y43.541 Z-1.941
Y43.5 Z-1.973
Y43.452 Z-1.993
Y43.4 Z-2
Y43.2 F120
G3 X45 Y43 I0.2 J0
G1 X99.7 F240
G2 X104.7 Y38 I0 J-5
G1 Y7
G2 X99.7 Y2 I-5 J0
G1 X45
G2 X44 Y3 I0 J1
G1 Y42
G2 X45 Y43 I1 J0
G3 X45.2 Y43.2 I0 J0.2 F480
G1 Y43.4
Y43.452 Z-1.993
Y43.5 Z-1.973
Y43.541 Z-1.941
Y43.573 Z-1.9
Y43.593 Z-1.852
Y43.6 Z-1.8
G0 Z15

M9
M30
