(CARBON-1.75MM)
(T11  D=2 CR=0 - ZMIN=-2 - FLAT END MILL)
G90 G94 G91.1 G40 G49 G17
G21

(CAMERA COVER NAME SLOTS)
M5
M9
T11
(DIAMOND OR SPIRAL)
S16000 M3
G54
M8
G0 X107 Y84.75
G43 Z15 H1
Z1
G1 Z0.5 F60
Z-1
G3 X108 Y86.75 I-1.5 J2 F240
G1 Y91.75
G3 X103 I-2.5 J0
G1 Y86.75
G3 X104 Y84.75 I2.5 J0
G1 Z-2 F60
G2 X103 Y86.75 I1.5 J2 F240
G1 Y91.75
G2 X108 I2.5 J0
G1 Y86.75
G2 X107 Y84.75 I-2.5 J0
G0 Z5
X90 Y94.25
Z1
G1 Z0.5 F60
Z-1
Y84.25 F240
Z-2 F60
Y94.25 F240
G0 Z5
X84 Y89.3
Z1
G1 Z0.5 F60
Z-1
G3 X83 Y94.2 I-0.5 J2.45 F240
X81 Y91.75 I0.5 J-2.45
G1 Y84.25
Z-2 F60
Y91.75 F240
G2 X86 I2.5 J0
X84 Y89.3 I-2.5 J0
G0 Z15

(CAMERA COVER COUNTERSINK HOLES)
M8
G0 X110.23 Y110.11
Z15
Z0.3
G1 Z-0.7 F60
Z-2
G3 X109.27 Y109.39 I-0.48 J-0.36 F240
X110.23 Y110.11 I0.48 J0.36
G1 X109.926 Y109.882 Z-1.962 F480
G0 Z5
X110.23 Y79.61
Z0.3
G1 Z-0.7 F60
Z-2
G3 X109.27 Y78.89 I-0.48 J-0.36 F240
X110.23 Y79.61 I0.48 J0.36
G1 X109.926 Y79.382 Z-1.962 F480
G0 Z5
X79.25 Y78.65
Z0.3
G1 Z-0.7 F60
Z-2
G3 Y79.85 I0 J0.6 F240
Y78.65 I0 J-0.6
G1 Y79.03 Z-1.962 F480
G0 Z5
X78.77 Y110.11
Z0.3
G1 Z-0.7 F60
Z-2
G3 X79.73 Y109.39 I0.48 J-0.36 F240
X78.77 Y110.11 I-0.48 J0.36
G1 X79.074 Y109.882 Z-1.962 F480
G0 Z15

(CAMERA COVER NAME CONTOURS)
M8
G0 X96.491 Y89.25
Z15
Z2
G1 Z-1 F60
X96.5 F240
X96.509
G0 Z5
X98 Y93.75
Z2
G1 Z-1 F60
G2 X96.509 Y89.25 I-1.5 J-2 F240
X98 Y84.75 I-0.009 J-2.5
G0 Z5
X95
Z2
G1 Z-1 F60
G2 X96.491 Y89.25 I1.5 J2 F240
X95 Y93.75 I0.009 J2.5
G0 Z5
X98
Z1
G1 Z-2 F60
G2 X96.509 Y89.25 I-1.5 J-2 F240
X98 Y84.75 I-0.009 J-2.5
G0 Z5
X95
Z1
G1 Z-2 F60
G2 X96.491 Y89.25 I1.5 J2 F240
X95 Y93.75 I0.009 J2.5
G0 Z5
X96.491 Y89.25
Z1
G1 Z-2 F60
X96.5 F240
X96.509
G0 Z15

(CAMERA COVER OUTLINE CONTOUR)
M8
G0 X80.388 Y115.492
Z15
Z2
G1 Z-0.8 F60
X80.386 Y115.485 Z-0.852
X80.381 Y115.466 Z-0.9
X80.374 Y115.435 Z-0.941
X80.365 Y115.395 Z-0.973
X80.354 Y115.348 Z-0.993
X80.342 Y115.297 Z-1
X80.296 Y115.102 F120
G3 X80.446 Y114.862 I0.195 J-0.046
G2 X84.011 Y111.962 I-1.196 J-5.112 F240
G1 X88.152 Y103.05
G3 X100.848 I6.348 J2.95
G1 X104.989 Y111.962
G2 X115 Y109.75 I4.761 J-2.212
X113.966 Y101.867 I-30.57 J0
G3 Y87.133 I27.604 J-7.367
G2 X115 Y79.25 I-29.536 J-7.883
X109.75 Y74 I-5.25 J0
X101.867 Y75.034 I0 J30.57
G3 X87.133 I-7.367 J-27.604
G2 X79.25 Y74 I-7.883 J29.536
X74 Y79.25 I0 J5.25
X75.034 Y87.133 I30.57 J0
G3 Y101.867 I-27.604 J7.367
G2 X74 Y109.75 I29.536 J7.883
X80.446 Y114.862 I5.25 J0
G3 X80.686 Y115.011 I0.046 J0.195 F480
G1 X80.731 Y115.206
X80.743 Y115.256 Z-0.993
X80.754 Y115.303 Z-0.973
X80.764 Y115.344 Z-0.941
X80.771 Y115.375 Z-0.9
X80.775 Y115.394 Z-0.852
X80.777 Y115.401 Z-0.8
G0 Z5
X80.388 Y115.492
Z1
G1 Z-1.8 F60
X80.386 Y115.485 Z-1.852
X80.381 Y115.466 Z-1.9
X80.374 Y115.435 Z-1.941
X80.365 Y115.395 Z-1.973
X80.354 Y115.348 Z-1.993
X80.342 Y115.297 Z-2
X80.296 Y115.102 F120
G3 X80.446 Y114.862 I0.195 J-0.046
G2 X84.011 Y111.962 I-1.196 J-5.112 F240
G1 X88.152 Y103.05
G3 X100.848 I6.348 J2.95
G1 X104.989 Y111.962
G2 X115 Y109.75 I4.761 J-2.212
X113.966 Y101.867 I-30.57 J0
G3 Y87.133 I27.604 J-7.367
G2 X115 Y79.25 I-29.536 J-7.883
X109.75 Y74 I-5.25 J0
X101.867 Y75.034 I0 J30.57
G3 X87.133 I-7.367 J-27.604
G2 X79.25 Y74 I-7.883 J29.536
X74 Y79.25 I0 J5.25
X75.034 Y87.133 I30.57 J0
G3 Y101.867 I-27.604 J7.367
G2 X74 Y109.75 I29.536 J7.883
X80.446 Y114.862 I5.25 J0
G3 X80.686 Y115.011 I0.046 J0.195 F480
G1 X80.731 Y115.206
X80.743 Y115.256 Z-1.993
X80.754 Y115.303 Z-1.973
X80.764 Y115.344 Z-1.941
X80.771 Y115.375 Z-1.9
X80.775 Y115.394 Z-1.852
X80.777 Y115.401 Z-1.8
G0 Z15

(FC COVER COUNTERSINK HOLES)
M8
G0 X52.47 Y54.61
Z15
Z0.3
G1 Z-0.7 F60
Z-2
G3 X53.43 Y53.89 I0.48 J-0.36 F240
X52.47 Y54.61 I-0.48 J0.36
G1 X52.774 Y54.382 Z-1.962 F480
G0 Z5
X83.45 Y53.65
Z0.3
G1 Z-0.7 F60
Z-2
G3 Y54.85 I0 J0.6 F240
Y53.65 I0 J-0.6
G1 Y54.03 Z-1.962 F480
G0 Z15

(FC COVER FULL HOLES)
M8
G0 X77.4 Y37.9
Z15
Z2
G1 Z-1 F60
G3 Y38.2 I0 J0.15 F240
Y37.9 I0 J-0.15
G1 Z-2 F60
G3 Y38.2 I0 J0.15 F240
Y37.9 I0 J-0.15
G1 Y38.05 Z-1.985 F480
G0 Z5
X83.45 Y35.65
Z2
G1 Z-1 F60
G3 Y36.85 I0 J0.6 F240
Y35.65 I0 J-0.6
G1 Z-2 F60
G3 Y36.85 I0 J0.6 F240
Y35.65 I0 J-0.6
G1 Y36.03 Z-1.962 F480
G0 Z5
X71.7 Y47.62
Z2
G1 Z-1 F60
G3 Y48.28 I0 J0.33 F240
Y47.62 I0 J-0.33
G1 Z-2 F60
G3 Y48.28 I0 J0.33 F240
Y47.62 I0 J-0.33
G1 Y47.95 Z-1.967 F480
G0 Z5
X52.47 Y36.61
Z2
G1 Z-1 F60
G3 X53.43 Y35.89 I0.48 J-0.36 F240
X52.47 Y36.61 I-0.48 J0.36
G1 Z-2 F60
G3 X53.43 Y35.89 I0.48 J-0.36 F240
X52.47 Y36.61 I-0.48 J0.36
G1 X52.774 Y36.382 Z-1.962 F480
G0 Z5
X52.95 Y5.15
Z2
G1 Z-1 F60
G3 Y6.35 I0 J0.6 F240
Y5.15 I0 J-0.6
G1 Z-2 F60
G3 Y6.35 I0 J0.6 F240
Y5.15 I0 J-0.6
G1 Y5.53 Z-1.962 F480
G0 Z5
X83.45 Y5.15
Z2
G1 Z-1 F60
G3 Y6.35 I0 J0.6 F240
Y5.15 I0 J-0.6
G1 Z-2 F60
G3 Y6.35 I0 J0.6 F240
Y5.15 I0 J-0.6
G1 Y5.53 Z-1.962 F480
G0 Z15

(FC COVER INSIDE CONTOUR)
M8
G0 X52.1 Y21.124
Z15
Z2
G1 Z-0.8 F60
X52.093 Z-0.852
X52.073 Z-0.9
X52.041 Z-0.941
X52 Z-0.973
X51.952 Z-0.993
X51.9 Z-1
X51.7 F120
G3 X51.5 Y20.924 I0 J-0.2
G1 Y9.424 F240
G2 X56.697 Y4.5 I1.45 J-3.674
G1 X79.703
G2 X84.9 Y9.424 I3.747 J1.25
G1 Y32.576
G2 X79.534 Y35.733 I-1.45 J3.674
X74.298 Y37.5 I-2.134 J2.317
G1 X56.697
G2 X51.5 Y32.576 I-3.747 J-1.25
G1 Y20.924
G3 X51.7 Y20.724 I0.2 J0 F480
G1 X51.9
X51.952 Z-0.993
X52 Z-0.973
X52.041 Z-0.941
X52.073 Z-0.9
X52.093 Z-0.852
X52.1 Z-0.8
Y21.124
Z-1.8 F60
X52.093 Z-1.852
X52.073 Z-1.9
X52.041 Z-1.941
X52 Z-1.973
X51.952 Z-1.993
X51.9 Z-2
X51.7 F120
G3 X51.5 Y20.924 I0 J-0.2
G1 Y9.424 F240
G2 X56.697 Y4.5 I1.45 J-3.674
G1 X79.703
G2 X84.9 Y9.424 I3.747 J1.25
G1 Y32.576
G2 X79.534 Y35.733 I-1.45 J3.674
X74.298 Y37.5 I-2.134 J2.317
G1 X56.697
G2 X51.5 Y32.576 I-3.747 J-1.25
G1 Y20.924
G3 X51.7 Y20.724 I0.2 J0 F480
G1 X51.9
X51.952 Z-1.993
X52 Z-1.973
X52.041 Z-1.941
X52.073 Z-1.9
X52.093 Z-1.852
X52.1 Z-1.8
G0 Z15

(FC COVER OUTLINE CONTOUR)
M8
G0 X47.1 Y1.3
Z15
Z2
G1 Z-0.8 F60
X47.107 Z-0.852
X47.127 Z-0.9
X47.159 Z-0.941
X47.2 Z-0.973
X47.248 Z-0.993
X47.3 Z-1
X47.5 F120
G3 X47.7 Y1.5 I0 J0.2
G1 Y56.2 F240
G2 X52.7 Y61.2 I5 J0
G1 X83.7
G2 X88.7 Y56.2 I0 J-5
G1 Y1.5
G2 X87.7 Y0.5 I-1 J0
G1 X48.7
G2 X47.7 Y1.5 I0 J1
G3 X47.5 Y1.7 I-0.2 J0 F480
G1 X47.3
X47.248 Z-0.993
X47.2 Z-0.973
X47.159 Z-0.941
X47.127 Z-0.9
X47.107 Z-0.852
X47.1 Z-0.8
Y1.3
Z-1.8 F60
X47.107 Z-1.852
X47.127 Z-1.9
X47.159 Z-1.941
X47.2 Z-1.973
X47.248 Z-1.993
X47.3 Z-2
X47.5 F120
G3 X47.7 Y1.5 I0 J0.2
G1 Y56.2 F240
G2 X52.7 Y61.2 I5 J0
G1 X83.7
G2 X88.7 Y56.2 I0 J-5
G1 Y1.5
G2 X87.7 Y0.5 I-1 J0
G1 X48.7
G2 X47.7 Y1.5 I0 J1
G3 X47.5 Y1.7 I-0.2 J0 F480
G1 X47.3
X47.248 Z-1.993
X47.2 Z-1.973
X47.159 Z-1.941
X47.127 Z-1.9
X47.107 Z-1.852
X47.1 Z-1.8
G0 Z15

(BATTERY HOLDER COUNTERSINK HOLES)
M8
G0 X5.75 Y28.85
Z15
Z0.3
G1 Z-0.7 F60
Z-2
G3 Y27.65 I0 J-0.6 F240
Y28.85 I0 J0.6
G1 Y28.47 Z-1.962 F480
G0 Z5
X6.23 Y9.89
Z0.3
G1 Z-0.7 F60
Z-2
G3 X5.27 Y10.61 I-0.48 J0.36 F240
X6.23 Y9.89 I0.48 J-0.36
G1 X5.926 Y10.118 Z-1.962 F480
G0 Z5
X36.25 Y9.65
Z0.3
G1 Z-0.7 F60
Z-2
G3 Y10.85 I0 J0.6 F240
Y9.65 I0 J-0.6
G1 Y10.03 Z-1.962 F480
G0 Z5
X35.77 Y27.89
Z0.3
G1 Z-0.7 F60
Z-2
G3 X36.73 Y28.61 I0.48 J0.36 F240
X35.77 Y27.89 I-0.48 J-0.36
G1 X36.074 Y28.118 Z-1.962 F480
G0 Z5
X36.25 Y59.35
Z0.3
G1 Z-0.7 F60
Z-2
G3 Y58.15 I0 J-0.6 F240
Y59.35 I0 J0.6
G1 Y58.97 Z-1.962 F480
G0 Z5
X5.75 Y59.35
Z0.3
G1 Z-0.7 F60
Z-2
G3 Y58.15 I0 J-0.6 F240
Y59.35 I0 J0.6
G1 Y58.97 Z-1.962 F480
G0 Z15

(BATTERY HOLDER OUTLINE CONTOUR )
M8
G0 X42.1 Y69.8
Z15
Z2
G1 Z-0.8 F60
X42.093 Z-0.852
X42.073 Z-0.9
X42.041 Z-0.941
X42 Z-0.973
X41.952 Z-0.993
X41.9 Z-1
X41.7 F120
G3 X41.5 Y69.6 I0 J-0.2
G1 Y53.75 F240
G2 X40.5 Y52.75 I-1 J0
G1 X39.5
Y34.25
X40.5
G2 X41.5 Y33.25 I0 J-1
G1 Y14.614
X46.407 Y9.707
G2 X46.7 Y9 I-0.707 J-0.707
G1 Y1.5
G2 X45.7 Y0.5 I-1 J0
G1 X28.95
G2 X27.95 Y1.5 I0 J1
G1 Y3.3
X5.5
G2 X0.5 Y8.3 I0 J5
G1 Y33.25
G2 X1.5 Y34.25 I1 J0
G1 X2.5
Y52.75
X1.5
G2 X0.5 Y53.75 I0 J1
G1 Y69.6
G2 X1.5 Y70.6 I1 J0
G1 X4.7
G2 X5.7 Y69.6 I0 J-1
G1 Y69
X36.3
Y69.6
G2 X37.3 Y70.6 I1 J0
G1 X40.5
G2 X41.5 Y69.6 I0 J-1
G3 X41.7 Y69.4 I0.2 J0 F480
G1 X41.9
X41.952 Z-0.993
X42 Z-0.973
X42.041 Z-0.941
X42.073 Z-0.9
X42.093 Z-0.852
X42.1 Z-0.8
Y69.8
Z-1.8 F60
X42.093 Z-1.852
X42.073 Z-1.9
X42.041 Z-1.941
X42 Z-1.973
X41.952 Z-1.993
X41.9 Z-2
X41.7 F120
G3 X41.5 Y69.6 I0 J-0.2
G1 Y53.75 F240
G2 X40.5 Y52.75 I-1 J0
G1 X39.5
Y34.25
X40.5
G2 X41.5 Y33.25 I0 J-1
G1 Y14.614
X46.407 Y9.707
G2 X46.7 Y9 I-0.707 J-0.707
G1 Y1.5
G2 X45.7 Y0.5 I-1 J0
G1 X28.95
G2 X27.95 Y1.5 I0 J1
G1 Y3.3
X5.5
G2 X0.5 Y8.3 I0 J5
G1 Y33.25
G2 X1.5 Y34.25 I1 J0
G1 X2.5
Y52.75
X1.5
G2 X0.5 Y53.75 I0 J1
G1 Y69.6
G2 X1.5 Y70.6 I1 J0
G1 X4.7
G2 X5.7 Y69.6 I0 J-1
G1 Y69
X36.3
Y69.6
G2 X37.3 Y70.6 I1 J0
G1 X40.5
G2 X41.5 Y69.6 I0 J-1
G3 X41.7 Y69.4 I0.2 J0 F480
G1 X41.9
X41.952 Z-1.993
X42 Z-1.973
X42.041 Z-1.941
X42.073 Z-1.9
X42.093 Z-1.852
X42.1 Z-1.8
G0 Z15

M9
M30
