(CARBON-1.75MM)
(T28  D=6 CR=0 TAPER=45DEG - ZMIN=-3.3 - CHAMFER MILL)
G90 G94 G91.1 G40 G49 G17
G21

(CAMERA COVER CHAMFERS)
M5
M9
T28
(4 FLUTE FISH)
S14000 M3
G54
M8
G0 X109.75 Y79.25
G43 Z15 H26
Z5
G98 G73 X109.75 Y79.25 Z-3.3 R0.7 Q0.5 F40
X79.25
Y109.75
X109.75
G80
Z15

(FC COVER CHAMFERS)
M8
G0 X83.45 Y54.25
Z15
Z5
G73 X83.45 Y54.25 Z-3.3 R0.7 Q0.5 F40
X52.95
G80
Z15

(BATTERY HOLDER CHAMFERS)
M8
G0 X36.25 Y28.25
Z15
Z5
G73 X36.25 Y28.25 Z-3.3 R0.7 Q0.5 F40
Y10.25
X5.75
Y28.25
Y58.75
X36.25
G80
Z15

M9
M30
